(This GCode generated with outlines_gcode_excel_mirrored.ulp program)
(running under Eagle CAD.)
(Use with mechanical etching/engraving bits, such as the)
(Think&Tinker Mechanical Etching Bit with 60-degree tip angle)
(X/Y/Z home should be at lower left corner of the board, with the tip just touching)
(C:/Users/umaibow/Documents/eagle/robot_2014/miconborad_bot.nc layer 16)

(mm, Absolute mode, lift cutter above work, rapid to X/Y home, turn spindle on.)
G90
G0Z5.000
G0X0Y0
M03

(Begin)
G0Z2
G0X29.837047Y-65.798019
G1Z-0.100 f25
G1X29.802000Y-65.621825 f200
G1X29.802000Y-65.428009
G1X29.125997Y-65.428009
G1X29.125997Y-65.621825
G1X29.090950Y-65.798019
G1X29.053991Y-65.887241
G1X29.064919Y-65.877138
G1X29.098137Y-65.856781
G1X29.129672Y-65.833869
G1X29.153275Y-65.822991
G1X29.175431Y-65.809409
G1X29.211997Y-65.795919
G1X29.247381Y-65.779606
G1X29.272647Y-65.773541
G1X29.297031Y-65.764544
G1X29.335519Y-65.758450
G1X29.373413Y-65.749350
G1X29.399397Y-65.748331
G1X29.425050Y-65.744266
G1X29.463963Y-65.745794
G1X29.502931Y-65.744263
G1X29.528616Y-65.748331
G1X29.554566Y-65.749350
G1X29.592431Y-65.758441
G1X29.630950Y-65.764541
G1X29.655341Y-65.773541
G1X29.680600Y-65.779603
G1X29.715994Y-65.795919
G1X29.752550Y-65.809406
G1X29.774697Y-65.822978
G1X29.798309Y-65.833863
G1X29.829844Y-65.856772
G1X29.863063Y-65.877128
G1X29.874009Y-65.887250
G1X29.837047Y-65.798019

G0Z2
G0X29.090950Y-63.741978
G1Z-0.100 f25
G1X29.125997Y-63.918172 f200
G1X29.125997Y-64.111981
G1X29.802000Y-64.111981
G1X29.802000Y-63.918172
G1X29.837047Y-63.741978
G1X29.874009Y-63.652747
G1X29.863075Y-63.662856
G1X29.829856Y-63.683213
G1X29.798322Y-63.706125
G1X29.774719Y-63.717006
G1X29.752562Y-63.730584
G1X29.715997Y-63.744075
G1X29.680613Y-63.760388
G1X29.655347Y-63.766453
G1X29.630963Y-63.775450
G1X29.592475Y-63.781547
G1X29.554581Y-63.790644
G1X29.528597Y-63.791663
G1X29.502944Y-63.795728
G1X29.464031Y-63.794200
G1X29.425063Y-63.795731
G1X29.399378Y-63.791663
G1X29.373428Y-63.790644
G1X29.335563Y-63.781553
G1X29.297044Y-63.775453
G1X29.272653Y-63.766453
G1X29.247394Y-63.760391
G1X29.212000Y-63.744075
G1X29.175444Y-63.730588
G1X29.153297Y-63.717016
G1X29.129684Y-63.706131
G1X29.098150Y-63.683222
G1X29.064931Y-63.662866
G1X29.053988Y-63.652747
G1X29.090950Y-63.741978

G0Z2
G0X96.207150Y-73.426806
G1Z-0.100 f25
G1X95.758850Y-73.167978 f200
G1X95.258825Y-73.033997
G1X94.741169Y-73.033997
G1X94.241147Y-73.167975
G1X93.792844Y-73.426806
G1X93.426806Y-73.792847
G1X93.167978Y-74.241144
G1X93.033997Y-74.741169
G1X93.033997Y-75.258825
G1X93.167978Y-75.758850
G1X93.426806Y-76.207150
G1X93.792844Y-76.573188
G1X94.241144Y-76.832016
G1X94.741169Y-76.965997
G1X95.258825Y-76.965997
G1X95.758850Y-76.832016
G1X96.207150Y-76.573188
G1X96.573188Y-76.207150
G1X96.832016Y-75.758850
G1X96.965997Y-75.258825
G1X96.965997Y-74.741169
G1X96.832016Y-74.241144
G1X96.573188Y-73.792844
G1X96.207150Y-73.426806

G0Z2
G0X6.207150Y-73.426806
G1Z-0.100 f25
G1X5.758850Y-73.167978 f200
G1X5.258825Y-73.033997
G1X4.741169Y-73.033997
G1X4.241144Y-73.167978
G1X3.792844Y-73.426806
G1X3.426806Y-73.792844
G1X3.167978Y-74.241144
G1X3.033997Y-74.741169
G1X3.033997Y-75.258825
G1X3.167978Y-75.758850
G1X3.426806Y-76.207150
G1X3.792844Y-76.573188
G1X4.241144Y-76.832016
G1X4.741169Y-76.965997
G1X5.258825Y-76.965997
G1X5.758850Y-76.832016
G1X6.207150Y-76.573188
G1X6.573188Y-76.207150
G1X6.832016Y-75.758853
G1X6.965997Y-75.258825
G1X6.965997Y-74.741169
G1X6.832016Y-74.241144
G1X6.573188Y-73.792844
G1X6.207150Y-73.426806

G0Z2
G0X93.426806Y-3.792844
G1Z-0.100 f25
G1X93.167978Y-4.241141 f200
G1X93.033997Y-4.741169
G1X93.033997Y-5.258825
G1X93.167978Y-5.758850
G1X93.426806Y-6.207150
G1X93.792847Y-6.573188
G1X94.241144Y-6.832016
G1X94.741169Y-6.965997
G1X95.258825Y-6.965997
G1X95.758850Y-6.832016
G1X96.207150Y-6.573188
G1X96.573188Y-6.207150
G1X96.832016Y-5.758850
G1X96.965997Y-5.258825
G1X96.965997Y-4.741169
G1X96.832016Y-4.241144
G1X96.573188Y-3.792844
G1X96.207150Y-3.426806
G1X95.758850Y-3.167978
G1X95.258825Y-3.033997
G1X94.741169Y-3.033997
G1X94.241144Y-3.167978
G1X93.792844Y-3.426806
G1X93.426806Y-3.792844

G0Z2
G0X6.207147Y-3.426806
G1Z-0.100 f25
G1X5.758850Y-3.167978 f200
G1X5.258825Y-3.033997
G1X4.741169Y-3.033997
G1X4.241144Y-3.167978
G1X3.792844Y-3.426806
G1X3.426806Y-3.792844
G1X3.167978Y-4.241144
G1X3.033997Y-4.741169
G1X3.033997Y-5.258825
G1X3.167978Y-5.758850
G1X3.426806Y-6.207150
G1X3.792844Y-6.573188
G1X4.241144Y-6.832016
G1X4.741169Y-6.965997
G1X5.258825Y-6.965997
G1X5.758850Y-6.832016
G1X6.207150Y-6.573188
G1X6.573188Y-6.207150
G1X6.832016Y-5.758850
G1X6.965997Y-5.258825
G1X6.965997Y-4.741172
G1X6.832016Y-4.241144
G1X6.573188Y-3.792844
G1X6.207147Y-3.426806

G0Z2
G0X27.842234Y-78.712197
G1Z-0.100 f25
G1X19.460234Y-78.712197 f200
G1X19.267116Y-78.681609
G1X19.081159Y-78.621188
G1X18.906944Y-78.532422
G1X18.748759Y-78.417494
G1X18.610503Y-78.279238
G1X18.610503Y-78.279234
G1X14.292503Y-73.961238
G1X14.177575Y-73.803053
G1X14.088809Y-73.628838
G1X14.028388Y-73.442881
G1X13.997800Y-73.249763
G1X13.997800Y-71.473197
G1X8.792234Y-71.473197
G1X8.599116Y-71.442609
G1X8.413159Y-71.382188
G1X8.238944Y-71.293422
G1X8.080759Y-71.178494
G1X4.270763Y-67.368494
G1X4.270759Y-67.368494
G1X4.132503Y-67.230238
G1X4.017575Y-67.072053
G1X3.928809Y-66.897838
G1X3.868388Y-66.711881
G1X3.837800Y-66.518763
G1X3.837800Y-60.862234
G1X3.868388Y-60.669116
G1X3.928809Y-60.483159
G1X4.017575Y-60.308944
G1X4.132503Y-60.150759
G1X4.243513Y-60.039753
G1X4.251897Y-59.997594
G1X4.316816Y-59.840866
G1X4.411062Y-59.699816
G1X4.531016Y-59.579863
G1X4.672066Y-59.485616
G1X4.828794Y-59.420697
G1X4.995175Y-59.387600
G1X5.164822Y-59.387600
G1X5.331203Y-59.420697
G1X5.487931Y-59.485616
G1X5.628981Y-59.579863
G1X5.748934Y-59.699816
G1X5.843181Y-59.840866
G1X5.908100Y-59.997594
G1X5.916484Y-60.039753
G1X6.027494Y-60.150759
G1X6.142422Y-60.308944
G1X6.231187Y-60.483159
G1X6.291609Y-60.669116
G1X6.322197Y-60.862234
G1X6.322197Y-65.906466
G1X9.404534Y-68.988800
G1X14.464006Y-68.988800
G1X14.531603Y-68.887631
G1X14.658631Y-68.760603
G1X14.808003Y-68.660797
G1X14.973978Y-68.592047
G1X15.150172Y-68.557000
G1X15.329825Y-68.557000
G1X15.506019Y-68.592047
G1X15.671994Y-68.660797
G1X15.821366Y-68.760603
G1X15.948394Y-68.887631
G1X16.048200Y-69.037003
G1X16.116950Y-69.202978
G1X16.151997Y-69.379172
G1X16.151997Y-69.386263
G1X16.187494Y-69.421759
G1X16.302422Y-69.579944
G1X16.391188Y-69.754159
G1X16.451609Y-69.940116
G1X16.482197Y-70.133234
G1X16.482197Y-72.637462
G1X20.072534Y-76.227800
G1X85.591463Y-76.227800
G1X96.544344Y-65.274922
G1X96.424250Y-47.380981
G1X95.878462Y-46.835197
G1X93.755234Y-46.835197
G1X93.562116Y-46.804609
G1X93.376159Y-46.744188
G1X93.201944Y-46.655422
G1X93.043759Y-46.540494
G1X93.008263Y-46.504997
G1X93.001172Y-46.504997
G1X92.824978Y-46.469950
G1X92.659003Y-46.401200
G1X92.509631Y-46.301394
G1X92.382603Y-46.174366
G1X92.282797Y-46.024994
G1X92.214047Y-45.859019
G1X92.179000Y-45.682825
G1X92.179000Y-45.503172
G1X92.214047Y-45.326978
G1X92.282797Y-45.161003
G1X92.382603Y-45.011631
G1X92.509631Y-44.884603
G1X92.659003Y-44.784797
G1X92.824978Y-44.716047
G1X93.001172Y-44.681000
G1X93.008263Y-44.681000
G1X93.043759Y-44.645503
G1X93.201944Y-44.530575
G1X93.376159Y-44.441809
G1X93.562116Y-44.381388
G1X93.755234Y-44.350800
G1X96.490763Y-44.350800
G1X96.683881Y-44.381388
G1X96.869838Y-44.441809
G1X97.044053Y-44.530575
G1X97.202238Y-44.645503
G1X97.340494Y-44.783759
G1X98.538356Y-45.981625
G1X98.605044Y-46.047419
G1X98.607538Y-46.050803
G1X98.610494Y-46.053759
G1X98.665425Y-46.129369
G1X98.721028Y-46.204828
G1X98.722956Y-46.208553
G1X98.725422Y-46.211944
G1X98.767875Y-46.295262
G1X98.810963Y-46.378444
G1X98.812288Y-46.382431
G1X98.814188Y-46.386159
G1X98.843041Y-46.474966
G1X98.872631Y-46.563991
G1X98.873316Y-46.568137
G1X98.874609Y-46.572116
G1X98.889234Y-46.664459
G1X98.904513Y-46.756900
G1X98.904541Y-46.761094
G1X98.905197Y-46.765234
G1X98.905197Y-46.858847
G1X99.031541Y-65.684094
G1X99.032197Y-65.688234
G1X99.032197Y-65.781828
G1X99.032825Y-65.875425
G1X99.032197Y-65.879569
G1X99.032197Y-65.883763
G1X99.017559Y-65.976175
G1X99.003534Y-66.068744
G1X99.002266Y-66.072741
G1X99.001609Y-66.076881
G1X98.972703Y-66.165844
G1X98.944363Y-66.255100
G1X98.942481Y-66.258850
G1X98.941187Y-66.262838
G1X98.898775Y-66.346078
G1X98.856769Y-66.429909
G1X98.854319Y-66.433328
G1X98.852422Y-66.437053
G1X98.797447Y-66.512719
G1X98.742903Y-66.588859
G1X98.739963Y-66.591841
G1X98.737494Y-66.595237
G1X98.671359Y-66.661372
G1X98.605578Y-66.728044
G1X98.602194Y-66.730537
G1X86.915238Y-78.417494
G1X86.757053Y-78.532422
G1X86.582838Y-78.621188
G1X86.396881Y-78.681609
G1X86.203763Y-78.712197
G1X28.350234Y-78.712197
G1X27.842234Y-78.712197

G0Z2
G0X20.150994Y-37.202447
G1Z-0.100 f25
G1X20.150984Y-37.202428 f200
G1X20.150972Y-37.202419
G1X20.113541Y-37.146391
G1X20.078984Y-37.094675
G1X20.078981Y-37.094662
G1X20.078969Y-37.094647
G1X20.051853Y-37.029169
G1X20.029384Y-36.974928
G1X20.029381Y-36.974909
G1X20.029375Y-36.974897
G1X20.016028Y-36.907778
G1X20.004097Y-36.847803
G1X20.004097Y-36.847788
G1X20.004094Y-36.847772
G1X20.004097Y-36.780097
G1X20.004097Y-36.718187
G1X20.004100Y-36.718175
G1X20.004100Y-36.718153
G1X20.018287Y-36.646863
G1X20.029384Y-36.591062
G1X20.029391Y-36.591050
G1X20.029394Y-36.591031
G1X20.058909Y-36.519787
G1X20.078984Y-36.471316
G1X20.078994Y-36.471306
G1X20.079000Y-36.471284
G1X20.116447Y-36.415250
G1X20.150994Y-36.363544
G1X20.151009Y-36.363531
G1X20.151016Y-36.363519
G1X20.183547Y-36.330994
G1X20.242644Y-36.271894
G1X20.242653Y-36.271891
G1X20.273447Y-36.241094
G1X20.273466Y-36.241081
G1X20.273475Y-36.241072
G1X20.327353Y-36.205078
G1X20.381219Y-36.169084
G1X20.381231Y-36.169081
G1X20.381247Y-36.169069
G1X20.444944Y-36.142691
G1X20.500966Y-36.119484
G1X20.500984Y-36.119481
G1X20.500997Y-36.119475
G1X20.565966Y-36.106556
G1X20.628091Y-36.094197
G1X20.628106Y-36.094197
G1X20.628122Y-36.094194
G1X20.693647Y-36.094197
G1X50.562525Y-36.094197
G1X50.626619Y-36.094194
G1X50.626631Y-36.094197
G1X50.626634Y-36.094197
G1X50.627363Y-36.094344
G1X50.753744Y-36.119478
G1X50.753756Y-36.119484
G1X50.753759Y-36.119484
G1X50.873506Y-36.169084
G1X50.981278Y-36.241094
G1X51.042875Y-36.302691
G1X51.042884Y-36.302697
G1X51.133722Y-36.393538
G1X51.134522Y-36.394334
G1X51.134534Y-36.394347
G1X51.191247Y-36.479228
G1X51.206534Y-36.502103
G1X51.206534Y-36.502109
G1X51.206544Y-36.502119
G1X51.229278Y-36.557009
G1X51.256141Y-36.621850
G1X51.281428Y-36.748972
G1X51.281428Y-36.748978
G1X51.281431Y-36.748991
G1X51.281431Y-36.813066
G1X51.281434Y-36.878591
G1X51.256150Y-37.005716
G1X51.256144Y-37.005728
G1X51.256144Y-37.005731
G1X51.206544Y-37.125478
G1X51.134534Y-37.233250
G1X51.043613Y-37.324169
G1X51.042897Y-37.324888
G1X51.042884Y-37.324900
G1X50.958003Y-37.381613
G1X50.935128Y-37.396900
G1X50.935122Y-37.396900
G1X50.935113Y-37.396909
G1X50.880222Y-37.419644
G1X50.815381Y-37.446506
G1X50.688259Y-37.471794
G1X50.688253Y-37.471794
G1X50.688241Y-37.471797
G1X50.624166Y-37.471797
G1X50.558641Y-37.471800
G1X50.558625Y-37.471797
G1X20.628091Y-37.471797
G1X20.500966Y-37.446509
G1X20.381219Y-37.396909
G1X20.273447Y-37.324900
G1X20.242631Y-37.294081
G1X20.242619Y-37.294075
G1X20.210638Y-37.262087
G1X20.181797Y-37.233250
G1X20.181797Y-37.233247
G1X20.150994Y-37.202447

G0Z2
G0X11.383475Y-32.204922
G1Z-0.100 f25
G1X11.383466Y-32.204912 f200
G1X11.383447Y-32.204900
G1X11.352653Y-32.174106
G1X11.352644Y-32.174100
G1X11.289716Y-32.111172
G1X11.261016Y-32.082475
G1X11.261009Y-32.082466
G1X11.260994Y-32.082450
G1X11.224150Y-32.027309
G1X11.189000Y-31.974709
G1X11.188994Y-31.974688
G1X11.188984Y-31.974678
G1X11.166534Y-31.920475
G1X11.139394Y-31.854963
G1X11.139391Y-31.854947
G1X11.139384Y-31.854931
G1X11.127247Y-31.793919
G1X11.114100Y-31.727841
G1X11.114100Y-31.727822
G1X11.114097Y-31.727806
G1X11.114097Y-31.660166
G1X11.114094Y-31.598222
G1X11.114097Y-31.598209
G1X11.114097Y-31.598191
G1X11.127169Y-31.532481
G1X11.139375Y-31.471097
G1X11.139381Y-31.471084
G1X11.139384Y-31.471066
G1X11.163819Y-31.412075
G1X11.188969Y-31.351347
G1X11.188978Y-31.351334
G1X11.188984Y-31.351319
G1X11.227372Y-31.293869
G1X11.260972Y-31.243575
G1X11.260981Y-31.243566
G1X11.260994Y-31.243547
G1X11.323981Y-31.180559
G1X11.352619Y-31.151919
G1X11.352628Y-31.151913
G1X11.383447Y-31.121094
G1X11.491219Y-31.049084
G1X11.610966Y-30.999484
G1X11.738091Y-30.974197
G1X50.522525Y-30.974197
G1X50.586619Y-30.974194
G1X50.586634Y-30.974197
G1X50.587363Y-30.974344
G1X50.713744Y-30.999478
G1X50.713756Y-30.999484
G1X50.713759Y-30.999484
G1X50.833506Y-31.049084
G1X50.941278Y-31.121094
G1X51.002875Y-31.182691
G1X51.002884Y-31.182697
G1X51.093722Y-31.273537
G1X51.094522Y-31.274334
G1X51.094534Y-31.274347
G1X51.151247Y-31.359228
G1X51.166534Y-31.382103
G1X51.166534Y-31.382109
G1X51.166544Y-31.382119
G1X51.189278Y-31.437009
G1X51.216141Y-31.501850
G1X51.241428Y-31.628972
G1X51.241428Y-31.628975
G1X51.241431Y-31.628991
G1X51.241431Y-31.693066
G1X51.241434Y-31.758591
G1X51.216150Y-31.885716
G1X51.216144Y-31.885728
G1X51.216144Y-31.885731
G1X51.166544Y-32.005478
G1X51.094534Y-32.113250
G1X51.003613Y-32.204169
G1X51.002897Y-32.204887
G1X51.002884Y-32.204900
G1X50.918003Y-32.261612
G1X50.895128Y-32.276900
G1X50.895122Y-32.276900
G1X50.895113Y-32.276909
G1X50.840222Y-32.299644
G1X50.775381Y-32.326506
G1X50.648259Y-32.351794
G1X50.648256Y-32.351794
G1X50.648241Y-32.351797
G1X50.584166Y-32.351797
G1X50.518641Y-32.351800
G1X50.518625Y-32.351797
G1X11.802216Y-32.351797
G1X11.738122Y-32.351800
G1X11.738106Y-32.351797
G1X11.738091Y-32.351797
G1X11.674531Y-32.339153
G1X11.610997Y-32.326519
G1X11.610984Y-32.326512
G1X11.610966Y-32.326509
G1X11.553756Y-32.302813
G1X11.491247Y-32.276925
G1X11.491231Y-32.276913
G1X11.491219Y-32.276909
G1X11.435919Y-32.239959
G1X11.383475Y-32.204922

G0Z2
G0X29.289359Y-27.186509
G1Z-0.100 f25
G1X29.289356Y-27.186506 f200
G1X29.289350Y-27.186506
G1X29.256000Y-27.172691
G1X29.169613Y-27.136909
G1X29.169603Y-27.136903
G1X29.162444Y-27.132119
G1X29.061841Y-27.064900
G1X29.061834Y-27.064894
G1X29.057534Y-27.060594
G1X28.970191Y-26.973250
G1X28.970184Y-26.973241
G1X28.967638Y-26.969425
G1X28.898181Y-26.865478
G1X28.848581Y-26.745731
G1X28.848581Y-26.745728
G1X28.848578Y-26.745722
G1X28.837528Y-26.690159
G1X28.823294Y-26.618606
G1X28.823294Y-26.488981
G1X28.839241Y-26.408822
G1X28.848581Y-26.361866
G1X28.848584Y-26.361863
G1X28.848584Y-26.361856
G1X28.862400Y-26.328506
G1X28.898181Y-26.242119
G1X28.898188Y-26.242109
G1X28.902972Y-26.234950
G1X28.970191Y-26.134347
G1X28.970197Y-26.134341
G1X28.974731Y-26.129809
G1X29.061841Y-26.042697
G1X29.061850Y-26.042691
G1X29.071797Y-26.032744
G1X29.163447Y-25.941094
G1X29.163456Y-25.941088
G1X29.164406Y-25.940453
G1X29.271219Y-25.869084
G1X29.390966Y-25.819484
G1X29.390969Y-25.819484
G1X29.390975Y-25.819481
G1X29.443672Y-25.809000
G1X29.518091Y-25.794197
G1X50.486634Y-25.794197
G1X50.563919Y-25.809572
G1X50.613750Y-25.819481
G1X50.613753Y-25.819484
G1X50.613759Y-25.819484
G1X50.733506Y-25.869084
G1X50.841278Y-25.941094
G1X50.932928Y-26.032744
G1X50.942875Y-26.042691
G1X50.942884Y-26.042697
G1X51.033016Y-26.132831
G1X51.034528Y-26.134341
G1X51.034534Y-26.134347
G1X51.104619Y-26.239241
G1X51.106538Y-26.242109
G1X51.106544Y-26.242119
G1X51.143512Y-26.331372
G1X51.156141Y-26.361856
G1X51.156141Y-26.361863
G1X51.156144Y-26.361866
G1X51.166053Y-26.411688
G1X51.181431Y-26.488981
G1X51.181431Y-26.618606
G1X51.166628Y-26.693025
G1X51.156147Y-26.745722
G1X51.156144Y-26.745728
G1X51.156144Y-26.745731
G1X51.106544Y-26.865478
G1X51.035175Y-26.972291
G1X51.034541Y-26.973241
G1X51.034534Y-26.973250
G1X50.944322Y-27.063459
G1X50.942891Y-27.064894
G1X50.942884Y-27.064900
G1X50.837991Y-27.134984
G1X50.835122Y-27.136903
G1X50.835113Y-27.136909
G1X50.745859Y-27.173878
G1X50.715375Y-27.186506
G1X50.715369Y-27.186506
G1X50.715366Y-27.186509
G1X50.665544Y-27.196419
G1X50.588250Y-27.211797
G1X29.416475Y-27.211797
G1X29.336316Y-27.195850
G1X29.289359Y-27.186509

G0Z2
G0X20.150994Y-39.702447
G1Z-0.100 f25
G1X20.150981Y-39.702428 f200
G1X20.150972Y-39.702419
G1X20.113541Y-39.646391
G1X20.078984Y-39.594675
G1X20.078981Y-39.594663
G1X20.078969Y-39.594647
G1X20.051853Y-39.529172
G1X20.029384Y-39.474928
G1X20.029381Y-39.474909
G1X20.029375Y-39.474897
G1X20.016028Y-39.407778
G1X20.004097Y-39.347803
G1X20.004097Y-39.347788
G1X20.004094Y-39.347772
G1X20.004097Y-39.280097
G1X20.004097Y-39.218187
G1X20.004100Y-39.218175
G1X20.004100Y-39.218153
G1X20.018284Y-39.146863
G1X20.029384Y-39.091062
G1X20.029391Y-39.091050
G1X20.029394Y-39.091031
G1X20.058909Y-39.019787
G1X20.078984Y-38.971316
G1X20.078991Y-38.971306
G1X20.079000Y-38.971284
G1X20.116447Y-38.915250
G1X20.150994Y-38.863544
G1X20.151009Y-38.863531
G1X20.151016Y-38.863519
G1X20.183547Y-38.830994
G1X20.242644Y-38.771894
G1X20.242653Y-38.771888
G1X20.273447Y-38.741094
G1X20.273466Y-38.741081
G1X20.273475Y-38.741072
G1X20.327353Y-38.705078
G1X20.381219Y-38.669084
G1X20.381231Y-38.669081
G1X20.381247Y-38.669069
G1X20.444944Y-38.642691
G1X20.500966Y-38.619484
G1X20.500984Y-38.619481
G1X20.500997Y-38.619475
G1X20.565966Y-38.606556
G1X20.628091Y-38.594197
G1X20.628106Y-38.594197
G1X20.628122Y-38.594194
G1X20.693647Y-38.594197
G1X50.522525Y-38.594197
G1X50.586619Y-38.594194
G1X50.586631Y-38.594197
G1X50.586634Y-38.594197
G1X50.587363Y-38.594344
G1X50.713744Y-38.619478
G1X50.713756Y-38.619484
G1X50.713759Y-38.619484
G1X50.833506Y-38.669084
G1X50.941278Y-38.741094
G1X51.002875Y-38.802691
G1X51.002884Y-38.802697
G1X51.093722Y-38.893538
G1X51.094522Y-38.894334
G1X51.094534Y-38.894347
G1X51.151247Y-38.979228
G1X51.166534Y-39.002103
G1X51.166534Y-39.002109
G1X51.166544Y-39.002119
G1X51.189278Y-39.057009
G1X51.216141Y-39.121850
G1X51.241428Y-39.248972
G1X51.241428Y-39.248978
G1X51.241431Y-39.248991
G1X51.241431Y-39.313066
G1X51.241434Y-39.378591
G1X51.216150Y-39.505716
G1X51.216144Y-39.505728
G1X51.216144Y-39.505731
G1X51.166544Y-39.625478
G1X51.094534Y-39.733250
G1X51.003613Y-39.824169
G1X51.002897Y-39.824888
G1X51.002884Y-39.824900
G1X50.918003Y-39.881613
G1X50.895128Y-39.896900
G1X50.895122Y-39.896900
G1X50.895113Y-39.896909
G1X50.840222Y-39.919644
G1X50.775381Y-39.946506
G1X50.648259Y-39.971794
G1X50.648253Y-39.971794
G1X50.648241Y-39.971797
G1X50.584166Y-39.971797
G1X50.518641Y-39.971800
G1X50.518625Y-39.971797
G1X20.628091Y-39.971797
G1X20.500966Y-39.946509
G1X20.381219Y-39.896909
G1X20.273447Y-39.824900
G1X20.242628Y-39.794081
G1X20.242619Y-39.794075
G1X20.210638Y-39.762087
G1X20.181797Y-39.733250
G1X20.150994Y-39.702447

G0Z2
G0X76.477359Y-24.913797
G1Z-0.100 f25
G1X76.350234Y-24.888509 f200
G1X76.230488Y-24.838909
G1X76.174450Y-24.801466
G1X76.142188Y-24.788103
G1X76.034419Y-24.716091
G1X75.942769Y-24.624438
G1X75.942763Y-24.624431
G1X75.872672Y-24.519522
G1X75.870762Y-24.516669
G1X75.870756Y-24.516659
G1X75.833784Y-24.427391
G1X75.821162Y-24.396919
G1X75.821162Y-24.396913
G1X75.821159Y-24.396909
G1X75.795875Y-24.269784
G1X75.795878Y-24.205694
G1X75.795878Y-24.140178
G1X75.821166Y-24.013056
G1X75.821169Y-24.013053
G1X75.821169Y-24.013044
G1X75.838666Y-23.970809
G1X75.870769Y-23.893306
G1X75.942781Y-23.785538
G1X76.034434Y-23.693888
G1X76.034441Y-23.693881
G1X76.139350Y-23.623791
G1X76.142203Y-23.621881
G1X76.142212Y-23.621875
G1X76.145153Y-23.620659
G1X76.324716Y-23.441094
G1X76.432488Y-23.369084
G1X76.552234Y-23.319484
G1X76.679359Y-23.294197
G1X79.447906Y-23.294197
G1X79.575031Y-23.319484
G1X79.694778Y-23.369084
G1X79.802550Y-23.441094
G1X79.833347Y-23.471894
G1X79.833350Y-23.471894
G1X79.925000Y-23.563544
G1X79.997009Y-23.671316
G1X80.046609Y-23.791063
G1X80.071897Y-23.918188
G1X80.071897Y-24.047803
G1X80.046609Y-24.174928
G1X79.997009Y-24.294675
G1X79.925000Y-24.402447
G1X79.560547Y-24.766900
G1X79.452775Y-24.838909
G1X79.333028Y-24.888509
G1X79.205903Y-24.913797
G1X79.076288Y-24.913797
G1X76.477359Y-24.913797

G0Z2
G0X76.142219Y-31.241869
G1Z-0.100 f25
G1X76.145159Y-31.240653 f200
G1X76.233059Y-31.152750
G1X76.233063Y-31.152744
G1X76.322225Y-31.063584
G1X76.324709Y-31.061097
G1X76.324713Y-31.061094
G1X76.432484Y-30.989084
G1X76.501197Y-30.960625
G1X76.552228Y-30.939484
G1X76.679350Y-30.914197
G1X92.147903Y-30.914197
G1X92.275028Y-30.939484
G1X92.394775Y-30.989084
G1X92.502547Y-31.061094
G1X92.594197Y-31.152744
G1X92.625000Y-31.183547
G1X92.625003Y-31.183550
G1X92.697012Y-31.291322
G1X92.746612Y-31.411069
G1X92.766581Y-31.511475
G1X92.771897Y-31.538191
G1X92.771897Y-31.667809
G1X92.746609Y-31.794934
G1X92.726656Y-31.843100
G1X92.697009Y-31.914678
G1X92.625000Y-32.022450
G1X92.533350Y-32.114100
G1X92.533341Y-32.114106
G1X92.260544Y-32.386903
G1X92.152772Y-32.458913
G1X92.033025Y-32.508513
G1X91.929753Y-32.529050
G1X91.905903Y-32.533797
G1X76.606944Y-32.533797
G1X76.606931Y-32.533800
G1X76.542838Y-32.533797
G1X76.477356Y-32.533797
G1X76.477341Y-32.533794
G1X76.477313Y-32.533794
G1X76.406834Y-32.519766
G1X76.350231Y-32.508509
G1X76.350212Y-32.508500
G1X76.350191Y-32.508497
G1X76.282106Y-32.480291
G1X76.230484Y-32.458909
G1X76.230472Y-32.458900
G1X76.230447Y-32.458891
G1X76.180628Y-32.425594
G1X76.174441Y-32.421459
G1X76.142197Y-32.408106
G1X76.142188Y-32.408097
G1X76.142166Y-32.408091
G1X76.065213Y-32.356666
G1X76.034425Y-32.336097
G1X76.034419Y-32.336091
G1X76.034400Y-32.336078
G1X75.973781Y-32.275450
G1X75.942775Y-32.244447
G1X75.942769Y-32.244434
G1X75.942753Y-32.244422
G1X75.898469Y-32.178137
G1X75.870762Y-32.136678
G1X75.870759Y-32.136662
G1X75.870747Y-32.136650
G1X75.844863Y-32.074141
G1X75.821162Y-32.016931
G1X75.821159Y-32.016913
G1X75.821153Y-32.016900
G1X75.808519Y-31.953366
G1X75.795875Y-31.889806
G1X75.795875Y-31.889788
G1X75.795872Y-31.889775
G1X75.795875Y-31.825681
G1X75.795875Y-31.760191
G1X75.795878Y-31.760175
G1X75.795878Y-31.760156
G1X75.809413Y-31.692138
G1X75.821159Y-31.633066
G1X75.821166Y-31.633053
G1X75.821169Y-31.633034
G1X75.849209Y-31.565356
G1X75.870762Y-31.513319
G1X75.870772Y-31.513309
G1X75.870778Y-31.513288
G1X75.922203Y-31.436334
G1X75.942772Y-31.405547
G1X75.942778Y-31.405541
G1X75.942791Y-31.405522
G1X76.003419Y-31.344903
G1X76.034422Y-31.313897
G1X76.034434Y-31.313891
G1X76.034447Y-31.313875
G1X76.100731Y-31.269591
G1X76.142191Y-31.241884
G1X76.142206Y-31.241881
G1X76.142219Y-31.241869

G0Z2
G0X79.925009Y-21.063559
G1Z-0.100 f25
G1X79.944750Y-21.093106 f200
G1X79.997009Y-21.171319
G1X79.997012Y-21.171328
G1X79.997016Y-21.171331
G1X80.032375Y-21.256706
G1X80.046609Y-21.291066
G1X80.046609Y-21.291069
G1X80.046616Y-21.291081
G1X80.060094Y-21.358863
G1X80.071897Y-21.418191
G1X80.071897Y-21.547822
G1X80.051866Y-21.648497
G1X80.046609Y-21.674931
G1X80.046606Y-21.674934
G1X80.046606Y-21.674944
G1X80.016400Y-21.747863
G1X79.997009Y-21.794678
G1X79.997006Y-21.794681
G1X79.997003Y-21.794691
G1X79.970259Y-21.834709
G1X79.925000Y-21.902450
G1X79.802550Y-22.024900
G1X79.694778Y-22.096909
G1X79.575031Y-22.146509
G1X79.447906Y-22.171797
G1X76.577744Y-22.171797
G1X76.503316Y-22.156991
G1X76.450628Y-22.146509
G1X76.450622Y-22.146506
G1X76.450619Y-22.146506
G1X76.423000Y-22.135066
G1X76.330881Y-22.096909
G1X76.223109Y-22.024900
G1X76.131459Y-21.933250
G1X76.059450Y-21.825478
G1X76.009850Y-21.705731
G1X76.009850Y-21.705725
G1X76.009847Y-21.705722
G1X75.999938Y-21.655891
G1X75.984563Y-21.578606
G1X75.984563Y-21.448981
G1X75.999369Y-21.374553
G1X76.009850Y-21.321866
G1X76.009853Y-21.321859
G1X76.009853Y-21.321856
G1X76.021294Y-21.294238
G1X76.059450Y-21.202119
G1X76.131459Y-21.094347
G1X76.223109Y-21.002697
G1X76.223119Y-21.002691
G1X76.233066Y-20.992744
G1X76.324716Y-20.901094
G1X76.324725Y-20.901088
G1X76.325675Y-20.900453
G1X76.432488Y-20.829084
G1X76.552234Y-20.779484
G1X76.552238Y-20.779484
G1X76.552244Y-20.779481
G1X76.604941Y-20.769000
G1X76.679359Y-20.754197
G1X79.407922Y-20.754197
G1X79.512181Y-20.774941
G1X79.535031Y-20.779484
G1X79.535034Y-20.779488
G1X79.535044Y-20.779488
G1X79.612262Y-20.811475
G1X79.654778Y-20.829084
G1X79.654781Y-20.829087
G1X79.654791Y-20.829091
G1X79.697388Y-20.857556
G1X79.762550Y-20.901094
G1X79.854200Y-20.992744
G1X79.854206Y-20.992753
G1X79.925000Y-21.063547
G1X79.925006Y-21.063556
G1X79.925009Y-21.063559

G0Z2
G0X13.399806Y-71.477997
G1Z-0.100 f25
G1X13.526931Y-71.503284 f200
G1X13.646678Y-71.552884
G1X13.754450Y-71.624894
G1X13.846100Y-71.716544
G1X13.918109Y-71.824316
G1X13.967709Y-71.944063
G1X13.992997Y-72.071188
G1X13.992997Y-73.400044
G1X14.182841Y-73.858369
G1X18.289375Y-77.964897
G1X18.289378Y-77.964897
G1X18.347122Y-78.022644
G1X18.381028Y-78.056547
G1X18.453038Y-78.164319
G1X18.502638Y-78.284066
G1X18.527925Y-78.411191
G1X18.527925Y-78.540806
G1X18.502638Y-78.667931
G1X18.453038Y-78.787678
G1X18.451603Y-78.789822
G1X18.381028Y-78.895450
G1X18.290809Y-78.985666
G1X18.289378Y-78.987100
G1X18.181606Y-79.059109
G1X18.061859Y-79.108709
G1X17.934734Y-79.133997
G1X1.459188Y-79.133997
G1X1.332063Y-79.108709
G1X1.212316Y-79.059109
G1X1.104544Y-78.987100
G1X1.012894Y-78.895450
G1X0.940884Y-78.787678
G1X0.891284Y-78.667931
G1X0.865997Y-78.540806
G1X0.865997Y-1.459188
G1X0.891284Y-1.332063
G1X0.940884Y-1.212316
G1X1.012894Y-1.104544
G1X1.104544Y-1.012894
G1X1.212316Y-0.940884
G1X1.332063Y-0.891284
G1X1.459188Y-0.865997
G1X98.540806Y-0.865997
G1X98.667931Y-0.891284
G1X98.787678Y-0.940884
G1X98.895450Y-1.012894
G1X98.987100Y-1.104544
G1X99.059109Y-1.212316
G1X99.108709Y-1.332063
G1X99.133997Y-1.459188
G1X99.133997Y-45.046737
G1X99.110141Y-45.166653
G1X99.108709Y-45.173859
G1X99.107275Y-45.177319
G1X99.059109Y-45.293609
G1X99.030838Y-45.335916
G1X98.987100Y-45.401378
G1X98.895450Y-45.493028
G1X98.787678Y-45.565038
G1X98.736641Y-45.586175
G1X98.667928Y-45.614641
G1X98.542594Y-45.639569
G1X98.540806Y-45.639925
G1X98.411188Y-45.639925
G1X98.291272Y-45.616069
G1X98.284066Y-45.614638
G1X98.280606Y-45.613203
G1X98.164316Y-45.565038
G1X98.122009Y-45.536766
G1X98.056547Y-45.493028
G1X97.964897Y-45.401378
G1X97.964891Y-45.401366
G1X97.588534Y-45.025006
G1X97.588525Y-45.025003
G1X97.099366Y-44.535841
G1X96.641044Y-44.345997
G1X96.008272Y-44.345997
G1X95.881147Y-44.320709
G1X95.783381Y-44.280209
G1X95.761406Y-44.271109
G1X95.761406Y-44.271106
G1X95.761400Y-44.271106
G1X95.740531Y-44.257159
G1X95.653634Y-44.199100
G1X95.561984Y-44.107450
G1X95.489975Y-43.999678
G1X95.489975Y-43.999672
G1X95.489972Y-43.999672
G1X95.440372Y-43.879925
G1X95.425431Y-43.804806
G1X95.415087Y-43.752806
G1X95.415087Y-43.623184
G1X95.440375Y-43.496059
G1X95.531797Y-43.275356
G1X95.531797Y-42.910634
G1X95.392225Y-42.573675
G1X95.134319Y-42.315769
G1X94.760516Y-42.160938
G1X94.758372Y-42.159503
G1X94.652744Y-42.088928
G1X94.562528Y-41.998709
G1X94.561094Y-41.997278
G1X94.489084Y-41.889506
G1X94.439484Y-41.769759
G1X94.414197Y-41.642634
G1X94.414197Y-39.131366
G1X94.328763Y-38.925106
G1X94.032516Y-38.628863
G1X92.900888Y-37.497231
G1X92.694628Y-37.411797
G1X78.142406Y-37.411797
G1X78.015281Y-37.386509
G1X77.895534Y-37.336909
G1X77.787762Y-37.264900
G1X77.696112Y-37.173250
G1X77.645309Y-37.122447
G1X77.573300Y-37.014675
G1X77.523700Y-36.894928
G1X77.498413Y-36.767803
G1X77.498413Y-36.638184
G1X77.522269Y-36.518269
G1X77.523700Y-36.511063
G1X77.525134Y-36.507603
G1X77.573300Y-36.391313
G1X77.643878Y-36.285691
G1X77.645309Y-36.283544
G1X77.736959Y-36.191894
G1X77.736963Y-36.191894
G1X78.158197Y-35.770663
G1X78.158197Y-35.095331
G1X77.888169Y-34.825303
G1X77.888156Y-34.825297
G1X77.796506Y-34.733647
G1X77.753916Y-34.669903
G1X77.724497Y-34.625878
G1X77.674897Y-34.506128
G1X77.649609Y-34.379006
G1X77.649609Y-34.249388
G1X77.674894Y-34.122266
G1X77.724497Y-34.002516
G1X77.725931Y-34.000372
G1X77.796506Y-33.894744
G1X77.888156Y-33.803094
G1X77.951900Y-33.760503
G1X77.995925Y-33.731084
G1X78.115675Y-33.681484
G1X78.242797Y-33.656197
G1X92.568313Y-33.656197
G1X92.695434Y-33.681484
G1X92.767825Y-33.711472
G1X92.815178Y-33.731084
G1X92.815181Y-33.731088
G1X92.908631Y-33.769797
G1X94.797359Y-33.769797
G1X95.134319Y-33.630225
G1X95.392225Y-33.372319
G1X95.531797Y-33.035359
G1X95.531797Y-32.670634
G1X95.392222Y-32.333672
G1X95.172656Y-32.114106
G1X95.172644Y-32.114100
G1X95.080994Y-32.022450
G1X95.038403Y-31.958703
G1X95.008984Y-31.914681
G1X94.959384Y-31.794934
G1X94.934097Y-31.667809
G1X94.934097Y-31.538191
G1X94.938844Y-31.514341
G1X94.959381Y-31.411069
G1X94.989034Y-31.339491
G1X95.008984Y-31.291319
G1X95.080994Y-31.183547
G1X95.392225Y-30.872319
G1X95.531797Y-30.535359
G1X95.531797Y-30.170634
G1X95.392222Y-29.833672
G1X95.172656Y-29.614106
G1X95.172644Y-29.614100
G1X95.080994Y-29.522450
G1X95.038403Y-29.458703
G1X95.008984Y-29.414681
G1X94.959384Y-29.294934
G1X94.934097Y-29.167809
G1X94.934097Y-29.038191
G1X94.938844Y-29.014341
G1X94.959381Y-28.911069
G1X94.989034Y-28.839491
G1X95.008984Y-28.791319
G1X95.080994Y-28.683547
G1X95.392225Y-28.372319
G1X95.531797Y-28.035359
G1X95.531797Y-27.670634
G1X95.392225Y-27.333675
G1X95.134322Y-27.075772
G1X94.797359Y-26.936197
G1X92.908634Y-26.936197
G1X92.571675Y-27.075769
G1X92.340547Y-27.306900
G1X92.232775Y-27.378909
G1X92.113028Y-27.428509
G1X91.985903Y-27.453797
G1X82.192397Y-27.453797
G1X82.065272Y-27.428509
G1X81.945525Y-27.378909
G1X81.837753Y-27.306900
G1X81.746103Y-27.215250
G1X81.674094Y-27.107478
G1X81.624494Y-26.987731
G1X81.599206Y-26.860606
G1X81.599206Y-26.730991
G1X81.624494Y-26.603866
G1X81.674094Y-26.484119
G1X81.746103Y-26.376347
G1X81.837753Y-26.284697
G1X81.945525Y-26.212688
G1X81.951841Y-26.210072
G1X82.434319Y-26.010225
G1X82.692225Y-25.752319
G1X82.831797Y-25.415359
G1X82.831797Y-25.050634
G1X82.692225Y-24.713675
G1X82.380994Y-24.402447
G1X82.308984Y-24.294675
G1X82.287847Y-24.243638
G1X82.259381Y-24.174925
G1X82.239413Y-24.074519
G1X82.234097Y-24.047803
G1X82.234097Y-23.918184
G1X82.259384Y-23.791059
G1X82.308984Y-23.671313
G1X82.337256Y-23.629006
G1X82.380994Y-23.563544
G1X82.472644Y-23.471894
G1X82.472656Y-23.471888
G1X82.692222Y-23.252322
G1X82.831797Y-22.915359
G1X82.831797Y-22.550634
G1X82.692222Y-22.213672
G1X82.472656Y-21.994106
G1X82.472644Y-21.994100
G1X82.380994Y-21.902450
G1X82.338403Y-21.838706
G1X82.308984Y-21.794681
G1X82.259384Y-21.674934
G1X82.234097Y-21.547809
G1X82.234097Y-21.418191
G1X82.238844Y-21.394341
G1X82.259381Y-21.291069
G1X82.289034Y-21.219491
G1X82.308984Y-21.171319
G1X82.380994Y-21.063547
G1X82.692225Y-20.752319
G1X82.831797Y-20.415359
G1X82.831797Y-20.050634
G1X82.692225Y-19.713675
G1X82.434319Y-19.455769
G1X82.097359Y-19.316197
G1X80.208634Y-19.316197
G1X79.871681Y-19.455766
G1X79.843869Y-19.483581
G1X79.842559Y-19.484891
G1X79.842550Y-19.484900
G1X79.779103Y-19.527291
G1X79.734791Y-19.556903
G1X79.734781Y-19.556906
G1X79.734778Y-19.556909
G1X79.695128Y-19.573331
G1X79.615044Y-19.606506
G1X79.615031Y-19.606506
G1X79.615031Y-19.606509
G1X79.594572Y-19.610578
G1X79.487922Y-19.631797
G1X76.024038Y-19.631797
G1X75.904122Y-19.607941
G1X75.896916Y-19.606509
G1X75.847878Y-19.586197
G1X74.218116Y-19.586197
G1X73.920850Y-19.709325
G1X73.693325Y-19.936850
G1X73.570197Y-20.234116
G1X73.570197Y-20.555878
G1X73.693325Y-20.853144
G1X73.920841Y-21.080659
G1X73.923781Y-21.081875
G1X74.031553Y-21.153881
G1X74.123206Y-21.245531
G1X74.123206Y-21.245534
G1X74.123213Y-21.245538
G1X74.195225Y-21.353306
G1X74.226678Y-21.429244
G1X74.244825Y-21.473044
G1X74.244825Y-21.473056
G1X74.244828Y-21.473056
G1X74.270116Y-21.600178
G1X74.270116Y-21.664259
G1X74.270119Y-21.729784
G1X74.244834Y-21.856909
G1X74.244831Y-21.856912
G1X74.244831Y-21.856919
G1X74.233394Y-21.884525
G1X74.195238Y-21.976659
G1X74.123231Y-22.084431
G1X74.031581Y-22.176084
G1X74.031578Y-22.176084
G1X74.031575Y-22.176091
G1X73.923806Y-22.248103
G1X73.920853Y-22.249325
G1X73.693325Y-22.476850
G1X73.570197Y-22.774116
G1X73.570197Y-23.095878
G1X73.693325Y-23.393144
G1X73.920841Y-23.620659
G1X73.923781Y-23.621875
G1X74.031553Y-23.693881
G1X74.123206Y-23.785531
G1X74.123213Y-23.785538
G1X74.195225Y-23.893306
G1X74.226678Y-23.969241
G1X74.244825Y-24.013044
G1X74.244825Y-24.013056
G1X74.244828Y-24.013056
G1X74.270116Y-24.140178
G1X74.270116Y-24.204259
G1X74.270119Y-24.269784
G1X74.244834Y-24.396909
G1X74.244831Y-24.396916
G1X74.244831Y-24.396919
G1X74.233397Y-24.424525
G1X74.195238Y-24.516659
G1X74.123231Y-24.624431
G1X74.031581Y-24.716084
G1X74.031575Y-24.716091
G1X73.923806Y-24.788103
G1X73.920850Y-24.789328
G1X73.693325Y-25.016850
G1X73.570197Y-25.314116
G1X73.570197Y-25.635878
G1X73.693325Y-25.933144
G1X73.920841Y-26.160659
G1X73.923781Y-26.161875
G1X74.031553Y-26.233881
G1X74.123206Y-26.325531
G1X74.123213Y-26.325538
G1X74.195225Y-26.433306
G1X74.226678Y-26.509241
G1X74.244825Y-26.553044
G1X74.244825Y-26.553056
G1X74.244828Y-26.553056
G1X74.270116Y-26.680178
G1X74.270116Y-26.744259
G1X74.270119Y-26.809784
G1X74.244834Y-26.936909
G1X74.244831Y-26.936916
G1X74.244831Y-26.936919
G1X74.233397Y-26.964525
G1X74.195238Y-27.056659
G1X74.123231Y-27.164431
G1X74.031581Y-27.256084
G1X74.031575Y-27.256091
G1X73.923806Y-27.328103
G1X73.920850Y-27.329325
G1X73.693325Y-27.556850
G1X73.570197Y-27.854116
G1X73.570197Y-28.175878
G1X73.693325Y-28.473144
G1X73.920850Y-28.700669
G1X73.923797Y-28.701888
G1X73.923806Y-28.701897
G1X73.923828Y-28.701903
G1X74.000781Y-28.753328
G1X74.031569Y-28.773897
G1X74.031575Y-28.773903
G1X74.031594Y-28.773916
G1X74.092213Y-28.834544
G1X74.123219Y-28.865547
G1X74.123225Y-28.865556
G1X74.123241Y-28.865572
G1X74.167525Y-28.931853
G1X74.195231Y-28.973316
G1X74.195234Y-28.973328
G1X74.195247Y-28.973344
G1X74.221131Y-29.035853
G1X74.244831Y-29.093063
G1X74.244834Y-29.093081
G1X74.244841Y-29.093094
G1X74.257475Y-29.156628
G1X74.270119Y-29.220188
G1X74.270119Y-29.220206
G1X74.270122Y-29.220219
G1X74.270119Y-29.284313
G1X74.270119Y-29.349803
G1X74.270116Y-29.349819
G1X74.270116Y-29.349838
G1X74.256581Y-29.417856
G1X74.244834Y-29.476928
G1X74.244828Y-29.476941
G1X74.244825Y-29.476959
G1X74.216784Y-29.544638
G1X74.195231Y-29.596675
G1X74.195222Y-29.596684
G1X74.195216Y-29.596706
G1X74.143791Y-29.673659
G1X74.123222Y-29.704447
G1X74.123216Y-29.704453
G1X74.123203Y-29.704472
G1X74.062575Y-29.765091
G1X74.031572Y-29.796097
G1X74.031563Y-29.796103
G1X74.031547Y-29.796119
G1X73.965266Y-29.840403
G1X73.923803Y-29.868109
G1X73.923791Y-29.868113
G1X73.923775Y-29.868125
G1X73.920834Y-29.869341
G1X73.693325Y-30.096850
G1X73.570197Y-30.394116
G1X73.570197Y-30.715878
G1X73.693325Y-31.013144
G1X73.920834Y-31.240653
G1X73.923775Y-31.241869
G1X73.923791Y-31.241881
G1X73.923803Y-31.241884
G1X73.964191Y-31.268875
G1X74.031547Y-31.313875
G1X74.031563Y-31.313891
G1X74.031572Y-31.313897
G1X74.061619Y-31.343947
G1X74.123203Y-31.405522
G1X74.123216Y-31.405544
G1X74.123222Y-31.405547
G1X74.142972Y-31.435106
G1X74.195216Y-31.513288
G1X74.195222Y-31.513309
G1X74.195231Y-31.513319
G1X74.216191Y-31.563925
G1X74.244825Y-31.633034
G1X74.244828Y-31.633053
G1X74.244834Y-31.633066
G1X74.256322Y-31.690834
G1X74.270116Y-31.760156
G1X74.270116Y-31.760178
G1X74.270119Y-31.760191
G1X74.270119Y-31.824250
G1X74.270122Y-31.889775
G1X74.270119Y-31.889791
G1X74.270119Y-31.889806
G1X74.257759Y-31.951931
G1X74.244841Y-32.016900
G1X74.244834Y-32.016913
G1X74.244831Y-32.016931
G1X74.221625Y-32.072953
G1X74.195247Y-32.136650
G1X74.195234Y-32.136666
G1X74.195231Y-32.136678
G1X74.168241Y-32.177066
G1X74.123241Y-32.244422
G1X74.123225Y-32.244438
G1X74.123219Y-32.244447
G1X74.093169Y-32.274494
G1X74.031594Y-32.336078
G1X74.031572Y-32.336091
G1X74.031569Y-32.336097
G1X74.002009Y-32.355847
G1X73.923828Y-32.408091
G1X73.923806Y-32.408097
G1X73.923797Y-32.408106
G1X73.920850Y-32.409325
G1X73.693325Y-32.636850
G1X73.570197Y-32.934116
G1X73.570197Y-33.255878
G1X73.693325Y-33.553144
G1X73.920834Y-33.780653
G1X73.923775Y-33.781869
G1X73.923791Y-33.781881
G1X73.923803Y-33.781884
G1X73.964191Y-33.808875
G1X74.031547Y-33.853875
G1X74.031563Y-33.853894
G1X74.031572Y-33.853897
G1X74.061619Y-33.883947
G1X74.123203Y-33.945522
G1X74.123216Y-33.945544
G1X74.123222Y-33.945547
G1X74.142972Y-33.975109
G1X74.195216Y-34.053288
G1X74.195222Y-34.053309
G1X74.195231Y-34.053319
G1X74.216191Y-34.103925
G1X74.244825Y-34.173034
G1X74.244828Y-34.173053
G1X74.244834Y-34.173066
G1X74.256322Y-34.230834
G1X74.270116Y-34.300156
G1X74.270116Y-34.300178
G1X74.270119Y-34.300191
G1X74.270119Y-34.364250
G1X74.270122Y-34.429775
G1X74.270119Y-34.429791
G1X74.270119Y-34.429806
G1X74.257759Y-34.491931
G1X74.244841Y-34.556900
G1X74.244834Y-34.556913
G1X74.244831Y-34.556931
G1X74.221625Y-34.612953
G1X74.195247Y-34.676650
G1X74.195234Y-34.676666
G1X74.195231Y-34.676678
G1X74.168241Y-34.717066
G1X74.123241Y-34.784422
G1X74.123222Y-34.784438
G1X74.123219Y-34.784447
G1X74.093169Y-34.814494
G1X74.031594Y-34.876078
G1X74.031572Y-34.876091
G1X74.031569Y-34.876097
G1X74.002006Y-34.895847
G1X73.923828Y-34.948091
G1X73.923806Y-34.948097
G1X73.923797Y-34.948106
G1X73.920850Y-34.949325
G1X73.693325Y-35.176850
G1X73.570197Y-35.474116
G1X73.570197Y-35.795878
G1X73.693325Y-36.093144
G1X73.920834Y-36.320653
G1X73.923775Y-36.321869
G1X73.923791Y-36.321881
G1X73.923803Y-36.321884
G1X73.964191Y-36.348872
G1X74.031547Y-36.393875
G1X74.031563Y-36.393891
G1X74.031572Y-36.393897
G1X74.061622Y-36.423947
G1X74.123203Y-36.485522
G1X74.123216Y-36.485541
G1X74.123222Y-36.485547
G1X74.142972Y-36.515106
G1X74.195216Y-36.593288
G1X74.195225Y-36.593309
G1X74.195231Y-36.593319
G1X74.216194Y-36.643925
G1X74.244825Y-36.713034
G1X74.244828Y-36.713053
G1X74.244834Y-36.713066
G1X74.256325Y-36.770834
G1X74.270116Y-36.840156
G1X74.270116Y-36.840175
G1X74.270119Y-36.840191
G1X74.270119Y-36.904250
G1X74.270122Y-36.969775
G1X74.270119Y-36.969791
G1X74.270119Y-36.969806
G1X74.257759Y-37.031931
G1X74.244841Y-37.096900
G1X74.244834Y-37.096913
G1X74.244831Y-37.096931
G1X74.221625Y-37.152953
G1X74.195247Y-37.216650
G1X74.195234Y-37.216666
G1X74.195231Y-37.216678
G1X74.168244Y-37.257066
G1X74.123241Y-37.324422
G1X74.123225Y-37.324438
G1X74.123219Y-37.324447
G1X74.093169Y-37.354497
G1X74.031594Y-37.416078
G1X74.031575Y-37.416091
G1X74.031569Y-37.416097
G1X74.002009Y-37.435847
G1X73.923828Y-37.488091
G1X73.923806Y-37.488100
G1X73.923797Y-37.488106
G1X73.920850Y-37.489325
G1X73.693325Y-37.716850
G1X73.570197Y-38.014116
G1X73.570197Y-38.335878
G1X73.693325Y-38.633144
G1X73.920834Y-38.860653
G1X73.923775Y-38.861869
G1X73.923791Y-38.861881
G1X73.923803Y-38.861884
G1X73.964191Y-38.888872
G1X74.031547Y-38.933875
G1X74.031563Y-38.933891
G1X74.031572Y-38.933897
G1X74.061619Y-38.963947
G1X74.123203Y-39.025522
G1X74.123216Y-39.025541
G1X74.123222Y-39.025547
G1X74.142972Y-39.055106
G1X74.195216Y-39.133288
G1X74.195225Y-39.133309
G1X74.195231Y-39.133319
G1X74.216194Y-39.183925
G1X74.244825Y-39.253034
G1X74.244828Y-39.253053
G1X74.244834Y-39.253066
G1X74.256322Y-39.310834
G1X74.270116Y-39.380156
G1X74.270116Y-39.380178
G1X74.270119Y-39.380191
G1X74.270119Y-39.444250
G1X74.270122Y-39.509775
G1X74.270119Y-39.509791
G1X74.270119Y-39.509806
G1X74.257759Y-39.571931
G1X74.244841Y-39.636900
G1X74.244834Y-39.636913
G1X74.244831Y-39.636931
G1X74.221625Y-39.692953
G1X74.195247Y-39.756650
G1X74.195234Y-39.756666
G1X74.195231Y-39.756678
G1X74.168244Y-39.797066
G1X74.123241Y-39.864422
G1X74.123225Y-39.864438
G1X74.123219Y-39.864447
G1X74.093169Y-39.894494
G1X74.031594Y-39.956078
G1X74.031575Y-39.956091
G1X74.031569Y-39.956097
G1X74.002009Y-39.975847
G1X73.923828Y-40.028091
G1X73.923806Y-40.028100
G1X73.923797Y-40.028106
G1X73.920850Y-40.029325
G1X73.693325Y-40.256850
G1X73.570197Y-40.554116
G1X73.570197Y-40.875878
G1X73.693325Y-41.173144
G1X73.920834Y-41.400653
G1X73.923775Y-41.401869
G1X73.923791Y-41.401881
G1X73.923803Y-41.401884
G1X73.964191Y-41.428872
G1X74.031547Y-41.473875
G1X74.031563Y-41.473891
G1X74.031572Y-41.473897
G1X74.061619Y-41.503947
G1X74.123203Y-41.565522
G1X74.123216Y-41.565541
G1X74.123222Y-41.565547
G1X74.142972Y-41.595106
G1X74.195216Y-41.673288
G1X74.195222Y-41.673309
G1X74.195231Y-41.673319
G1X74.216191Y-41.723925
G1X74.244825Y-41.793034
G1X74.244828Y-41.793053
G1X74.244834Y-41.793066
G1X74.256322Y-41.850834
G1X74.270116Y-41.920156
G1X74.270116Y-41.920178
G1X74.270119Y-41.920191
G1X74.270119Y-41.984250
G1X74.270122Y-42.049775
G1X74.270119Y-42.049791
G1X74.270119Y-42.049806
G1X74.257759Y-42.111931
G1X74.244841Y-42.176900
G1X74.244834Y-42.176913
G1X74.244831Y-42.176931
G1X74.221625Y-42.232953
G1X74.195247Y-42.296650
G1X74.195234Y-42.296666
G1X74.195231Y-42.296678
G1X74.168244Y-42.337066
G1X74.123241Y-42.404422
G1X74.123225Y-42.404438
G1X74.123219Y-42.404447
G1X74.093169Y-42.434494
G1X74.031594Y-42.496078
G1X74.031575Y-42.496091
G1X74.031569Y-42.496097
G1X74.002009Y-42.515847
G1X73.923828Y-42.568091
G1X73.923806Y-42.568097
G1X73.923797Y-42.568106
G1X73.920850Y-42.569325
G1X73.693325Y-42.796850
G1X73.570197Y-43.094116
G1X73.570197Y-43.415878
G1X73.693325Y-43.713144
G1X73.920834Y-43.940653
G1X73.923775Y-43.941869
G1X73.923791Y-43.941881
G1X73.923803Y-43.941884
G1X73.964191Y-43.968875
G1X74.031547Y-44.013875
G1X74.031563Y-44.013891
G1X74.031572Y-44.013897
G1X74.061619Y-44.043947
G1X74.123203Y-44.105522
G1X74.123216Y-44.105541
G1X74.123222Y-44.105547
G1X74.142972Y-44.135106
G1X74.195216Y-44.213287
G1X74.195222Y-44.213309
G1X74.195231Y-44.213319
G1X74.216191Y-44.263925
G1X74.244825Y-44.333034
G1X74.244828Y-44.333053
G1X74.244834Y-44.333066
G1X74.256322Y-44.390834
G1X74.270116Y-44.460156
G1X74.270116Y-44.460178
G1X74.270119Y-44.460191
G1X74.270119Y-44.524250
G1X74.270122Y-44.589775
G1X74.270119Y-44.589791
G1X74.270119Y-44.589806
G1X74.257759Y-44.651931
G1X74.244841Y-44.716900
G1X74.244834Y-44.716912
G1X74.244831Y-44.716931
G1X74.221625Y-44.772953
G1X74.195247Y-44.836650
G1X74.195234Y-44.836666
G1X74.195231Y-44.836678
G1X74.168241Y-44.877066
G1X74.123241Y-44.944422
G1X74.123225Y-44.944437
G1X74.123219Y-44.944447
G1X74.093169Y-44.974494
G1X74.031594Y-45.036078
G1X74.031575Y-45.036091
G1X74.031569Y-45.036097
G1X74.002009Y-45.055847
G1X73.923828Y-45.108091
G1X73.923806Y-45.108097
G1X73.923797Y-45.108106
G1X73.920850Y-45.109325
G1X73.693325Y-45.336850
G1X73.570197Y-45.634116
G1X73.570197Y-45.955878
G1X73.693325Y-46.253144
G1X73.920834Y-46.480653
G1X73.923775Y-46.481869
G1X73.923791Y-46.481881
G1X73.923803Y-46.481884
G1X73.964191Y-46.508875
G1X74.031547Y-46.553875
G1X74.031563Y-46.553891
G1X74.031572Y-46.553897
G1X74.061619Y-46.583947
G1X74.123203Y-46.645522
G1X74.123216Y-46.645544
G1X74.123222Y-46.645547
G1X74.142972Y-46.675109
G1X74.195216Y-46.753287
G1X74.195222Y-46.753309
G1X74.195231Y-46.753319
G1X74.216191Y-46.803925
G1X74.244825Y-46.873034
G1X74.244828Y-46.873053
G1X74.244834Y-46.873066
G1X74.256322Y-46.930834
G1X74.270116Y-47.000156
G1X74.270116Y-47.000178
G1X74.270119Y-47.000191
G1X74.270119Y-47.064250
G1X74.270122Y-47.129775
G1X74.270119Y-47.129791
G1X74.270119Y-47.129806
G1X74.257759Y-47.191931
G1X74.244841Y-47.256900
G1X74.244834Y-47.256913
G1X74.244831Y-47.256931
G1X74.221625Y-47.312953
G1X74.195247Y-47.376650
G1X74.195234Y-47.376666
G1X74.195231Y-47.376678
G1X74.168241Y-47.417066
G1X74.123241Y-47.484422
G1X74.123225Y-47.484438
G1X74.123219Y-47.484447
G1X74.093169Y-47.514494
G1X74.031594Y-47.576078
G1X74.031572Y-47.576091
G1X74.031569Y-47.576097
G1X74.002006Y-47.595847
G1X73.923828Y-47.648091
G1X73.923806Y-47.648097
G1X73.923797Y-47.648106
G1X73.920850Y-47.649325
G1X73.693325Y-47.876850
G1X73.570197Y-48.174112
G1X73.570197Y-48.495878
G1X73.693325Y-48.793144
G1X73.920834Y-49.020653
G1X73.923775Y-49.021869
G1X73.923791Y-49.021881
G1X73.923803Y-49.021884
G1X73.964191Y-49.048872
G1X74.031547Y-49.093875
G1X74.031563Y-49.093891
G1X74.031572Y-49.093897
G1X74.061622Y-49.123947
G1X74.123203Y-49.185522
G1X74.123216Y-49.185541
G1X74.123222Y-49.185547
G1X74.142972Y-49.215106
G1X74.195216Y-49.293288
G1X74.195225Y-49.293309
G1X74.195231Y-49.293319
G1X74.216194Y-49.343925
G1X74.244825Y-49.413034
G1X74.244828Y-49.413053
G1X74.244834Y-49.413066
G1X74.256325Y-49.470834
G1X74.270116Y-49.540156
G1X74.270116Y-49.540175
G1X74.270119Y-49.540191
G1X74.270119Y-49.604250
G1X74.270122Y-49.669775
G1X74.270119Y-49.669791
G1X74.270119Y-49.669806
G1X74.257759Y-49.731931
G1X74.244841Y-49.796900
G1X74.244834Y-49.796913
G1X74.244831Y-49.796931
G1X74.221625Y-49.852953
G1X74.195247Y-49.916650
G1X74.195234Y-49.916666
G1X74.195231Y-49.916678
G1X74.168244Y-49.957066
G1X74.123241Y-50.024422
G1X74.123225Y-50.024438
G1X74.123219Y-50.024447
G1X74.093169Y-50.054497
G1X74.031594Y-50.116078
G1X74.031575Y-50.116091
G1X74.031569Y-50.116097
G1X74.002009Y-50.135847
G1X73.923828Y-50.188091
G1X73.923806Y-50.188100
G1X73.923797Y-50.188106
G1X73.920850Y-50.189325
G1X73.693325Y-50.416850
G1X73.570197Y-50.714116
G1X73.570197Y-51.035878
G1X73.693325Y-51.333144
G1X73.920834Y-51.560653
G1X73.923775Y-51.561869
G1X73.923791Y-51.561881
G1X73.923803Y-51.561884
G1X73.964191Y-51.588872
G1X74.031547Y-51.633875
G1X74.031563Y-51.633891
G1X74.031572Y-51.633897
G1X74.061619Y-51.663947
G1X74.123203Y-51.725522
G1X74.123216Y-51.725541
G1X74.123222Y-51.725547
G1X74.142972Y-51.755106
G1X74.195216Y-51.833288
G1X74.195225Y-51.833309
G1X74.195231Y-51.833319
G1X74.216194Y-51.883925
G1X74.244825Y-51.953034
G1X74.244828Y-51.953053
G1X74.244834Y-51.953066
G1X74.256322Y-52.010834
G1X74.270116Y-52.080156
G1X74.270116Y-52.080178
G1X74.270119Y-52.080191
G1X74.270119Y-52.144250
G1X74.270122Y-52.209775
G1X74.270119Y-52.209791
G1X74.270119Y-52.209806
G1X74.257759Y-52.271931
G1X74.244841Y-52.336900
G1X74.244834Y-52.336913
G1X74.244831Y-52.336931
G1X74.221625Y-52.392953
G1X74.195247Y-52.456650
G1X74.195234Y-52.456666
G1X74.195231Y-52.456678
G1X74.168244Y-52.497066
G1X74.123241Y-52.564422
G1X74.123225Y-52.564438
G1X74.123219Y-52.564447
G1X74.093169Y-52.594494
G1X74.031594Y-52.656078
G1X74.031575Y-52.656091
G1X74.031569Y-52.656097
G1X74.002009Y-52.675847
G1X73.923828Y-52.728091
G1X73.923806Y-52.728100
G1X73.923797Y-52.728106
G1X73.920850Y-52.729325
G1X73.693325Y-52.956850
G1X73.570197Y-53.254116
G1X73.570197Y-53.575878
G1X73.693325Y-53.873144
G1X73.920834Y-54.100653
G1X73.923775Y-54.101869
G1X73.923791Y-54.101881
G1X73.923803Y-54.101884
G1X73.964191Y-54.128872
G1X74.031547Y-54.173875
G1X74.031563Y-54.173891
G1X74.031572Y-54.173897
G1X74.061619Y-54.203947
G1X74.123203Y-54.265522
G1X74.123216Y-54.265541
G1X74.123222Y-54.265547
G1X74.142972Y-54.295106
G1X74.195216Y-54.373288
G1X74.195222Y-54.373309
G1X74.195231Y-54.373319
G1X74.216191Y-54.423925
G1X74.244825Y-54.493034
G1X74.244828Y-54.493053
G1X74.244834Y-54.493066
G1X74.256322Y-54.550834
G1X74.270116Y-54.620156
G1X74.270116Y-54.620178
G1X74.270119Y-54.620191
G1X74.270119Y-54.684250
G1X74.270122Y-54.749775
G1X74.270119Y-54.749791
G1X74.270119Y-54.749806
G1X74.257759Y-54.811931
G1X74.244841Y-54.876900
G1X74.244834Y-54.876913
G1X74.244831Y-54.876931
G1X74.221625Y-54.932953
G1X74.195247Y-54.996650
G1X74.195234Y-54.996666
G1X74.195231Y-54.996678
G1X74.168244Y-55.037066
G1X74.123241Y-55.104422
G1X74.123225Y-55.104438
G1X74.123219Y-55.104447
G1X74.093169Y-55.134494
G1X74.031594Y-55.196078
G1X74.031575Y-55.196091
G1X74.031569Y-55.196097
G1X74.002009Y-55.215847
G1X73.923828Y-55.268091
G1X73.923806Y-55.268097
G1X73.923797Y-55.268106
G1X73.920850Y-55.269325
G1X73.693325Y-55.496850
G1X73.570197Y-55.794116
G1X73.570197Y-56.115878
G1X73.693325Y-56.413144
G1X73.920834Y-56.640653
G1X73.923775Y-56.641869
G1X73.923791Y-56.641881
G1X73.923803Y-56.641884
G1X73.964191Y-56.668872
G1X74.031547Y-56.713875
G1X74.031563Y-56.713891
G1X74.031572Y-56.713897
G1X74.061619Y-56.743947
G1X74.123203Y-56.805522
G1X74.123216Y-56.805541
G1X74.123222Y-56.805547
G1X74.142972Y-56.835106
G1X74.195216Y-56.913288
G1X74.195222Y-56.913309
G1X74.195231Y-56.913319
G1X74.216191Y-56.963925
G1X74.244825Y-57.033034
G1X74.244828Y-57.033053
G1X74.244834Y-57.033066
G1X74.256322Y-57.090834
G1X74.270116Y-57.160156
G1X74.270116Y-57.160178
G1X74.270119Y-57.160191
G1X74.270119Y-57.224250
G1X74.270122Y-57.289775
G1X74.270119Y-57.289791
G1X74.270119Y-57.289806
G1X74.257759Y-57.351931
G1X74.244841Y-57.416900
G1X74.244834Y-57.416913
G1X74.244831Y-57.416931
G1X74.221625Y-57.472953
G1X74.195247Y-57.536650
G1X74.195234Y-57.536666
G1X74.195231Y-57.536678
G1X74.168244Y-57.577066
G1X74.123241Y-57.644422
G1X74.123225Y-57.644438
G1X74.123219Y-57.644447
G1X74.093169Y-57.674494
G1X74.031594Y-57.736078
G1X74.031575Y-57.736091
G1X74.031569Y-57.736097
G1X74.002009Y-57.755847
G1X73.923828Y-57.808091
G1X73.923806Y-57.808097
G1X73.923797Y-57.808106
G1X73.920850Y-57.809325
G1X73.693325Y-58.036850
G1X73.570197Y-58.334116
G1X73.570197Y-58.655878
G1X73.693325Y-58.953144
G1X73.920834Y-59.180653
G1X73.923775Y-59.181869
G1X73.923791Y-59.181881
G1X73.923803Y-59.181884
G1X73.964191Y-59.208875
G1X74.031547Y-59.253875
G1X74.031563Y-59.253891
G1X74.031572Y-59.253897
G1X74.061619Y-59.283947
G1X74.123203Y-59.345522
G1X74.123216Y-59.345544
G1X74.123222Y-59.345547
G1X74.142972Y-59.375109
G1X74.195216Y-59.453288
G1X74.195222Y-59.453309
G1X74.195231Y-59.453319
G1X74.216191Y-59.503925
G1X74.244825Y-59.573034
G1X74.244828Y-59.573053
G1X74.244834Y-59.573066
G1X74.256322Y-59.630834
G1X74.270116Y-59.700156
G1X74.270116Y-59.700178
G1X74.270119Y-59.700191
G1X74.270119Y-59.764250
G1X74.270122Y-59.829775
G1X74.270119Y-59.829791
G1X74.270119Y-59.829806
G1X74.257759Y-59.891931
G1X74.244841Y-59.956900
G1X74.244834Y-59.956913
G1X74.244831Y-59.956931
G1X74.221625Y-60.012953
G1X74.195247Y-60.076650
G1X74.195234Y-60.076666
G1X74.195231Y-60.076678
G1X74.168241Y-60.117066
G1X74.123241Y-60.184422
G1X74.123225Y-60.184438
G1X74.123219Y-60.184447
G1X74.093169Y-60.214494
G1X74.031594Y-60.276078
G1X74.031572Y-60.276091
G1X74.031569Y-60.276097
G1X74.002006Y-60.295847
G1X73.923828Y-60.348091
G1X73.923806Y-60.348097
G1X73.923797Y-60.348106
G1X73.920850Y-60.349325
G1X73.693325Y-60.576850
G1X73.570197Y-60.874116
G1X73.570197Y-61.195875
G1X73.693325Y-61.493144
G1X73.920834Y-61.720653
G1X73.923775Y-61.721869
G1X73.923791Y-61.721881
G1X73.923803Y-61.721884
G1X73.964191Y-61.748872
G1X74.031547Y-61.793875
G1X74.031563Y-61.793891
G1X74.031572Y-61.793897
G1X74.061622Y-61.823947
G1X74.123203Y-61.885522
G1X74.123216Y-61.885541
G1X74.123222Y-61.885547
G1X74.142972Y-61.915106
G1X74.195216Y-61.993288
G1X74.195225Y-61.993309
G1X74.195231Y-61.993319
G1X74.216194Y-62.043925
G1X74.244825Y-62.113034
G1X74.244828Y-62.113053
G1X74.244834Y-62.113066
G1X74.256325Y-62.170834
G1X74.270116Y-62.240156
G1X74.270116Y-62.240175
G1X74.270119Y-62.240191
G1X74.270119Y-62.304250
G1X74.270122Y-62.369775
G1X74.270119Y-62.369791
G1X74.270119Y-62.369806
G1X74.257759Y-62.431931
G1X74.244841Y-62.496900
G1X74.244834Y-62.496913
G1X74.244831Y-62.496931
G1X74.221625Y-62.552953
G1X74.195247Y-62.616650
G1X74.195234Y-62.616666
G1X74.195231Y-62.616678
G1X74.168244Y-62.657066
G1X74.123241Y-62.724422
G1X74.123225Y-62.724438
G1X74.123219Y-62.724447
G1X74.093169Y-62.754497
G1X74.031594Y-62.816078
G1X74.031575Y-62.816091
G1X74.031569Y-62.816097
G1X74.002009Y-62.835847
G1X73.923828Y-62.888091
G1X73.923806Y-62.888100
G1X73.923797Y-62.888106
G1X73.920850Y-62.889325
G1X73.693325Y-63.116850
G1X73.570197Y-63.414116
G1X73.570197Y-63.735878
G1X73.693325Y-64.033144
G1X73.920834Y-64.260653
G1X73.923775Y-64.261869
G1X73.923791Y-64.261881
G1X73.923803Y-64.261884
G1X73.964191Y-64.288872
G1X74.031547Y-64.333875
G1X74.031563Y-64.333891
G1X74.031572Y-64.333897
G1X74.061622Y-64.363947
G1X74.123203Y-64.425522
G1X74.123216Y-64.425541
G1X74.123222Y-64.425547
G1X74.142972Y-64.455106
G1X74.195216Y-64.533288
G1X74.195225Y-64.533309
G1X74.195231Y-64.533319
G1X74.216194Y-64.583925
G1X74.244825Y-64.653034
G1X74.244828Y-64.653053
G1X74.244834Y-64.653066
G1X74.256325Y-64.710834
G1X74.270116Y-64.780156
G1X74.270116Y-64.780178
G1X74.270119Y-64.780191
G1X74.270119Y-64.844250
G1X74.270122Y-64.909775
G1X74.270119Y-64.909791
G1X74.270119Y-64.909806
G1X74.257759Y-64.971931
G1X74.244841Y-65.036900
G1X74.244834Y-65.036912
G1X74.244831Y-65.036931
G1X74.221625Y-65.092953
G1X74.195247Y-65.156650
G1X74.195234Y-65.156666
G1X74.195231Y-65.156678
G1X74.168244Y-65.197066
G1X74.123241Y-65.264422
G1X74.123225Y-65.264437
G1X74.123219Y-65.264447
G1X74.093169Y-65.294497
G1X74.031594Y-65.356078
G1X74.031575Y-65.356091
G1X74.031569Y-65.356097
G1X74.002009Y-65.375847
G1X73.923828Y-65.428091
G1X73.923806Y-65.428100
G1X73.923797Y-65.428106
G1X73.920850Y-65.429325
G1X73.693325Y-65.656850
G1X73.570197Y-65.954116
G1X73.570197Y-66.275878
G1X73.693325Y-66.573144
G1X73.920834Y-66.800653
G1X73.923775Y-66.801869
G1X73.923791Y-66.801881
G1X73.923803Y-66.801884
G1X73.964191Y-66.828872
G1X74.031547Y-66.873875
G1X74.031563Y-66.873891
G1X74.031572Y-66.873897
G1X74.061619Y-66.903947
G1X74.123203Y-66.965522
G1X74.123216Y-66.965541
G1X74.123222Y-66.965547
G1X74.142972Y-66.995106
G1X74.195216Y-67.073288
G1X74.195222Y-67.073309
G1X74.195231Y-67.073319
G1X74.216191Y-67.123925
G1X74.244825Y-67.193034
G1X74.244828Y-67.193053
G1X74.244834Y-67.193066
G1X74.256322Y-67.250834
G1X74.270116Y-67.320156
G1X74.270116Y-67.320178
G1X74.270119Y-67.320191
G1X74.270119Y-67.384250
G1X74.270122Y-67.449775
G1X74.270119Y-67.449791
G1X74.270119Y-67.449806
G1X74.257759Y-67.511931
G1X74.244841Y-67.576900
G1X74.244834Y-67.576913
G1X74.244831Y-67.576931
G1X74.221625Y-67.632953
G1X74.195247Y-67.696650
G1X74.195234Y-67.696666
G1X74.195231Y-67.696678
G1X74.168244Y-67.737066
G1X74.123241Y-67.804422
G1X74.123225Y-67.804438
G1X74.123219Y-67.804447
G1X74.093169Y-67.834494
G1X74.031594Y-67.896078
G1X74.031575Y-67.896091
G1X74.031569Y-67.896097
G1X74.002009Y-67.915847
G1X73.923828Y-67.968091
G1X73.923806Y-67.968097
G1X73.923797Y-67.968106
G1X73.920850Y-67.969325
G1X73.693325Y-68.196850
G1X73.570197Y-68.494116
G1X73.570197Y-68.815878
G1X73.693325Y-69.113144
G1X73.920850Y-69.340669
G1X74.218116Y-69.463797
G1X75.847878Y-69.463797
G1X76.145144Y-69.340669
G1X76.372669Y-69.113144
G1X76.495797Y-68.815878
G1X76.495797Y-68.494116
G1X76.372669Y-68.196850
G1X76.145144Y-67.969325
G1X76.142197Y-67.968106
G1X76.142188Y-67.968097
G1X76.142166Y-67.968091
G1X76.065213Y-67.916666
G1X76.034425Y-67.896097
G1X76.034419Y-67.896091
G1X76.034400Y-67.896078
G1X75.973781Y-67.835450
G1X75.942775Y-67.804447
G1X75.942769Y-67.804434
G1X75.942753Y-67.804422
G1X75.898469Y-67.738138
G1X75.870762Y-67.696678
G1X75.870759Y-67.696663
G1X75.870747Y-67.696650
G1X75.844863Y-67.634141
G1X75.821162Y-67.576931
G1X75.821159Y-67.576913
G1X75.821153Y-67.576900
G1X75.808519Y-67.513366
G1X75.795875Y-67.449806
G1X75.795875Y-67.449787
G1X75.795872Y-67.449775
G1X75.795875Y-67.385681
G1X75.795875Y-67.320191
G1X75.795878Y-67.320175
G1X75.795878Y-67.320156
G1X75.809413Y-67.252138
G1X75.821159Y-67.193066
G1X75.821166Y-67.193053
G1X75.821169Y-67.193034
G1X75.849209Y-67.125356
G1X75.870762Y-67.073319
G1X75.870772Y-67.073309
G1X75.870778Y-67.073288
G1X75.922203Y-66.996334
G1X75.942772Y-66.965547
G1X75.942778Y-66.965541
G1X75.942791Y-66.965522
G1X76.003419Y-66.904903
G1X76.034422Y-66.873897
G1X76.034434Y-66.873891
G1X76.034447Y-66.873875
G1X76.100731Y-66.829591
G1X76.142191Y-66.801884
G1X76.142206Y-66.801881
G1X76.142219Y-66.801869
G1X76.145159Y-66.800653
G1X76.372669Y-66.573144
G1X76.495797Y-66.275878
G1X76.495797Y-65.954119
G1X76.372669Y-65.656850
G1X76.145144Y-65.429325
G1X76.142197Y-65.428106
G1X76.142188Y-65.428100
G1X76.142166Y-65.428091
G1X76.065213Y-65.376666
G1X76.034425Y-65.356097
G1X76.034419Y-65.356091
G1X76.034400Y-65.356078
G1X75.973781Y-65.295450
G1X75.942775Y-65.264447
G1X75.942769Y-65.264437
G1X75.942753Y-65.264422
G1X75.898469Y-65.198141
G1X75.870762Y-65.156678
G1X75.870756Y-65.156666
G1X75.870747Y-65.156650
G1X75.844859Y-65.094141
G1X75.821162Y-65.036931
G1X75.821159Y-65.036912
G1X75.821153Y-65.036900
G1X75.808519Y-64.973366
G1X75.795875Y-64.909806
G1X75.795875Y-64.909791
G1X75.795872Y-64.909775
G1X75.795875Y-64.845681
G1X75.795875Y-64.780191
G1X75.795878Y-64.780175
G1X75.795878Y-64.780156
G1X75.809409Y-64.712137
G1X75.821159Y-64.653066
G1X75.821166Y-64.653053
G1X75.821169Y-64.653034
G1X75.849206Y-64.585356
G1X75.870762Y-64.533319
G1X75.870769Y-64.533309
G1X75.870778Y-64.533288
G1X75.922203Y-64.456334
G1X75.942772Y-64.425547
G1X75.942778Y-64.425541
G1X75.942791Y-64.425522
G1X76.003419Y-64.364903
G1X76.034422Y-64.333897
G1X76.034431Y-64.333891
G1X76.034447Y-64.333875
G1X76.100728Y-64.289591
G1X76.142191Y-64.261884
G1X76.142203Y-64.261878
G1X76.142219Y-64.261869
G1X76.145159Y-64.260653
G1X76.372669Y-64.033144
G1X76.495797Y-63.735878
G1X76.495797Y-63.414116
G1X76.372669Y-63.116850
G1X76.145144Y-62.889325
G1X76.142197Y-62.888106
G1X76.142188Y-62.888097
G1X76.142166Y-62.888091
G1X76.065213Y-62.836666
G1X76.034425Y-62.816097
G1X76.034419Y-62.816091
G1X76.034400Y-62.816078
G1X75.973781Y-62.755450
G1X75.942775Y-62.724447
G1X75.942769Y-62.724438
G1X75.942753Y-62.724422
G1X75.898469Y-62.658141
G1X75.870762Y-62.616678
G1X75.870759Y-62.616666
G1X75.870747Y-62.616650
G1X75.844859Y-62.554141
G1X75.821162Y-62.496931
G1X75.821159Y-62.496913
G1X75.821153Y-62.496900
G1X75.808519Y-62.433366
G1X75.795875Y-62.369806
G1X75.795875Y-62.369791
G1X75.795872Y-62.369775
G1X75.795875Y-62.305681
G1X75.795875Y-62.240191
G1X75.795878Y-62.240175
G1X75.795878Y-62.240156
G1X75.809413Y-62.172138
G1X75.821159Y-62.113066
G1X75.821166Y-62.113053
G1X75.821169Y-62.113034
G1X75.849206Y-62.045356
G1X75.870762Y-61.993319
G1X75.870772Y-61.993309
G1X75.870778Y-61.993288
G1X75.922203Y-61.916334
G1X75.942772Y-61.885547
G1X75.942778Y-61.885541
G1X75.942791Y-61.885522
G1X76.003419Y-61.824903
G1X76.034422Y-61.793897
G1X76.034431Y-61.793891
G1X76.034447Y-61.793875
G1X76.100728Y-61.749591
G1X76.142191Y-61.721884
G1X76.142203Y-61.721881
G1X76.142219Y-61.721869
G1X76.145159Y-61.720653
G1X76.372669Y-61.493144
G1X76.495797Y-61.195878
G1X76.495797Y-60.874116
G1X76.372669Y-60.576850
G1X76.145144Y-60.349325
G1X76.142197Y-60.348106
G1X76.142188Y-60.348097
G1X76.142166Y-60.348091
G1X76.065213Y-60.296666
G1X76.034425Y-60.276097
G1X76.034419Y-60.276091
G1X76.034400Y-60.276078
G1X75.973781Y-60.215450
G1X75.942775Y-60.184447
G1X75.942769Y-60.184438
G1X75.942753Y-60.184422
G1X75.898469Y-60.118141
G1X75.870762Y-60.076678
G1X75.870759Y-60.076666
G1X75.870747Y-60.076650
G1X75.844859Y-60.014141
G1X75.821162Y-59.956931
G1X75.821159Y-59.956913
G1X75.821153Y-59.956900
G1X75.808519Y-59.893366
G1X75.795875Y-59.829806
G1X75.795875Y-59.829788
G1X75.795872Y-59.829775
G1X75.795875Y-59.765681
G1X75.795875Y-59.700191
G1X75.795878Y-59.700175
G1X75.795878Y-59.700156
G1X75.809413Y-59.632138
G1X75.821159Y-59.573066
G1X75.821166Y-59.573053
G1X75.821169Y-59.573034
G1X75.849209Y-59.505356
G1X75.870762Y-59.453319
G1X75.870772Y-59.453309
G1X75.870778Y-59.453288
G1X75.922203Y-59.376334
G1X75.942772Y-59.345547
G1X75.942778Y-59.345541
G1X75.942791Y-59.345522
G1X76.003419Y-59.284903
G1X76.034422Y-59.253897
G1X76.034431Y-59.253891
G1X76.034447Y-59.253875
G1X76.100728Y-59.209591
G1X76.142191Y-59.181884
G1X76.142203Y-59.181881
G1X76.142219Y-59.181869
G1X76.145159Y-59.180653
G1X76.372669Y-58.953144
G1X76.495797Y-58.655878
G1X76.495797Y-58.334116
G1X76.372669Y-58.036850
G1X76.145144Y-57.809325
G1X76.142197Y-57.808106
G1X76.142188Y-57.808097
G1X76.142166Y-57.808091
G1X76.065213Y-57.756666
G1X76.034425Y-57.736097
G1X76.034419Y-57.736091
G1X76.034400Y-57.736078
G1X75.973781Y-57.675450
G1X75.942775Y-57.644447
G1X75.942769Y-57.644438
G1X75.942753Y-57.644422
G1X75.898469Y-57.578138
G1X75.870762Y-57.536678
G1X75.870759Y-57.536666
G1X75.870747Y-57.536650
G1X75.844863Y-57.474141
G1X75.821162Y-57.416931
G1X75.821159Y-57.416913
G1X75.821153Y-57.416900
G1X75.808519Y-57.353366
G1X75.795875Y-57.289806
G1X75.795875Y-57.289788
G1X75.795872Y-57.289775
G1X75.795875Y-57.225681
G1X75.795875Y-57.160191
G1X75.795878Y-57.160175
G1X75.795878Y-57.160156
G1X75.809413Y-57.092137
G1X75.821159Y-57.033066
G1X75.821166Y-57.033053
G1X75.821169Y-57.033034
G1X75.849209Y-56.965356
G1X75.870762Y-56.913319
G1X75.870772Y-56.913309
G1X75.870778Y-56.913288
G1X75.922203Y-56.836334
G1X75.942772Y-56.805547
G1X75.942778Y-56.805541
G1X75.942791Y-56.805522
G1X76.003419Y-56.744903
G1X76.034422Y-56.713897
G1X76.034431Y-56.713891
G1X76.034447Y-56.713875
G1X76.100731Y-56.669591
G1X76.142191Y-56.641884
G1X76.142203Y-56.641881
G1X76.142219Y-56.641869
G1X76.145159Y-56.640653
G1X76.372669Y-56.413144
G1X76.495797Y-56.115878
G1X76.495797Y-55.794116
G1X76.372669Y-55.496850
G1X76.145144Y-55.269325
G1X76.142197Y-55.268106
G1X76.142188Y-55.268097
G1X76.142166Y-55.268091
G1X76.065213Y-55.216666
G1X76.034425Y-55.196097
G1X76.034419Y-55.196091
G1X76.034400Y-55.196078
G1X75.973781Y-55.135450
G1X75.942775Y-55.104447
G1X75.942769Y-55.104434
G1X75.942753Y-55.104422
G1X75.898469Y-55.038138
G1X75.870762Y-54.996678
G1X75.870759Y-54.996662
G1X75.870747Y-54.996650
G1X75.844863Y-54.934141
G1X75.821162Y-54.876931
G1X75.821159Y-54.876913
G1X75.821153Y-54.876900
G1X75.808519Y-54.813366
G1X75.795875Y-54.749806
G1X75.795875Y-54.749788
G1X75.795872Y-54.749775
G1X75.795875Y-54.685681
G1X75.795875Y-54.620191
G1X75.795878Y-54.620175
G1X75.795878Y-54.620156
G1X75.809413Y-54.552138
G1X75.821159Y-54.493066
G1X75.821166Y-54.493053
G1X75.821169Y-54.493034
G1X75.849209Y-54.425356
G1X75.870762Y-54.373319
G1X75.870772Y-54.373309
G1X75.870778Y-54.373288
G1X75.922203Y-54.296334
G1X75.942772Y-54.265547
G1X75.942778Y-54.265541
G1X75.942791Y-54.265522
G1X76.003419Y-54.204903
G1X76.034422Y-54.173897
G1X76.034434Y-54.173891
G1X76.034447Y-54.173875
G1X76.100731Y-54.129591
G1X76.142191Y-54.101884
G1X76.142206Y-54.101881
G1X76.142219Y-54.101869
G1X76.145159Y-54.100653
G1X76.372669Y-53.873144
G1X76.495797Y-53.575878
G1X76.495797Y-53.254116
G1X76.372672Y-52.956853
G1X76.145144Y-52.729325
G1X76.142197Y-52.728106
G1X76.142188Y-52.728100
G1X76.142166Y-52.728091
G1X76.065213Y-52.676666
G1X76.034425Y-52.656097
G1X76.034419Y-52.656091
G1X76.034400Y-52.656078
G1X75.973781Y-52.595450
G1X75.942775Y-52.564447
G1X75.942769Y-52.564438
G1X75.942753Y-52.564422
G1X75.898469Y-52.498141
G1X75.870762Y-52.456678
G1X75.870756Y-52.456666
G1X75.870747Y-52.456650
G1X75.844859Y-52.394141
G1X75.821162Y-52.336931
G1X75.821159Y-52.336913
G1X75.821153Y-52.336900
G1X75.808519Y-52.273366
G1X75.795875Y-52.209806
G1X75.795875Y-52.209791
G1X75.795872Y-52.209775
G1X75.795875Y-52.145681
G1X75.795875Y-52.080191
G1X75.795878Y-52.080175
G1X75.795878Y-52.080156
G1X75.809409Y-52.012138
G1X75.821159Y-51.953066
G1X75.821166Y-51.953053
G1X75.821169Y-51.953034
G1X75.849206Y-51.885356
G1X75.870762Y-51.833319
G1X75.870769Y-51.833309
G1X75.870778Y-51.833288
G1X75.922203Y-51.756334
G1X75.942772Y-51.725547
G1X75.942778Y-51.725541
G1X75.942791Y-51.725522
G1X76.003419Y-51.664903
G1X76.034422Y-51.633897
G1X76.034431Y-51.633891
G1X76.034447Y-51.633875
G1X76.100728Y-51.589591
G1X76.142191Y-51.561884
G1X76.142203Y-51.561878
G1X76.142219Y-51.561869
G1X76.145159Y-51.560653
G1X76.372669Y-51.333144
G1X76.495797Y-51.035878
G1X76.495797Y-50.714116
G1X76.372669Y-50.416850
G1X76.145144Y-50.189325
G1X76.142197Y-50.188106
G1X76.142188Y-50.188097
G1X76.142166Y-50.188091
G1X76.065213Y-50.136666
G1X76.034425Y-50.116097
G1X76.034419Y-50.116091
G1X76.034400Y-50.116078
G1X75.973781Y-50.055450
G1X75.942775Y-50.024447
G1X75.942769Y-50.024438
G1X75.942753Y-50.024422
G1X75.898469Y-49.958141
G1X75.870762Y-49.916678
G1X75.870759Y-49.916666
G1X75.870747Y-49.916650
G1X75.844859Y-49.854141
G1X75.821162Y-49.796931
G1X75.821159Y-49.796913
G1X75.821153Y-49.796900
G1X75.808519Y-49.733366
G1X75.795875Y-49.669806
G1X75.795875Y-49.669791
G1X75.795872Y-49.669775
G1X75.795875Y-49.605681
G1X75.795875Y-49.540191
G1X75.795878Y-49.540175
G1X75.795878Y-49.540156
G1X75.809413Y-49.472138
G1X75.821159Y-49.413066
G1X75.821166Y-49.413053
G1X75.821169Y-49.413034
G1X75.849206Y-49.345356
G1X75.870762Y-49.293319
G1X75.870772Y-49.293309
G1X75.870778Y-49.293288
G1X75.922203Y-49.216334
G1X75.942772Y-49.185547
G1X75.942778Y-49.185541
G1X75.942791Y-49.185522
G1X76.003419Y-49.124903
G1X76.034422Y-49.093897
G1X76.034431Y-49.093891
G1X76.034447Y-49.093875
G1X76.100728Y-49.049591
G1X76.142191Y-49.021884
G1X76.142203Y-49.021881
G1X76.142219Y-49.021869
G1X76.145159Y-49.020653
G1X76.372669Y-48.793144
G1X76.495797Y-48.495878
G1X76.495797Y-48.174116
G1X76.372669Y-47.876850
G1X76.145144Y-47.649325
G1X76.142197Y-47.648106
G1X76.142188Y-47.648097
G1X76.142166Y-47.648091
G1X76.065213Y-47.596666
G1X76.034425Y-47.576097
G1X76.034419Y-47.576091
G1X76.034400Y-47.576078
G1X75.973781Y-47.515450
G1X75.942775Y-47.484447
G1X75.942769Y-47.484438
G1X75.942753Y-47.484422
G1X75.898469Y-47.418141
G1X75.870762Y-47.376678
G1X75.870759Y-47.376666
G1X75.870747Y-47.376650
G1X75.844859Y-47.314141
G1X75.821162Y-47.256931
G1X75.821159Y-47.256913
G1X75.821153Y-47.256900
G1X75.808519Y-47.193366
G1X75.795875Y-47.129806
G1X75.795875Y-47.129787
G1X75.795872Y-47.129775
G1X75.795875Y-47.065681
G1X75.795875Y-47.000191
G1X75.795878Y-47.000175
G1X75.795878Y-47.000156
G1X75.809413Y-46.932138
G1X75.821159Y-46.873066
G1X75.821166Y-46.873053
G1X75.821169Y-46.873034
G1X75.849209Y-46.805356
G1X75.870762Y-46.753319
G1X75.870772Y-46.753309
G1X75.870778Y-46.753287
G1X75.922203Y-46.676334
G1X75.942772Y-46.645547
G1X75.942778Y-46.645541
G1X75.942791Y-46.645522
G1X76.003419Y-46.584903
G1X76.034422Y-46.553897
G1X76.034431Y-46.553891
G1X76.034447Y-46.553875
G1X76.100728Y-46.509591
G1X76.142191Y-46.481884
G1X76.142203Y-46.481881
G1X76.142219Y-46.481869
G1X76.145159Y-46.480653
G1X76.372669Y-46.253144
G1X76.495797Y-45.955878
G1X76.495797Y-45.634116
G1X76.372669Y-45.336850
G1X76.145144Y-45.109325
G1X76.142197Y-45.108106
G1X76.142188Y-45.108097
G1X76.142166Y-45.108091
G1X76.065213Y-45.056666
G1X76.034425Y-45.036097
G1X76.034419Y-45.036091
G1X76.034400Y-45.036078
G1X75.973781Y-44.975450
G1X75.942775Y-44.944447
G1X75.942769Y-44.944437
G1X75.942753Y-44.944422
G1X75.898469Y-44.878138
G1X75.870762Y-44.836678
G1X75.870759Y-44.836666
G1X75.870747Y-44.836650
G1X75.844863Y-44.774141
G1X75.821162Y-44.716931
G1X75.821159Y-44.716912
G1X75.821153Y-44.716900
G1X75.808519Y-44.653366
G1X75.795875Y-44.589806
G1X75.795875Y-44.589787
G1X75.795872Y-44.589775
G1X75.795875Y-44.525681
G1X75.795875Y-44.460191
G1X75.795878Y-44.460175
G1X75.795878Y-44.460156
G1X75.809413Y-44.392138
G1X75.821159Y-44.333066
G1X75.821166Y-44.333053
G1X75.821169Y-44.333034
G1X75.849209Y-44.265356
G1X75.870762Y-44.213319
G1X75.870772Y-44.213309
G1X75.870778Y-44.213287
G1X75.922203Y-44.136334
G1X75.942772Y-44.105547
G1X75.942778Y-44.105541
G1X75.942791Y-44.105522
G1X76.003419Y-44.044903
G1X76.034422Y-44.013897
G1X76.034431Y-44.013891
G1X76.034447Y-44.013875
G1X76.100731Y-43.969591
G1X76.142191Y-43.941884
G1X76.142203Y-43.941881
G1X76.142219Y-43.941869
G1X76.145159Y-43.940653
G1X76.213059Y-43.872750
G1X76.213063Y-43.872744
G1X76.302381Y-43.783428
G1X76.304709Y-43.781097
G1X76.304713Y-43.781094
G1X76.356088Y-43.746769
G1X76.412478Y-43.709088
G1X76.412484Y-43.709088
G1X76.412484Y-43.709084
G1X76.445109Y-43.695572
G1X76.532228Y-43.659484
G1X76.659350Y-43.634197
G1X81.987903Y-43.634197
G1X82.115028Y-43.659484
G1X82.234775Y-43.709084
G1X82.342547Y-43.781094
G1X82.434197Y-43.872744
G1X82.465000Y-43.903547
G1X82.537009Y-44.011319
G1X82.558147Y-44.062356
G1X82.586613Y-44.131069
G1X82.606581Y-44.231475
G1X82.611897Y-44.258191
G1X82.611897Y-44.387809
G1X82.586609Y-44.514934
G1X82.537009Y-44.634681
G1X82.508738Y-44.676988
G1X82.465000Y-44.742450
G1X82.373350Y-44.834100
G1X82.373338Y-44.834106
G1X82.153772Y-45.053672
G1X82.014197Y-45.390634
G1X82.014197Y-45.755359
G1X82.153772Y-46.092322
G1X82.373338Y-46.311888
G1X82.373350Y-46.311894
G1X82.465000Y-46.403544
G1X82.507591Y-46.467291
G1X82.537009Y-46.511313
G1X82.586609Y-46.631059
G1X82.611897Y-46.758184
G1X82.611897Y-46.887803
G1X82.607150Y-46.911653
G1X82.586613Y-47.014925
G1X82.556959Y-47.086503
G1X82.537009Y-47.134675
G1X82.465000Y-47.242447
G1X82.153769Y-47.553675
G1X82.014197Y-47.890634
G1X82.014197Y-48.255359
G1X82.153769Y-48.592316
G1X82.411678Y-48.850225
G1X82.459469Y-48.870022
G1X82.556878Y-48.910369
G1X82.664650Y-48.982378
G1X82.664653Y-48.982381
G1X82.756303Y-49.074031
G1X82.828313Y-49.181803
G1X82.877913Y-49.301550
G1X82.898453Y-49.404822
G1X82.903197Y-49.428672
G1X82.903197Y-65.251103
G1X82.877909Y-65.378228
G1X82.828309Y-65.497975
G1X82.756300Y-65.605747
G1X82.664650Y-65.697397
G1X76.781747Y-71.580300
G1X76.673975Y-71.652309
G1X76.554228Y-71.701909
G1X76.427103Y-71.727197
G1X73.940891Y-71.727197
G1X73.813766Y-71.701909
G1X73.694019Y-71.652309
G1X73.586247Y-71.580300
G1X73.494597Y-71.488650
G1X69.643694Y-67.637747
G1X69.571684Y-67.529975
G1X69.522084Y-67.410228
G1X69.496797Y-67.283103
G1X69.496797Y-22.321891
G1X69.376559Y-22.031609
G1X62.184281Y-14.839334
G1X61.915384Y-14.570434
G1X61.625103Y-14.450197
G1X47.120072Y-14.450197
G1X47.000156Y-14.426341
G1X46.992950Y-14.424909
G1X46.873203Y-14.375309
G1X46.873200Y-14.375306
G1X46.537359Y-14.236197
G1X44.648634Y-14.236197
G1X44.499650Y-14.297909
G1X44.372525Y-14.323197
G1X42.514891Y-14.323197
G1X42.224609Y-14.443434
G1X41.864063Y-14.803984
G1X39.911747Y-16.756300
G1X39.803975Y-16.828309
G1X39.684228Y-16.877909
G1X39.557103Y-16.903197
G1X38.020038Y-16.903197
G1X37.900122Y-16.879341
G1X37.892916Y-16.877909
G1X37.773169Y-16.828309
G1X37.773169Y-16.828306
G1X37.647359Y-16.776197
G1X35.758634Y-16.776197
G1X35.609650Y-16.837909
G1X35.482525Y-16.863197
G1X33.243891Y-16.863197
G1X32.953609Y-16.983434
G1X32.684719Y-17.252328
G1X32.684713Y-17.252337
G1X32.593063Y-17.343988
G1X32.593059Y-17.343988
G1X30.732400Y-19.204641
G1X30.732397Y-19.204650
G1X30.640747Y-19.296300
G1X30.535119Y-19.366875
G1X30.532975Y-19.368309
G1X30.413228Y-19.417909
G1X30.286103Y-19.443197
G1X29.130038Y-19.443197
G1X29.010122Y-19.419341
G1X29.002916Y-19.417909
G1X28.883169Y-19.368309
G1X28.883169Y-19.368306
G1X28.757359Y-19.316197
G1X26.868638Y-19.316197
G1X26.719656Y-19.377909
G1X26.592531Y-19.403197
G1X23.464891Y-19.403197
G1X23.174609Y-19.523434
G1X22.814063Y-19.883984
G1X22.814059Y-19.883984
G1X20.953400Y-21.744644
G1X20.953397Y-21.744650
G1X20.861747Y-21.836300
G1X20.753975Y-21.908309
G1X20.634228Y-21.957909
G1X20.507103Y-21.983197
G1X20.240034Y-21.983197
G1X20.112909Y-21.957909
G1X20.038919Y-21.927259
G1X19.993166Y-21.908309
G1X19.993163Y-21.908306
G1X19.867363Y-21.856197
G1X17.978638Y-21.856197
G1X17.829656Y-21.917909
G1X17.702531Y-21.943197
G1X9.494891Y-21.943197
G1X9.204609Y-22.063434
G1X8.844062Y-22.423984
G1X5.426434Y-25.841609
G1X5.306197Y-26.131891
G1X5.306197Y-36.606103
G1X5.426434Y-36.896384
G1X5.786984Y-37.256931
G1X7.112609Y-38.582559
G1X7.402891Y-38.702797
G1X8.650006Y-38.702797
G1X8.777131Y-38.728084
G1X8.896878Y-38.777684
G1X9.004650Y-38.849694
G1X9.096300Y-38.941344
G1X9.168309Y-39.049116
G1X9.217909Y-39.168863
G1X9.243197Y-39.295988
G1X9.243197Y-45.750103
G1X9.363434Y-46.040384
G1X9.723984Y-46.400931
G1X12.025609Y-48.702559
G1X12.315891Y-48.822797
G1X17.605959Y-48.822797
G1X17.733084Y-48.848084
G1X17.807075Y-48.878734
G1X17.852828Y-48.897684
G1X17.852831Y-48.897688
G1X17.978631Y-48.949797
G1X18.937006Y-48.949797
G1X19.064131Y-48.975084
G1X19.183878Y-49.024684
G1X19.291650Y-49.096694
G1X19.383300Y-49.188344
G1X19.455309Y-49.296116
G1X19.504909Y-49.415863
G1X19.530197Y-49.542988
G1X19.530197Y-60.105438
G1X19.506341Y-60.225353
G1X19.504909Y-60.232559
G1X19.503475Y-60.236019
G1X19.455309Y-60.352309
G1X19.427038Y-60.394616
G1X19.383300Y-60.460078
G1X19.291650Y-60.551728
G1X19.183878Y-60.623738
G1X19.181431Y-60.624750
G1X19.064128Y-60.673341
G1X18.938794Y-60.698269
G1X18.937006Y-60.698625
G1X18.807388Y-60.698625
G1X18.687472Y-60.674769
G1X18.680266Y-60.673338
G1X18.676806Y-60.671903
G1X18.590397Y-60.636113
G1X18.590397Y-61.283881
G1X18.680266Y-61.246656
G1X18.807388Y-61.221369
G1X18.937006Y-61.221369
G1X19.064128Y-61.246653
G1X19.183878Y-61.296256
G1X19.186022Y-61.297691
G1X19.291650Y-61.368266
G1X19.383300Y-61.459916
G1X19.425891Y-61.523659
G1X19.455309Y-61.567684
G1X19.504909Y-61.687434
G1X19.530197Y-61.814556
G1X19.530197Y-68.470759
G1X19.513650Y-68.553928
G1X19.504909Y-68.597872
G1X19.504906Y-68.597878
G1X19.504906Y-68.597881
G1X19.493466Y-68.625500
G1X19.455309Y-68.717619
G1X19.383300Y-68.825391
G1X19.291650Y-68.917041
G1X19.183878Y-68.989050
G1X19.183869Y-68.989056
G1X19.094606Y-69.026025
G1X19.064131Y-69.038650
G1X19.064125Y-69.038650
G1X19.064122Y-69.038653
G1X19.014291Y-69.048563
G1X18.937006Y-69.063938
G1X18.807378Y-69.063938
G1X18.724209Y-69.047391
G1X18.680266Y-69.038650
G1X18.680259Y-69.038647
G1X18.680256Y-69.038647
G1X18.652638Y-69.027206
G1X18.560519Y-68.989050
G1X18.552637Y-68.983781
G1X18.588200Y-69.037003
G1X18.656950Y-69.202978
G1X18.691997Y-69.379172
G1X18.691997Y-71.082825
G1X18.656950Y-71.259019
G1X18.610322Y-71.371581
G1X18.647869Y-71.348572
G1X18.691050Y-71.319719
G1X18.703081Y-71.314738
G1X18.714169Y-71.307941
G1X18.762841Y-71.289984
G1X18.810797Y-71.270119
G1X18.823559Y-71.267581
G1X18.835769Y-71.263075
G1X18.887047Y-71.254953
G1X18.937922Y-71.244831
G1X18.950928Y-71.244831
G1X18.963788Y-71.242794
G1X19.015659Y-71.244831
G1X19.067538Y-71.244831
G1X19.080300Y-71.247372
G1X19.093303Y-71.247881
G1X19.143772Y-71.259997
G1X19.194662Y-71.270119
G1X19.206675Y-71.275097
G1X19.219338Y-71.278134
G1X19.266472Y-71.299863
G1X19.314409Y-71.319719
G1X19.325231Y-71.326953
G1X19.337047Y-71.332397
G1X19.379009Y-71.362884
G1X19.422181Y-71.391728
G1X19.431384Y-71.400934
G1X19.441909Y-71.408578
G1X19.477109Y-71.446659
G1X19.800675Y-71.770225
G1X20.137634Y-71.909797
G1X20.502359Y-71.909797
G1X20.839319Y-71.770225
G1X21.097225Y-71.512319
G1X21.236797Y-71.175359
G1X21.236797Y-69.286631
G1X21.184688Y-69.160828
G1X21.184684Y-69.160828
G1X21.167556Y-69.119475
G1X21.135084Y-69.041084
G1X21.109797Y-68.913959
G1X21.109797Y-61.660391
G1X21.109794Y-61.660378
G1X21.109797Y-61.596288
G1X21.109797Y-61.530803
G1X21.109800Y-61.530788
G1X21.109800Y-61.530763
G1X21.127916Y-61.439731
G1X21.135084Y-61.403678
G1X21.135091Y-61.403672
G1X21.135094Y-61.403641
G1X21.135197Y-61.403394
G1X21.135197Y-60.516581
G1X21.135084Y-60.516313
G1X21.109797Y-60.389188
G1X21.109797Y-57.389988
G1X21.135084Y-57.262863
G1X21.184684Y-57.143116
G1X21.256694Y-57.035344
G1X21.348344Y-56.943694
G1X21.456116Y-56.871684
G1X21.575862Y-56.822084
G1X21.702988Y-56.796797
G1X35.320006Y-56.796797
G1X35.447131Y-56.822084
G1X35.566878Y-56.871684
G1X35.674650Y-56.943694
G1X35.766300Y-57.035344
G1X35.838309Y-57.143116
G1X35.887909Y-57.262863
G1X35.913197Y-57.389988
G1X35.913197Y-58.196103
G1X36.033434Y-58.486384
G1X38.526713Y-60.979659
G1X38.795609Y-61.248559
G1X39.085891Y-61.368797
G1X43.902503Y-61.368797
G1X44.029628Y-61.394084
G1X44.149375Y-61.443684
G1X44.257147Y-61.515694
G1X44.311672Y-61.570222
G1X44.456875Y-61.630363
G1X44.512541Y-61.667559
G1X44.564650Y-61.702375
G1X44.654863Y-61.792591
G1X44.656297Y-61.794022
G1X44.656297Y-61.794025
G1X44.656300Y-61.794025
G1X44.728309Y-61.901797
G1X44.756769Y-61.970509
G1X44.777909Y-62.021541
G1X44.803197Y-62.148663
G1X44.803197Y-64.165103
G1X44.923434Y-64.455384
G1X46.944056Y-66.476006
G1X46.944063Y-66.476009
G1X47.304609Y-66.836559
G1X47.594891Y-66.956797
G1X50.621494Y-66.956797
G1X50.748616Y-66.982084
G1X50.868366Y-67.031688
G1X50.932400Y-67.074478
G1X50.976128Y-67.103694
G1X51.067778Y-67.195344
G1X51.139788Y-67.303116
G1X51.139788Y-67.303122
G1X51.139791Y-67.303122
G1X51.158903Y-67.349269
G1X51.189388Y-67.422863
G1X51.189388Y-67.422869
G1X51.189391Y-67.422872
G1X51.199300Y-67.472703
G1X51.214675Y-67.549988
G1X51.214675Y-67.679613
G1X51.189388Y-67.806734
G1X51.139784Y-67.926484
G1X51.121750Y-67.953472
G1X51.138162Y-67.942503
G1X51.284478Y-67.881897
G1X51.439809Y-67.851000
G1X51.514981Y-67.851000
G1X51.514981Y-67.549988
G1X51.540269Y-67.422863
G1X51.589869Y-67.303116
G1X51.661878Y-67.195344
G1X51.753528Y-67.103694
G1X51.861300Y-67.031684
G1X51.981047Y-66.982084
G1X52.108172Y-66.956797
G1X52.237819Y-66.956797
G1X52.364944Y-66.982084
G1X52.484691Y-67.031684
G1X52.592463Y-67.103694
G1X52.684113Y-67.195344
G1X52.756122Y-67.303116
G1X52.805722Y-67.422863
G1X52.831009Y-67.549988
G1X52.831009Y-67.851000
G1X52.906188Y-67.851000
G1X53.045369Y-67.878684
G1X53.032897Y-67.864084
G1X53.005331Y-67.836522
G1X52.990884Y-67.814897
G1X52.974013Y-67.795147
G1X52.954981Y-67.761166
G1X52.933322Y-67.728750
G1X52.923372Y-67.704725
G1X52.910678Y-67.682063
G1X52.898641Y-67.645022
G1X52.883722Y-67.609003
G1X52.878653Y-67.583506
G1X52.870619Y-67.558791
G1X52.866038Y-67.520084
G1X52.858438Y-67.481878
G1X52.858438Y-67.455894
G1X52.855381Y-67.430078
G1X52.858438Y-67.391228
G1X52.858438Y-67.352263
G1X52.863509Y-67.326772
G1X52.865547Y-67.300859
G1X52.876125Y-67.263353
G1X52.883725Y-67.225138
G1X52.893669Y-67.201134
G1X52.900725Y-67.176109
G1X52.918425Y-67.141375
G1X52.933328Y-67.105391
G1X52.947763Y-67.083791
G1X52.959566Y-67.060622
G1X52.983694Y-67.030016
G1X53.005338Y-66.997622
G1X53.023716Y-66.979244
G1X53.039806Y-66.958831
G1X53.069425Y-66.933534
G1X53.096988Y-66.905969
G1X53.118613Y-66.891522
G1X53.138362Y-66.874650
G1X53.172344Y-66.855619
G1X53.204759Y-66.833959
G1X53.228784Y-66.824009
G1X53.251447Y-66.811316
G1X53.285591Y-66.800222
G1X53.512669Y-66.573144
G1X53.635797Y-66.275878
G1X53.635797Y-65.954116
G1X53.512669Y-65.656850
G1X53.285159Y-65.429341
G1X53.282219Y-65.428125
G1X53.282203Y-65.428112
G1X53.282191Y-65.428109
G1X53.241803Y-65.401122
G1X53.174447Y-65.356119
G1X53.174431Y-65.356103
G1X53.174422Y-65.356097
G1X53.144375Y-65.326047
G1X53.082791Y-65.264472
G1X53.082778Y-65.264453
G1X53.082772Y-65.264447
G1X53.063022Y-65.234887
G1X53.010778Y-65.156706
G1X53.010772Y-65.156684
G1X53.010763Y-65.156675
G1X52.989803Y-65.106069
G1X52.961169Y-65.036959
G1X52.961166Y-65.036941
G1X52.961159Y-65.036928
G1X52.949672Y-64.979159
G1X52.935878Y-64.909838
G1X52.935878Y-64.909816
G1X52.935875Y-64.909803
G1X52.935875Y-64.845744
G1X52.935872Y-64.780219
G1X52.935875Y-64.780203
G1X52.935875Y-64.780187
G1X52.948234Y-64.718063
G1X52.961153Y-64.653094
G1X52.961159Y-64.653081
G1X52.961163Y-64.653063
G1X52.984369Y-64.597041
G1X53.010747Y-64.533344
G1X53.010759Y-64.533328
G1X53.010763Y-64.533316
G1X53.037750Y-64.492928
G1X53.082753Y-64.425572
G1X53.082769Y-64.425556
G1X53.082775Y-64.425547
G1X53.112825Y-64.395500
G1X53.174400Y-64.333916
G1X53.174419Y-64.333903
G1X53.174425Y-64.333897
G1X53.203984Y-64.314147
G1X53.282166Y-64.261903
G1X53.282187Y-64.261897
G1X53.282197Y-64.261888
G1X53.285144Y-64.260669
G1X53.512669Y-64.033144
G1X53.635797Y-63.735878
G1X53.635797Y-63.414116
G1X53.512669Y-63.116850
G1X53.285159Y-62.889341
G1X53.282219Y-62.888125
G1X53.282203Y-62.888113
G1X53.282191Y-62.888109
G1X53.241803Y-62.861119
G1X53.174447Y-62.816119
G1X53.174431Y-62.816103
G1X53.174422Y-62.816097
G1X53.144375Y-62.786047
G1X53.082791Y-62.724472
G1X53.082778Y-62.724453
G1X53.082772Y-62.724447
G1X53.063022Y-62.694888
G1X53.010778Y-62.616706
G1X53.010772Y-62.616684
G1X53.010763Y-62.616675
G1X52.989803Y-62.566069
G1X52.961169Y-62.496959
G1X52.961166Y-62.496941
G1X52.961159Y-62.496928
G1X52.949672Y-62.439159
G1X52.935878Y-62.369838
G1X52.935878Y-62.369816
G1X52.935875Y-62.369803
G1X52.935875Y-62.305744
G1X52.935872Y-62.240219
G1X52.935875Y-62.240203
G1X52.935875Y-62.240188
G1X52.948234Y-62.178063
G1X52.961153Y-62.113094
G1X52.961159Y-62.113081
G1X52.961163Y-62.113063
G1X52.984369Y-62.057041
G1X53.010747Y-61.993344
G1X53.010759Y-61.993328
G1X53.010763Y-61.993316
G1X53.037753Y-61.952928
G1X53.082753Y-61.885572
G1X53.082769Y-61.885556
G1X53.082775Y-61.885547
G1X53.112825Y-61.855500
G1X53.174400Y-61.793916
G1X53.174419Y-61.793903
G1X53.174425Y-61.793897
G1X53.203984Y-61.774147
G1X53.282166Y-61.721903
G1X53.282187Y-61.721897
G1X53.282197Y-61.721888
G1X53.285144Y-61.720669
G1X53.512669Y-61.493144
G1X53.635797Y-61.195878
G1X53.635797Y-60.874116
G1X53.512669Y-60.576850
G1X53.285159Y-60.349341
G1X53.282219Y-60.348125
G1X53.282203Y-60.348113
G1X53.282191Y-60.348109
G1X53.241803Y-60.321119
G1X53.174447Y-60.276119
G1X53.174431Y-60.276103
G1X53.174422Y-60.276097
G1X53.144375Y-60.246047
G1X53.082791Y-60.184472
G1X53.082778Y-60.184450
G1X53.082772Y-60.184447
G1X53.063022Y-60.154884
G1X53.010778Y-60.076706
G1X53.010772Y-60.076684
G1X53.010763Y-60.076675
G1X52.989803Y-60.026069
G1X52.961169Y-59.956959
G1X52.961166Y-59.956941
G1X52.961159Y-59.956928
G1X52.949672Y-59.899159
G1X52.935878Y-59.829838
G1X52.935878Y-59.829816
G1X52.935875Y-59.829803
G1X52.935875Y-59.765744
G1X52.935872Y-59.700219
G1X52.935875Y-59.700203
G1X52.935875Y-59.700188
G1X52.948234Y-59.638063
G1X52.961153Y-59.573094
G1X52.961159Y-59.573081
G1X52.961163Y-59.573063
G1X52.984369Y-59.517041
G1X53.010747Y-59.453344
G1X53.010759Y-59.453328
G1X53.010763Y-59.453316
G1X53.037753Y-59.412928
G1X53.082753Y-59.345572
G1X53.082769Y-59.345556
G1X53.082775Y-59.345547
G1X53.112825Y-59.315500
G1X53.174400Y-59.253916
G1X53.174422Y-59.253903
G1X53.174425Y-59.253897
G1X53.203988Y-59.234147
G1X53.282166Y-59.181903
G1X53.282187Y-59.181897
G1X53.282197Y-59.181888
G1X53.285144Y-59.180669
G1X53.512669Y-58.953144
G1X53.635797Y-58.655881
G1X53.635797Y-58.334116
G1X53.512669Y-58.036850
G1X53.285159Y-57.809341
G1X53.282219Y-57.808125
G1X53.282203Y-57.808113
G1X53.282191Y-57.808109
G1X53.241803Y-57.781122
G1X53.174447Y-57.736119
G1X53.174431Y-57.736103
G1X53.174422Y-57.736097
G1X53.144372Y-57.706047
G1X53.082791Y-57.644472
G1X53.082778Y-57.644453
G1X53.082772Y-57.644447
G1X53.063022Y-57.614888
G1X53.010778Y-57.536706
G1X53.010769Y-57.536684
G1X53.010763Y-57.536675
G1X52.989800Y-57.486069
G1X52.961169Y-57.416959
G1X52.961166Y-57.416941
G1X52.961159Y-57.416928
G1X52.949669Y-57.359159
G1X52.935878Y-57.289838
G1X52.935878Y-57.289819
G1X52.935875Y-57.289803
G1X52.935875Y-57.225744
G1X52.935872Y-57.160219
G1X52.935875Y-57.160203
G1X52.935875Y-57.160187
G1X52.948234Y-57.098063
G1X52.961153Y-57.033094
G1X52.961159Y-57.033081
G1X52.961163Y-57.033062
G1X52.984369Y-56.977041
G1X53.010747Y-56.913344
G1X53.010759Y-56.913328
G1X53.010763Y-56.913316
G1X53.037750Y-56.872928
G1X53.082753Y-56.805572
G1X53.082769Y-56.805556
G1X53.082775Y-56.805547
G1X53.112825Y-56.775497
G1X53.174400Y-56.713916
G1X53.174419Y-56.713903
G1X53.174425Y-56.713897
G1X53.203984Y-56.694147
G1X53.282166Y-56.641903
G1X53.282187Y-56.641894
G1X53.282197Y-56.641888
G1X53.285144Y-56.640669
G1X53.512669Y-56.413144
G1X53.635797Y-56.115878
G1X53.635797Y-55.794116
G1X53.512669Y-55.496850
G1X53.285159Y-55.269341
G1X53.282219Y-55.268125
G1X53.282203Y-55.268113
G1X53.282191Y-55.268109
G1X53.241803Y-55.241122
G1X53.174447Y-55.196119
G1X53.174431Y-55.196103
G1X53.174422Y-55.196097
G1X53.144375Y-55.166047
G1X53.082791Y-55.104472
G1X53.082778Y-55.104453
G1X53.082772Y-55.104447
G1X53.063022Y-55.074888
G1X53.010778Y-54.996706
G1X53.010769Y-54.996684
G1X53.010763Y-54.996675
G1X52.989800Y-54.946069
G1X52.961169Y-54.876959
G1X52.961166Y-54.876941
G1X52.961159Y-54.876928
G1X52.949672Y-54.819159
G1X52.935878Y-54.749838
G1X52.935878Y-54.749816
G1X52.935875Y-54.749803
G1X52.935875Y-54.685744
G1X52.935872Y-54.620219
G1X52.935875Y-54.620203
G1X52.935875Y-54.620188
G1X52.948234Y-54.558063
G1X52.961153Y-54.493094
G1X52.961159Y-54.493081
G1X52.961163Y-54.493063
G1X52.984369Y-54.437041
G1X53.010747Y-54.373344
G1X53.010759Y-54.373328
G1X53.010763Y-54.373316
G1X53.037750Y-54.332928
G1X53.082753Y-54.265572
G1X53.082769Y-54.265556
G1X53.082775Y-54.265547
G1X53.112825Y-54.235500
G1X53.174400Y-54.173916
G1X53.174419Y-54.173903
G1X53.174425Y-54.173897
G1X53.203984Y-54.154147
G1X53.282166Y-54.101903
G1X53.282187Y-54.101894
G1X53.282197Y-54.101888
G1X53.285144Y-54.100669
G1X53.512669Y-53.873144
G1X53.635797Y-53.575878
G1X53.635797Y-53.254116
G1X53.512669Y-52.956850
G1X53.285159Y-52.729341
G1X53.282219Y-52.728125
G1X53.282203Y-52.728113
G1X53.282191Y-52.728109
G1X53.241803Y-52.701122
G1X53.174447Y-52.656119
G1X53.174431Y-52.656103
G1X53.174422Y-52.656097
G1X53.144375Y-52.626047
G1X53.082791Y-52.564472
G1X53.082778Y-52.564453
G1X53.082772Y-52.564447
G1X53.063022Y-52.534888
G1X53.010778Y-52.456706
G1X53.010772Y-52.456684
G1X53.010763Y-52.456675
G1X52.989803Y-52.406069
G1X52.961169Y-52.336959
G1X52.961166Y-52.336941
G1X52.961159Y-52.336928
G1X52.949672Y-52.279159
G1X52.935878Y-52.209837
G1X52.935878Y-52.209816
G1X52.935875Y-52.209803
G1X52.935875Y-52.145744
G1X52.935872Y-52.080219
G1X52.935875Y-52.080203
G1X52.935875Y-52.080188
G1X52.948234Y-52.018062
G1X52.961153Y-51.953094
G1X52.961159Y-51.953081
G1X52.961163Y-51.953063
G1X52.984369Y-51.897041
G1X53.010747Y-51.833344
G1X53.010759Y-51.833328
G1X53.010763Y-51.833316
G1X53.037750Y-51.792928
G1X53.082753Y-51.725572
G1X53.082769Y-51.725556
G1X53.082775Y-51.725547
G1X53.112825Y-51.695500
G1X53.174400Y-51.633916
G1X53.174419Y-51.633903
G1X53.174425Y-51.633897
G1X53.203984Y-51.614147
G1X53.282166Y-51.561903
G1X53.282187Y-51.561897
G1X53.282197Y-51.561888
G1X53.285144Y-51.560669
G1X53.512669Y-51.333144
G1X53.635797Y-51.035878
G1X53.635797Y-50.714116
G1X53.512669Y-50.416850
G1X53.285159Y-50.189341
G1X53.282219Y-50.188125
G1X53.282203Y-50.188113
G1X53.282191Y-50.188109
G1X53.241803Y-50.161122
G1X53.174447Y-50.116119
G1X53.174431Y-50.116103
G1X53.174422Y-50.116097
G1X53.144375Y-50.086047
G1X53.082791Y-50.024472
G1X53.082778Y-50.024453
G1X53.082772Y-50.024447
G1X53.063022Y-49.994888
G1X53.010778Y-49.916706
G1X53.010772Y-49.916684
G1X53.010763Y-49.916675
G1X52.989803Y-49.866069
G1X52.961169Y-49.796959
G1X52.961166Y-49.796941
G1X52.961159Y-49.796928
G1X52.949672Y-49.739159
G1X52.935878Y-49.669837
G1X52.935878Y-49.669816
G1X52.935875Y-49.669803
G1X52.935875Y-49.605744
G1X52.935872Y-49.540219
G1X52.935875Y-49.540203
G1X52.935875Y-49.540188
G1X52.948234Y-49.478063
G1X52.961153Y-49.413094
G1X52.961159Y-49.413081
G1X52.961163Y-49.413063
G1X52.984369Y-49.357041
G1X53.010747Y-49.293344
G1X53.010759Y-49.293328
G1X53.010763Y-49.293316
G1X53.037750Y-49.252928
G1X53.082753Y-49.185572
G1X53.082769Y-49.185556
G1X53.082775Y-49.185547
G1X53.112825Y-49.155500
G1X53.174400Y-49.093916
G1X53.174419Y-49.093903
G1X53.174425Y-49.093897
G1X53.203984Y-49.074147
G1X53.282166Y-49.021903
G1X53.282187Y-49.021897
G1X53.282197Y-49.021888
G1X53.285144Y-49.020669
G1X53.512669Y-48.793144
G1X53.635797Y-48.495878
G1X53.635797Y-48.174116
G1X53.512669Y-47.876850
G1X53.285159Y-47.649341
G1X53.282219Y-47.648125
G1X53.282203Y-47.648113
G1X53.282191Y-47.648109
G1X53.241803Y-47.621119
G1X53.174447Y-47.576119
G1X53.174431Y-47.576103
G1X53.174422Y-47.576097
G1X53.144375Y-47.546047
G1X53.082791Y-47.484472
G1X53.082778Y-47.484450
G1X53.082772Y-47.484447
G1X53.063022Y-47.454884
G1X53.010778Y-47.376706
G1X53.010772Y-47.376684
G1X53.010763Y-47.376675
G1X52.989803Y-47.326069
G1X52.961169Y-47.256959
G1X52.961166Y-47.256941
G1X52.961159Y-47.256928
G1X52.949672Y-47.199159
G1X52.935878Y-47.129838
G1X52.935878Y-47.129816
G1X52.935875Y-47.129803
G1X52.935875Y-47.065744
G1X52.935872Y-47.000219
G1X52.935875Y-47.000203
G1X52.935875Y-47.000188
G1X52.948234Y-46.938063
G1X52.961153Y-46.873094
G1X52.961159Y-46.873081
G1X52.961163Y-46.873063
G1X52.984369Y-46.817041
G1X53.010747Y-46.753344
G1X53.010759Y-46.753328
G1X53.010763Y-46.753316
G1X53.037753Y-46.712928
G1X53.082753Y-46.645572
G1X53.082769Y-46.645556
G1X53.082775Y-46.645547
G1X53.112825Y-46.615500
G1X53.174400Y-46.553916
G1X53.174422Y-46.553903
G1X53.174425Y-46.553897
G1X53.203988Y-46.534147
G1X53.282166Y-46.481903
G1X53.282187Y-46.481897
G1X53.282197Y-46.481887
G1X53.285144Y-46.480669
G1X53.512669Y-46.253144
G1X53.635797Y-45.955878
G1X53.635797Y-45.634119
G1X53.512669Y-45.336850
G1X53.285159Y-45.109341
G1X53.282219Y-45.108125
G1X53.282203Y-45.108113
G1X53.282191Y-45.108109
G1X53.241803Y-45.081122
G1X53.174447Y-45.036119
G1X53.174431Y-45.036103
G1X53.174422Y-45.036097
G1X53.144372Y-45.006047
G1X53.082791Y-44.944472
G1X53.082778Y-44.944453
G1X53.082772Y-44.944447
G1X53.063022Y-44.914887
G1X53.010778Y-44.836706
G1X53.010769Y-44.836684
G1X53.010763Y-44.836675
G1X52.989800Y-44.786069
G1X52.961169Y-44.716959
G1X52.961166Y-44.716941
G1X52.961159Y-44.716928
G1X52.949669Y-44.659159
G1X52.935878Y-44.589838
G1X52.935878Y-44.589819
G1X52.935875Y-44.589803
G1X52.935875Y-44.525744
G1X52.935872Y-44.460219
G1X52.935875Y-44.460203
G1X52.935875Y-44.460188
G1X52.948234Y-44.398063
G1X52.961153Y-44.333094
G1X52.961159Y-44.333081
G1X52.961163Y-44.333063
G1X52.984369Y-44.277041
G1X53.010747Y-44.213344
G1X53.010759Y-44.213328
G1X53.010763Y-44.213316
G1X53.037750Y-44.172928
G1X53.082753Y-44.105572
G1X53.082769Y-44.105556
G1X53.082775Y-44.105547
G1X53.112825Y-44.075497
G1X53.174400Y-44.013916
G1X53.174419Y-44.013903
G1X53.174425Y-44.013897
G1X53.203984Y-43.994147
G1X53.282166Y-43.941903
G1X53.282187Y-43.941894
G1X53.282197Y-43.941887
G1X53.285144Y-43.940669
G1X53.512669Y-43.713144
G1X53.635797Y-43.415878
G1X53.635797Y-43.094116
G1X53.512669Y-42.796850
G1X53.285159Y-42.569341
G1X53.282219Y-42.568125
G1X53.282203Y-42.568113
G1X53.282191Y-42.568109
G1X53.241803Y-42.541122
G1X53.174447Y-42.496119
G1X53.174431Y-42.496103
G1X53.174422Y-42.496097
G1X53.144372Y-42.466047
G1X53.082791Y-42.404472
G1X53.082778Y-42.404453
G1X53.082772Y-42.404447
G1X53.063022Y-42.374887
G1X53.010778Y-42.296706
G1X53.010769Y-42.296684
G1X53.010763Y-42.296675
G1X52.989800Y-42.246069
G1X52.961169Y-42.176959
G1X52.961166Y-42.176941
G1X52.961159Y-42.176928
G1X52.949669Y-42.119159
G1X52.935878Y-42.049838
G1X52.935878Y-42.049816
G1X52.935875Y-42.049803
G1X52.935875Y-41.985744
G1X52.935872Y-41.920219
G1X52.935875Y-41.920203
G1X52.935875Y-41.920188
G1X52.948234Y-41.858063
G1X52.961153Y-41.793094
G1X52.961159Y-41.793081
G1X52.961163Y-41.793063
G1X52.984369Y-41.737041
G1X53.010747Y-41.673344
G1X53.010759Y-41.673328
G1X53.010763Y-41.673316
G1X53.037750Y-41.632928
G1X53.082753Y-41.565572
G1X53.082769Y-41.565556
G1X53.082775Y-41.565547
G1X53.112825Y-41.535497
G1X53.174400Y-41.473916
G1X53.174419Y-41.473903
G1X53.174425Y-41.473897
G1X53.203984Y-41.454147
G1X53.282166Y-41.401903
G1X53.282187Y-41.401894
G1X53.282197Y-41.401888
G1X53.285144Y-41.400669
G1X53.512669Y-41.173144
G1X53.635797Y-40.875878
G1X53.635797Y-40.554116
G1X53.512669Y-40.256850
G1X53.285159Y-40.029341
G1X53.282219Y-40.028125
G1X53.282203Y-40.028112
G1X53.282191Y-40.028109
G1X53.241803Y-40.001122
G1X53.174447Y-39.956119
G1X53.174431Y-39.956103
G1X53.174422Y-39.956097
G1X53.144375Y-39.926047
G1X53.082791Y-39.864472
G1X53.082778Y-39.864453
G1X53.082772Y-39.864447
G1X53.063022Y-39.834888
G1X53.010778Y-39.756706
G1X53.010772Y-39.756684
G1X53.010763Y-39.756675
G1X52.989803Y-39.706069
G1X52.961169Y-39.636959
G1X52.961166Y-39.636941
G1X52.961159Y-39.636928
G1X52.949672Y-39.579159
G1X52.935878Y-39.509838
G1X52.935878Y-39.509816
G1X52.935875Y-39.509803
G1X52.935875Y-39.445744
G1X52.935872Y-39.380219
G1X52.935875Y-39.380203
G1X52.935875Y-39.380188
G1X52.948234Y-39.318063
G1X52.961153Y-39.253094
G1X52.961159Y-39.253081
G1X52.961163Y-39.253062
G1X52.984369Y-39.197041
G1X53.010747Y-39.133344
G1X53.010759Y-39.133328
G1X53.010763Y-39.133316
G1X53.037750Y-39.092928
G1X53.082753Y-39.025572
G1X53.082769Y-39.025556
G1X53.082775Y-39.025547
G1X53.112825Y-38.995500
G1X53.174400Y-38.933916
G1X53.174419Y-38.933903
G1X53.174425Y-38.933897
G1X53.203984Y-38.914147
G1X53.282166Y-38.861903
G1X53.282187Y-38.861897
G1X53.282197Y-38.861888
G1X53.285144Y-38.860669
G1X53.512669Y-38.633144
G1X53.635797Y-38.335878
G1X53.635797Y-38.014116
G1X53.512669Y-37.716850
G1X53.285159Y-37.489341
G1X53.282219Y-37.488125
G1X53.282203Y-37.488112
G1X53.282191Y-37.488109
G1X53.241803Y-37.461122
G1X53.174447Y-37.416119
G1X53.174431Y-37.416103
G1X53.174422Y-37.416097
G1X53.144375Y-37.386047
G1X53.082791Y-37.324472
G1X53.082778Y-37.324453
G1X53.082772Y-37.324447
G1X53.063022Y-37.294888
G1X53.010778Y-37.216706
G1X53.010772Y-37.216684
G1X53.010763Y-37.216675
G1X52.989803Y-37.166069
G1X52.961169Y-37.096959
G1X52.961166Y-37.096941
G1X52.961159Y-37.096928
G1X52.949672Y-37.039159
G1X52.935878Y-36.969838
G1X52.935878Y-36.969816
G1X52.935875Y-36.969803
G1X52.935875Y-36.905744
G1X52.935872Y-36.840219
G1X52.935875Y-36.840203
G1X52.935875Y-36.840187
G1X52.948234Y-36.778063
G1X52.961153Y-36.713094
G1X52.961159Y-36.713081
G1X52.961163Y-36.713062
G1X52.984369Y-36.657041
G1X53.010747Y-36.593344
G1X53.010759Y-36.593328
G1X53.010763Y-36.593316
G1X53.037750Y-36.552928
G1X53.082753Y-36.485572
G1X53.082769Y-36.485556
G1X53.082775Y-36.485547
G1X53.112825Y-36.455500
G1X53.174400Y-36.393916
G1X53.174419Y-36.393903
G1X53.174425Y-36.393897
G1X53.203984Y-36.374147
G1X53.282166Y-36.321903
G1X53.282187Y-36.321897
G1X53.282197Y-36.321888
G1X53.285144Y-36.320669
G1X53.512669Y-36.093144
G1X53.635797Y-35.795878
G1X53.635797Y-35.474116
G1X53.512669Y-35.176850
G1X53.285159Y-34.949341
G1X53.282219Y-34.948125
G1X53.282203Y-34.948113
G1X53.282191Y-34.948109
G1X53.241803Y-34.921119
G1X53.174447Y-34.876119
G1X53.174431Y-34.876103
G1X53.174422Y-34.876097
G1X53.144375Y-34.846047
G1X53.082791Y-34.784472
G1X53.082778Y-34.784450
G1X53.082772Y-34.784447
G1X53.063022Y-34.754884
G1X53.010778Y-34.676706
G1X53.010772Y-34.676684
G1X53.010763Y-34.676675
G1X52.989803Y-34.626069
G1X52.961169Y-34.556959
G1X52.961166Y-34.556941
G1X52.961159Y-34.556928
G1X52.949672Y-34.499159
G1X52.935878Y-34.429838
G1X52.935878Y-34.429816
G1X52.935875Y-34.429803
G1X52.935875Y-34.365744
G1X52.935872Y-34.300219
G1X52.935875Y-34.300203
G1X52.935875Y-34.300187
G1X52.948234Y-34.238063
G1X52.961153Y-34.173094
G1X52.961159Y-34.173081
G1X52.961163Y-34.173063
G1X52.984369Y-34.117041
G1X53.010747Y-34.053344
G1X53.010759Y-34.053328
G1X53.010763Y-34.053316
G1X53.037753Y-34.012928
G1X53.082753Y-33.945572
G1X53.082769Y-33.945556
G1X53.082775Y-33.945547
G1X53.112825Y-33.915500
G1X53.174400Y-33.853916
G1X53.174422Y-33.853903
G1X53.174425Y-33.853897
G1X53.203988Y-33.834147
G1X53.282166Y-33.781903
G1X53.282187Y-33.781897
G1X53.282197Y-33.781888
G1X53.285144Y-33.780669
G1X53.512669Y-33.553144
G1X53.635797Y-33.255878
G1X53.635797Y-32.934116
G1X53.512672Y-32.636853
G1X53.285159Y-32.409341
G1X53.282219Y-32.408125
G1X53.282203Y-32.408113
G1X53.282191Y-32.408109
G1X53.241803Y-32.381122
G1X53.174447Y-32.336119
G1X53.174431Y-32.336103
G1X53.174422Y-32.336097
G1X53.144372Y-32.306047
G1X53.082791Y-32.244472
G1X53.082778Y-32.244453
G1X53.082772Y-32.244447
G1X53.063022Y-32.214888
G1X53.010778Y-32.136706
G1X53.010769Y-32.136684
G1X53.010763Y-32.136675
G1X52.989800Y-32.086069
G1X52.961169Y-32.016959
G1X52.961166Y-32.016941
G1X52.961159Y-32.016928
G1X52.949669Y-31.959159
G1X52.935878Y-31.889838
G1X52.935878Y-31.889819
G1X52.935875Y-31.889803
G1X52.935875Y-31.825744
G1X52.935872Y-31.760219
G1X52.935875Y-31.760203
G1X52.935875Y-31.760188
G1X52.948234Y-31.698063
G1X52.961153Y-31.633094
G1X52.961159Y-31.633081
G1X52.961163Y-31.633063
G1X52.984369Y-31.577041
G1X53.010747Y-31.513344
G1X53.010759Y-31.513328
G1X53.010763Y-31.513316
G1X53.037750Y-31.472928
G1X53.082753Y-31.405572
G1X53.082769Y-31.405556
G1X53.082775Y-31.405547
G1X53.112825Y-31.375497
G1X53.174400Y-31.313916
G1X53.174419Y-31.313903
G1X53.174425Y-31.313897
G1X53.203984Y-31.294147
G1X53.282166Y-31.241903
G1X53.282187Y-31.241894
G1X53.282197Y-31.241888
G1X53.285144Y-31.240669
G1X53.512669Y-31.013144
G1X53.635797Y-30.715878
G1X53.635797Y-30.394116
G1X53.512669Y-30.096850
G1X53.285159Y-29.869341
G1X53.282219Y-29.868125
G1X53.282203Y-29.868113
G1X53.282191Y-29.868109
G1X53.241803Y-29.841122
G1X53.174447Y-29.796119
G1X53.174431Y-29.796103
G1X53.174422Y-29.796097
G1X53.144372Y-29.766047
G1X53.082791Y-29.704472
G1X53.082778Y-29.704453
G1X53.082772Y-29.704447
G1X53.063022Y-29.674888
G1X53.010778Y-29.596706
G1X53.010769Y-29.596684
G1X53.010763Y-29.596675
G1X52.989800Y-29.546069
G1X52.961169Y-29.476959
G1X52.961166Y-29.476941
G1X52.961159Y-29.476928
G1X52.949669Y-29.419159
G1X52.935878Y-29.349838
G1X52.935878Y-29.349819
G1X52.935875Y-29.349803
G1X52.935875Y-29.285744
G1X52.935872Y-29.220219
G1X52.935875Y-29.220203
G1X52.935875Y-29.220188
G1X52.948234Y-29.158062
G1X52.961153Y-29.093094
G1X52.961159Y-29.093081
G1X52.961163Y-29.093063
G1X52.984369Y-29.037041
G1X53.010747Y-28.973344
G1X53.010759Y-28.973328
G1X53.010763Y-28.973316
G1X53.037750Y-28.932928
G1X53.082753Y-28.865572
G1X53.082769Y-28.865556
G1X53.082775Y-28.865547
G1X53.112825Y-28.835497
G1X53.174400Y-28.773916
G1X53.174419Y-28.773903
G1X53.174425Y-28.773897
G1X53.203984Y-28.754147
G1X53.282166Y-28.701903
G1X53.282187Y-28.701894
G1X53.282197Y-28.701888
G1X53.285144Y-28.700669
G1X53.512669Y-28.473144
G1X53.635797Y-28.175878
G1X53.635797Y-27.854116
G1X53.512669Y-27.556850
G1X53.285159Y-27.329341
G1X53.282219Y-27.328125
G1X53.282203Y-27.328112
G1X53.282191Y-27.328109
G1X53.241803Y-27.301122
G1X53.174447Y-27.256119
G1X53.174431Y-27.256103
G1X53.174422Y-27.256097
G1X53.144375Y-27.226047
G1X53.082791Y-27.164472
G1X53.082778Y-27.164453
G1X53.082772Y-27.164447
G1X53.063022Y-27.134888
G1X53.010778Y-27.056706
G1X53.010772Y-27.056684
G1X53.010763Y-27.056675
G1X52.989803Y-27.006069
G1X52.961169Y-26.936959
G1X52.961166Y-26.936941
G1X52.961159Y-26.936928
G1X52.949672Y-26.879159
G1X52.935878Y-26.809838
G1X52.935878Y-26.809816
G1X52.935875Y-26.809803
G1X52.935875Y-26.745744
G1X52.935872Y-26.680219
G1X52.935875Y-26.680203
G1X52.935875Y-26.680188
G1X52.948234Y-26.618063
G1X52.961153Y-26.553094
G1X52.961159Y-26.553081
G1X52.961163Y-26.553063
G1X52.984369Y-26.497041
G1X53.010747Y-26.433344
G1X53.010759Y-26.433328
G1X53.010763Y-26.433316
G1X53.037750Y-26.392928
G1X53.082753Y-26.325572
G1X53.082769Y-26.325556
G1X53.082775Y-26.325547
G1X53.112825Y-26.295500
G1X53.174400Y-26.233916
G1X53.174419Y-26.233903
G1X53.174425Y-26.233897
G1X53.203984Y-26.214147
G1X53.282166Y-26.161903
G1X53.282187Y-26.161897
G1X53.282197Y-26.161888
G1X53.285144Y-26.160669
G1X53.512669Y-25.933144
G1X53.635797Y-25.635878
G1X53.635797Y-25.314116
G1X53.512669Y-25.016850
G1X53.285159Y-24.789341
G1X53.282219Y-24.788125
G1X53.282203Y-24.788113
G1X53.282191Y-24.788109
G1X53.241803Y-24.761122
G1X53.174447Y-24.716119
G1X53.174431Y-24.716103
G1X53.174422Y-24.716097
G1X53.144375Y-24.686047
G1X53.082791Y-24.624472
G1X53.082778Y-24.624453
G1X53.082772Y-24.624447
G1X53.063022Y-24.594888
G1X53.010778Y-24.516706
G1X53.010772Y-24.516684
G1X53.010763Y-24.516675
G1X52.989803Y-24.466069
G1X52.961169Y-24.396959
G1X52.961166Y-24.396941
G1X52.961159Y-24.396928
G1X52.949672Y-24.339159
G1X52.935878Y-24.269838
G1X52.935878Y-24.269816
G1X52.935875Y-24.269803
G1X52.935875Y-24.205744
G1X52.935872Y-24.140219
G1X52.935875Y-24.140203
G1X52.935875Y-24.140187
G1X52.948234Y-24.078063
G1X52.961153Y-24.013094
G1X52.961159Y-24.013081
G1X52.961163Y-24.013063
G1X52.984369Y-23.957041
G1X53.010747Y-23.893344
G1X53.010759Y-23.893328
G1X53.010763Y-23.893316
G1X53.037750Y-23.852928
G1X53.082753Y-23.785572
G1X53.082769Y-23.785556
G1X53.082775Y-23.785547
G1X53.112825Y-23.755500
G1X53.174400Y-23.693916
G1X53.174419Y-23.693903
G1X53.174425Y-23.693897
G1X53.203984Y-23.674147
G1X53.282166Y-23.621903
G1X53.282187Y-23.621897
G1X53.282197Y-23.621887
G1X53.285144Y-23.620669
G1X53.512669Y-23.393144
G1X53.635797Y-23.095878
G1X53.635797Y-22.774116
G1X53.512669Y-22.476850
G1X53.285159Y-22.249341
G1X53.282219Y-22.248125
G1X53.282203Y-22.248113
G1X53.282191Y-22.248109
G1X53.241803Y-22.221119
G1X53.174447Y-22.176119
G1X53.174431Y-22.176103
G1X53.174422Y-22.176097
G1X53.144375Y-22.146047
G1X53.082791Y-22.084472
G1X53.082778Y-22.084450
G1X53.082772Y-22.084447
G1X53.063022Y-22.054887
G1X53.010778Y-21.976706
G1X53.010772Y-21.976684
G1X53.010763Y-21.976675
G1X52.989803Y-21.926069
G1X52.961169Y-21.856959
G1X52.961166Y-21.856941
G1X52.961159Y-21.856928
G1X52.949672Y-21.799159
G1X52.935878Y-21.729838
G1X52.935878Y-21.729816
G1X52.935875Y-21.729803
G1X52.935875Y-21.665744
G1X52.935872Y-21.600219
G1X52.935875Y-21.600203
G1X52.935875Y-21.600188
G1X52.948234Y-21.538063
G1X52.961153Y-21.473094
G1X52.961159Y-21.473081
G1X52.961163Y-21.473063
G1X52.984369Y-21.417041
G1X53.010747Y-21.353344
G1X53.010759Y-21.353328
G1X53.010763Y-21.353316
G1X53.037753Y-21.312928
G1X53.082753Y-21.245572
G1X53.082769Y-21.245556
G1X53.082775Y-21.245547
G1X53.112825Y-21.215500
G1X53.174400Y-21.153916
G1X53.174422Y-21.153903
G1X53.174425Y-21.153897
G1X53.203984Y-21.134147
G1X53.282166Y-21.081903
G1X53.282187Y-21.081897
G1X53.282197Y-21.081888
G1X53.285144Y-21.080669
G1X53.512669Y-20.853144
G1X53.635797Y-20.555878
G1X53.635797Y-20.234116
G1X53.512669Y-19.936850
G1X53.285144Y-19.709325
G1X52.987878Y-19.586197
G1X51.306684Y-19.586197
G1X51.278538Y-19.591797
G1X47.298091Y-19.591797
G1X47.246813Y-19.581597
G1X47.170978Y-19.566516
G1X47.051231Y-19.516916
G1X47.051228Y-19.516913
G1X47.051219Y-19.516909
G1X46.977306Y-19.467522
G1X46.943459Y-19.444909
G1X46.943456Y-19.444906
G1X46.943447Y-19.444900
G1X46.858881Y-19.360331
G1X46.831859Y-19.333313
G1X46.793737Y-19.298072
G1X46.786094Y-19.287547
G1X46.776903Y-19.278359
G1X46.748066Y-19.235203
G1X46.717556Y-19.193206
G1X46.712116Y-19.181400
G1X46.704891Y-19.170591
G1X46.685028Y-19.122634
G1X46.663297Y-19.075497
G1X46.660263Y-19.062850
G1X46.655288Y-19.050844
G1X46.645159Y-18.999938
G1X46.633044Y-18.949462
G1X46.632534Y-18.936475
G1X46.629997Y-18.923722
G1X46.629997Y-18.871800
