(This G-Code generated with CNC-DRILL-GCODE.ulp program)
(running under Eagle CAD.)

N00010  M03 S3000
G00 Z2.00 F400
(----------------------------------------------------------)
( Drill size=0.800mm )
(----------------------------------------------------------)
N00020  G00 X52.173 Y-20.395
N00030  G1Z-1.70f50
N00040  G00 Z5.00 F400
N00050  G00 X52.173 Y-22.935
N00060  G1Z-1.70f50
N00070  G00 Z5.00 F400
N00080  G00 X52.173 Y-25.475
N00090  G1Z-1.70f50
N00100  G00 Z5.00 F400
N00110  G00 X75.033 Y-20.395
N00120  G1Z-1.70f50
N00130  G00 Z5.00 F400
N00140  G00 X75.033 Y-22.935
N00150  G1Z-1.70f50
N00160  G00 Z5.00 F400
N00170  G00 X75.033 Y-25.475
N00180  G1Z-1.70f50
N00190  G00 Z5.00 F400
N00200  G00 X52.173 Y-28.015
N00210  G1Z-1.70f50
N00220  G00 Z5.00 F400
N00230  G00 X52.173 Y-30.555
N00240  G1Z-1.70f50
N00250  G00 Z5.00 F400
N00260  G00 X52.173 Y-33.095
N00270  G1Z-1.70f50
N00280  G00 Z5.00 F400
N00290  G00 X52.173 Y-35.635
N00300  G1Z-1.70f50
N00310  G00 Z5.00 F400
N00320  G00 X52.173 Y-38.175
N00330  G1Z-1.70f50
N00340  G00 Z5.00 F400
N00350  G00 X52.173 Y-40.715
N00360  G1Z-1.70f50
N00370  G00 Z5.00 F400
N00380  G00 X52.173 Y-43.255
N00390  G1Z-1.70f50
N00400  G00 Z5.00 F400
N00410  G00 X52.173 Y-45.795
N00420  G1Z-1.70f50
N00430  G00 Z5.00 F400
N00440  G00 X75.033 Y-28.015
N00450  G1Z-1.70f50
N00460  G00 Z5.00 F400
N00470  G00 X75.033 Y-30.555
N00480  G1Z-1.70f50
N00490  G00 Z5.00 F400
N00500  G00 X75.033 Y-33.095
N00510  G1Z-1.70f50
N00520  G00 Z5.00 F400
N00530  G00 X75.033 Y-35.635
N00540  G1Z-1.70f50
N00550  G00 Z5.00 F400
N00560  G00 X75.033 Y-38.175
N00570  G1Z-1.70f50
N00580  G00 Z5.00 F400
N00590  G00 X75.033 Y-40.715
N00600  G1Z-1.70f50
N00610  G00 Z5.00 F400
N00620  G00 X75.033 Y-43.255
N00630  G1Z-1.70f50
N00640  G00 Z5.00 F400
N00650  G00 X75.033 Y-45.795
N00660  G1Z-1.70f50
N00670  G00 Z5.00 F400
N00680  G00 X52.173 Y-48.335
N00690  G1Z-1.70f50
N00700  G00 Z5.00 F400
N00710  G00 X75.033 Y-48.335
N00720  G1Z-1.70f50
N00730  G00 Z5.00 F400
N00740  G00 X52.173 Y-50.875
N00750  G1Z-1.70f50
N00760  G00 Z5.00 F400
N00770  G00 X75.033 Y-50.875
N00780  G1Z-1.70f50
N00790  G00 Z5.00 F400
N00800  G00 X52.173 Y-53.415
N00810  G1Z-1.70f50
N00820  G00 Z5.00 F400
N00830  G00 X75.033 Y-53.415
N00840  G1Z-1.70f50
N00850  G00 Z5.00 F400
N00860  G00 X52.173 Y-55.955
N00870  G1Z-1.70f50
N00880  G00 Z5.00 F400
N00890  G00 X75.033 Y-55.955
N00900  G1Z-1.70f50
N00910  G00 Z5.00 F400
N00920  G00 X52.173 Y-58.495
N00930  G1Z-1.70f50
N00940  G00 Z5.00 F400
N00950  G00 X75.033 Y-58.495
N00960  G1Z-1.70f50
N00970  G00 Z5.00 F400
N00980  G00 X52.173 Y-61.035
N00990  G1Z-1.70f50
N01000  G00 Z5.00 F400
N01010  G00 X75.033 Y-61.035
N01020  G1Z-1.70f50
N01030  G00 Z5.00 F400
N01040  G00 X52.173 Y-63.575
N01050  G1Z-1.70f50
N01060  G00 Z5.00 F400
N01070  G00 X75.033 Y-63.575
N01080  G1Z-1.70f50
N01090  G00 Z5.00 F400
N01100  G00 X52.173 Y-66.115
N01110  G1Z-1.70f50
N01120  G00 Z5.00 F400
N01130  G00 X75.033 Y-66.115
N01140  G1Z-1.70f50
N01150  G00 Z5.00 F400
N01160  G00 X52.173 Y-68.655
N01170  G1Z-1.70f50
N01180  G00 Z5.00 F400
N01190  G00 X75.033 Y-68.655
N01200  G1Z-1.70f50
N01210  G00 Z5.00 F400
(----------------------------------------------------------)
( Drill size=0.813mm )
(----------------------------------------------------------)
N01220  G00 X17.780 Y-60.960
N01230  G1Z-1.70f50
N01240  G00 Z5.00 F400
N01250  G00 X20.320 Y-60.960
N01260  G1Z-1.70f50
N01270  G00 Z5.00 F400
N01280  G00 X77.343 Y-35.433
N01290  G1Z-1.70f50
N01300  G00 Z5.00 F400
N01310  G00 X77.343 Y-37.973
N01320  G1Z-1.70f50
N01330  G00 Z5.00 F400
N01340  G00 X27.940 Y-74.930
N01350  G1Z-1.70f50
N01360  G00 Z5.00 F400
N01370  G00 X27.940 Y-77.470
N01380  G1Z-1.70f50
N01390  G00 Z5.00 F400
(----------------------------------------------------------)
( Drill size=0.914mm )
(----------------------------------------------------------)
N01400  G00 X5.080 Y-60.960
N01410  G1Z-1.70f50
N01420  G00 Z5.00 F400
N01430  G00 X7.620 Y-60.960
N01440  G1Z-1.70f50
N01450  G00 Z5.00 F400
(----------------------------------------------------------)
( Drill size=1.016mm )
(----------------------------------------------------------)
N01460  G00 X18.923 Y-22.773
N01470  G1Z-1.70f50
N01480  G00 Z5.00 F400
N01490  G00 X18.923 Y-25.273
N01500  G1Z-1.70f50
N01510  G00 Z5.00 F400
N01520  G00 X18.923 Y-27.773
N01530  G1Z-1.70f50
N01540  G00 Z5.00 F400
N01550  G00 X27.813 Y-20.233
N01560  G1Z-1.70f50
N01570  G00 Z5.00 F400
N01580  G00 X27.813 Y-22.733
N01590  G1Z-1.70f50
N01600  G00 Z5.00 F400
N01610  G00 X27.813 Y-25.233
N01620  G1Z-1.70f50
N01630  G00 Z5.00 F400
N01640  G00 X36.703 Y-17.693
N01650  G1Z-1.70f50
N01660  G00 Z5.00 F400
N01670  G00 X36.703 Y-20.193
N01680  G1Z-1.70f50
N01690  G00 Z5.00 F400
N01700  G00 X36.703 Y-22.693
N01710  G1Z-1.70f50
N01720  G00 Z5.00 F400
N01730  G00 X45.593 Y-15.153
N01740  G1Z-1.70f50
N01750  G00 Z5.00 F400
N01760  G00 X45.593 Y-17.653
N01770  G1Z-1.70f50
N01780  G00 Z5.00 F400
N01790  G00 X45.593 Y-20.153
N01800  G1Z-1.70f50
N01810  G00 Z5.00 F400
N01820  G00 X81.153 Y-20.233
N01830  G1Z-1.70f50
N01840  G00 Z5.00 F400
N01850  G00 X81.153 Y-22.733
N01860  G1Z-1.70f50
N01870  G00 Z5.00 F400
N01880  G00 X81.153 Y-25.233
N01890  G1Z-1.70f50
N01900  G00 Z5.00 F400
N01910  G00 X93.853 Y-27.853
N01920  G1Z-1.70f50
N01930  G00 Z5.00 F400
N01940  G00 X10.033 Y-30.413
N01950  G1Z-1.70f50
N01960  G00 Z5.00 F400
N01970  G00 X10.033 Y-32.913
N01980  G1Z-1.70f50
N01990  G00 Z5.00 F400
N02000  G00 X10.033 Y-35.413
N02010  G1Z-1.70f50
N02020  G00 Z5.00 F400
N02030  G00 X10.033 Y-37.913
N02040  G1Z-1.70f50
N02050  G00 Z5.00 F400
N02060  G00 X18.923 Y-35.533
N02070  G1Z-1.70f50
N02080  G00 Z5.00 F400
N02090  G00 X18.923 Y-38.033
N02100  G1Z-1.70f50
N02110  G00 Z5.00 F400
N02120  G00 X18.923 Y-40.533
N02130  G1Z-1.70f50
N02140  G00 Z5.00 F400
N02150  G00 X83.693 Y-40.573
N02160  G1Z-1.70f50
N02170  G00 Z5.00 F400
N02180  G00 X93.853 Y-30.353
N02190  G1Z-1.70f50
N02200  G00 Z5.00 F400
N02210  G00 X93.853 Y-32.853
N02220  G1Z-1.70f50
N02230  G00 Z5.00 F400
N02240  G00 X18.923 Y-43.033
N02250  G1Z-1.70f50
N02260  G00 Z5.00 F400
N02270  G00 X83.693 Y-43.073
N02280  G1Z-1.70f50
N02290  G00 Z5.00 F400
N02300  G00 X93.853 Y-43.093
N02310  G1Z-1.70f50
N02320  G00 Z5.00 F400
N02330  G00 X18.923 Y-45.533
N02340  G1Z-1.70f50
N02350  G00 Z5.00 F400
N02360  G00 X83.693 Y-45.573
N02370  G1Z-1.70f50
N02380  G00 Z5.00 F400
N02390  G00 X93.853 Y-45.593
N02400  G1Z-1.70f50
N02410  G00 Z5.00 F400
N02420  G00 X27.813 Y-45.633
N02430  G1Z-1.70f50
N02440  G00 Z5.00 F400
N02450  G00 X18.923 Y-48.033
N02460  G1Z-1.70f50
N02470  G00 Z5.00 F400
N02480  G00 X83.693 Y-48.073
N02490  G1Z-1.70f50
N02500  G00 Z5.00 F400
N02510  G00 X93.853 Y-48.093
N02520  G1Z-1.70f50
N02530  G00 Z5.00 F400
N02540  G00 X27.813 Y-48.133
N02550  G1Z-1.70f50
N02560  G00 Z5.00 F400
N02570  G00 X27.813 Y-50.633
N02580  G1Z-1.70f50
N02590  G00 Z5.00 F400
N02600  G00 X36.703 Y-50.713
N02610  G1Z-1.70f50
N02620  G00 Z5.00 F400
N02630  G00 X36.703 Y-53.213
N02640  G1Z-1.70f50
N02650  G00 Z5.00 F400
N02660  G00 X36.703 Y-55.713
N02670  G1Z-1.70f50
N02680  G00 Z5.00 F400
N02690  G00 X45.593 Y-55.793
N02700  G1Z-1.70f50
N02710  G00 Z5.00 F400
N02720  G00 X45.593 Y-58.293
N02730  G1Z-1.70f50
N02740  G00 Z5.00 F400
N02750  G00 X45.593 Y-60.793
N02760  G1Z-1.70f50
N02770  G00 Z5.00 F400
N02780  G00 X30.714 Y-64.770
N02790  G1Z-1.70f50
N02800  G00 Z5.00 F400
N02810  G00 X28.214 Y-64.770
N02820  G1Z-1.70f50
N02830  G00 Z5.00 F400
N02840  G00 X17.780 Y-70.231
N02850  G1Z-1.70f50
N02860  G00 Z5.00 F400
N02870  G00 X15.240 Y-70.231
N02880  G1Z-1.70f50
N02890  G00 Z5.00 F400
N02900  G00 X20.320 Y-70.231
N02910  G1Z-1.70f50
N02920  G00 Z5.00 F400
(----------------------------------------------------------)
( Drill size=2.200mm )
(----------------------------------------------------------)
N02930  G00 X5.000 Y-5.000
N02940  G1Z-1.70f50
N02950  G00 Z5.00 F400
N02960  G00 X95.000 Y-5.000
N02970  G1Z-1.70f50
N02980  G00 Z5.00 F400
N02990  G00 X5.000 Y-75.000
N03000  G1Z-1.70f50
N03010  G00 Z5.00 F400
N03020  G00 X95.000 Y-75.000
N03030  G1Z-1.70f50
N03040  G00 Z5.00 F400

(----------------------------------------------------------)
N03050  G00 Z2.00 F400
N03060  G00 X0 Y0 F400
N03070  M05 
