(This GCode generated with outlines_gcode_excel_mirrored.ulp program)
(running under Eagle CAD.)
(Use with mechanical etching/engraving bits, such as the)
(Think&Tinker Mechanical Etching Bit with 60-degree tip angle)
(X/Y/Z home should be at lower left corner of the board, with the tip just touching)
(C:/Users/umaibow/Documents/eagle/robot_2014/motordriver_bot.nc layer 16)

(mm, Absolute mode, lift cutter above work, rapid to X/Y home, turn spindle on.)
G90
G0Z5.000
G0X0Y0
M03

(Begin)
G0Z2
G0X3.231934Y-55.833997
G1Z-0.100 f25
G1X2.768059Y-55.833997 f200
G1X2.339509Y-56.011509
G1X2.011509Y-56.339509
G1X1.833997Y-56.768059
G1X1.833997Y-57.231934
G1X2.011509Y-57.660484
G1X2.339509Y-57.988484
G1X2.768059Y-58.165997
G1X3.231934Y-58.165997
G1X3.660481Y-57.988484
G1X3.988484Y-57.660481
G1X4.165997Y-57.231934
G1X4.165997Y-56.768059
G1X3.988484Y-56.339509
G1X3.660484Y-56.011509
G1X3.231934Y-55.833997

G0Z2
G0X77.231934Y-55.833997
G1Z-0.100 f25
G1X76.768059Y-55.833997 f200
G1X76.339512Y-56.011509
G1X76.011509Y-56.339513
G1X75.833997Y-56.768059
G1X75.833997Y-57.231934
G1X76.011509Y-57.660481
G1X76.339512Y-57.988484
G1X76.768059Y-58.165997
G1X77.231934Y-58.165997
G1X77.660481Y-57.988484
G1X77.988484Y-57.660481
G1X78.165997Y-57.231934
G1X78.165997Y-56.768062
G1X77.988484Y-56.339513
G1X77.660481Y-56.011509
G1X77.231934Y-55.833997

G0Z2
G0X75.833997Y-2.768059
G1Z-0.100 f25
G1X75.833997Y-3.231934 f200
G1X76.011509Y-3.660484
G1X76.339509Y-3.988484
G1X76.768059Y-4.165997
G1X77.231934Y-4.165997
G1X77.660484Y-3.988484
G1X77.988484Y-3.660484
G1X78.165997Y-3.231934
G1X78.165997Y-2.768059
G1X77.988484Y-2.339509
G1X77.660481Y-2.011509
G1X77.231934Y-1.833997
G1X76.768059Y-1.833997
G1X76.339509Y-2.011509
G1X76.011509Y-2.339509
G1X75.833997Y-2.768059

G0Z2
G0X7.384834Y-34.232494
G1Z-0.100 f25
G1X7.238519Y-34.293100 f200
G1X7.083188Y-34.323997
G1X5.616809Y-34.323997
G1X5.461478Y-34.293100
G1X5.315163Y-34.232494
G1X5.276363Y-34.206566
G1X5.282338Y-34.228866
G1X5.291275Y-34.250438
G1X5.294319Y-34.273575
G1X5.300366Y-34.296131
G1X5.300366Y-34.319497
G1X5.303413Y-34.342644
G1X5.300366Y-34.365788
G1X5.300366Y-34.389134
G1X5.294322Y-34.411681
G1X5.291275Y-34.434847
G1X5.282334Y-34.456425
G1X5.276297Y-34.478966
G1X5.264622Y-34.499181
G1X5.255684Y-34.520766
G1X5.241469Y-34.539291
G1X5.229800Y-34.559503
G1X5.213291Y-34.576009
G1X5.199072Y-34.594544
G1X5.180544Y-34.608759
G1X5.164041Y-34.625266
G1X5.143822Y-34.636938
G1X5.125291Y-34.651159
G1X5.103713Y-34.660094
G1X5.083503Y-34.671766
G1X5.060950Y-34.677809
G1X4.834984Y-34.771403
G1X4.407403Y-35.198988
G1X4.175997Y-35.757644
G1X4.175997Y-36.362350
G1X4.407403Y-36.921013
G1X4.533756Y-37.047362
G1X4.533766Y-37.047366
G1X4.599525Y-37.113125
G1X4.646025Y-37.193666
G1X4.663369Y-37.258400
G1X4.670094Y-37.283491
G1X4.670094Y-37.376497
G1X4.646025Y-37.466325
G1X4.599525Y-37.546866
G1X4.407403Y-37.738988
G1X4.175997Y-38.297644
G1X4.175997Y-38.902350
G1X4.407403Y-39.461009
G1X4.834984Y-39.888591
G1X5.060950Y-39.982188
G1X5.083503Y-39.988228
G1X5.103713Y-39.999900
G1X5.125291Y-40.008834
G1X5.143822Y-40.023056
G1X5.164041Y-40.034728
G1X5.180544Y-40.051234
G1X5.199072Y-40.065450
G1X5.213291Y-40.083984
G1X5.229800Y-40.100491
G1X5.241466Y-40.120703
G1X5.255684Y-40.139228
G1X5.264622Y-40.160812
G1X5.276297Y-40.181028
G1X5.282334Y-40.203569
G1X5.291275Y-40.225147
G1X5.294322Y-40.248313
G1X5.300366Y-40.270859
G1X5.300366Y-40.294206
G1X5.303413Y-40.317353
G1X5.300366Y-40.340497
G1X5.300366Y-40.363863
G1X5.294319Y-40.386419
G1X5.291275Y-40.409556
G1X5.282338Y-40.431128
G1X5.276363Y-40.453431
G1X5.315163Y-40.427503
G1X5.461478Y-40.366897
G1X5.616809Y-40.336000
G1X7.083188Y-40.336000
G1X7.238519Y-40.366897
G1X7.384834Y-40.427503
G1X7.423631Y-40.453428
G1X7.417656Y-40.431128
G1X7.408719Y-40.409556
G1X7.405675Y-40.386419
G1X7.399628Y-40.363863
G1X7.399628Y-40.340497
G1X7.396581Y-40.317353
G1X7.399628Y-40.294206
G1X7.399628Y-40.270859
G1X7.405669Y-40.248313
G1X7.408719Y-40.225147
G1X7.417659Y-40.203569
G1X7.423697Y-40.181028
G1X7.435369Y-40.160812
G1X7.444309Y-40.139228
G1X7.458525Y-40.120703
G1X7.470194Y-40.100491
G1X7.486703Y-40.083981
G1X7.500922Y-40.065450
G1X7.519447Y-40.051234
G1X7.535953Y-40.034728
G1X7.556172Y-40.023056
G1X7.574703Y-40.008834
G1X7.596281Y-39.999897
G1X7.616491Y-39.988228
G1X7.639044Y-39.982184
G1X7.865009Y-39.888591
G1X7.910631Y-39.842966
G1X7.991172Y-39.796466
G1X8.081000Y-39.772397
G1X8.373153Y-39.772397
G1X8.462981Y-39.796466
G1X8.543522Y-39.842966
G1X8.609281Y-39.908725
G1X10.107028Y-41.406472
G1X10.153528Y-41.487012
G1X10.177597Y-41.576841
G1X10.177597Y-44.748269
G1X10.168056Y-44.783859
G1X10.153528Y-44.838088
G1X10.107028Y-44.918628
G1X10.069841Y-44.955813
G1X9.821997Y-45.554163
G1X9.821997Y-47.725831
G1X10.069844Y-48.324188
G1X10.527806Y-48.782150
G1X11.126163Y-49.029997
G1X11.773831Y-49.029997
G1X12.372184Y-48.782150
G1X12.417366Y-48.736969
G1X12.417366Y-48.736966
G1X12.480109Y-48.674225
G1X12.483122Y-48.671209
G1X12.483125Y-48.671206
G1X12.540306Y-48.638194
G1X12.563659Y-48.624709
G1X12.563663Y-48.624709
G1X12.563666Y-48.624706
G1X12.619212Y-48.609825
G1X12.653491Y-48.600638
G1X12.746497Y-48.600638
G1X12.836325Y-48.624706
G1X12.881797Y-48.650959
G1X12.916863Y-48.671203
G1X12.982622Y-48.736963
G1X13.027806Y-48.782150
G1X13.626163Y-49.029997
G1X14.273831Y-49.029997
G1X14.872188Y-48.782150
G1X15.330150Y-48.324188
G1X15.577997Y-47.725831
G1X15.577997Y-45.554163
G1X15.330150Y-44.955806
G1X15.292966Y-44.918625
G1X15.246466Y-44.838084
G1X15.222397Y-44.748256
G1X15.222397Y-42.796512
G1X15.219350Y-42.773369
G1X15.222397Y-42.750222
G1X15.222397Y-42.726866
G1X15.228441Y-42.704313
G1X15.231488Y-42.681162
G1X15.240422Y-42.659597
G1X15.246466Y-42.637038
G1X15.258147Y-42.616806
G1X15.267078Y-42.595244
G1X15.281288Y-42.576731
G1X15.292966Y-42.556497
G1X15.309481Y-42.539984
G1X15.323691Y-42.521463
G1X15.342213Y-42.507253
G1X15.358725Y-42.490738
G1X15.378959Y-42.479059
G1X15.397472Y-42.464850
G1X15.419034Y-42.455922
G1X15.439266Y-42.444237
G1X15.461831Y-42.438194
G1X15.485006Y-42.428594
G1X15.912591Y-42.001009
G1X15.921891Y-41.978556
G1X15.927934Y-41.955994
G1X15.939613Y-41.935772
G1X15.948544Y-41.914203
G1X15.962756Y-41.895681
G1X15.974434Y-41.875453
G1X15.990947Y-41.858944
G1X16.005156Y-41.840422
G1X16.023681Y-41.826209
G1X16.040194Y-41.809694
G1X16.060419Y-41.798019
G1X16.078938Y-41.783806
G1X16.100513Y-41.774872
G1X16.120734Y-41.763194
G1X16.143284Y-41.757153
G1X16.164856Y-41.748216
G1X16.188012Y-41.745169
G1X16.210563Y-41.739125
G1X16.233916Y-41.739125
G1X16.257062Y-41.736078
G1X16.280206Y-41.739125
G1X16.303566Y-41.739125
G1X16.326122Y-41.745172
G1X16.349266Y-41.748216
G1X16.370831Y-41.757150
G1X16.393394Y-41.763194
G1X16.413619Y-41.774872
G1X16.435184Y-41.783803
G1X16.453706Y-41.798016
G1X16.473934Y-41.809694
G1X16.490444Y-41.826206
G1X16.508966Y-41.840416
G1X16.523178Y-41.858941
G1X16.759291Y-42.095053
G1X17.189606Y-42.273297
G1X17.374156Y-42.273297
G1X17.463984Y-42.297366
G1X17.544525Y-42.343866
G1X17.610284Y-42.409625
G1X17.610284Y-42.409628
G1X17.683306Y-42.482650
G1X18.281659Y-42.730497
G1X20.453331Y-42.730497
G1X21.051687Y-42.482650
G1X21.509650Y-42.024687
G1X21.757497Y-41.426331
G1X21.757497Y-40.778663
G1X21.509650Y-40.180309
G1X21.464469Y-40.135128
G1X21.464466Y-40.135128
G1X21.401725Y-40.072384
G1X21.398709Y-40.069372
G1X21.398706Y-40.069369
G1X21.365694Y-40.012188
G1X21.352209Y-39.988834
G1X21.352209Y-39.988831
G1X21.352206Y-39.988828
G1X21.337325Y-39.933281
G1X21.328138Y-39.899003
G1X21.328138Y-39.805997
G1X21.352206Y-39.716169
G1X21.378459Y-39.670697
G1X21.398703Y-39.635631
G1X21.464462Y-39.569872
G1X21.509650Y-39.524687
G1X21.757497Y-38.926331
G1X21.757497Y-38.278663
G1X21.509650Y-37.680309
G1X21.464469Y-37.635128
G1X21.464466Y-37.635128
G1X21.401725Y-37.572384
G1X21.398709Y-37.569372
G1X21.398706Y-37.569369
G1X21.365694Y-37.512188
G1X21.352209Y-37.488834
G1X21.352209Y-37.488831
G1X21.352206Y-37.488828
G1X21.337325Y-37.433281
G1X21.328138Y-37.399003
G1X21.328138Y-37.305997
G1X21.352206Y-37.216169
G1X21.378459Y-37.170697
G1X21.398703Y-37.135631
G1X21.464462Y-37.069872
G1X21.509650Y-37.024687
G1X21.757497Y-36.426331
G1X21.757497Y-35.778663
G1X21.509650Y-35.180306
G1X21.051687Y-34.722344
G1X20.453331Y-34.474497
G1X18.281662Y-34.474497
G1X17.683306Y-34.722344
G1X17.646125Y-34.759528
G1X17.565584Y-34.806028
G1X17.475756Y-34.830097
G1X15.736444Y-34.830097
G1X15.736388Y-34.830112
G1X15.689988Y-34.830097
G1X15.643497Y-34.830097
G1X15.643441Y-34.830081
G1X15.643384Y-34.830081
G1X15.599731Y-34.818369
G1X15.553669Y-34.806028
G1X15.553622Y-34.806000
G1X15.553562Y-34.805984
G1X15.515759Y-34.784141
G1X15.259044Y-34.677809
G1X15.236491Y-34.671766
G1X15.216281Y-34.660097
G1X15.194703Y-34.651159
G1X15.176172Y-34.636938
G1X15.155953Y-34.625266
G1X15.139450Y-34.608759
G1X15.120922Y-34.594544
G1X15.106703Y-34.576009
G1X15.090194Y-34.559503
G1X15.078525Y-34.539291
G1X15.064309Y-34.520766
G1X15.055369Y-34.499181
G1X15.043697Y-34.478966
G1X15.037659Y-34.456425
G1X15.028719Y-34.434847
G1X15.025672Y-34.411681
G1X15.019628Y-34.389134
G1X15.019628Y-34.365788
G1X15.016581Y-34.342644
G1X15.019628Y-34.319497
G1X15.019628Y-34.296131
G1X15.025675Y-34.273575
G1X15.028719Y-34.250438
G1X15.037656Y-34.228866
G1X15.043631Y-34.206569
G1X15.004834Y-34.232494
G1X14.858519Y-34.293100
G1X14.703188Y-34.323997
G1X13.236809Y-34.323997
G1X13.081478Y-34.293100
G1X12.935163Y-34.232494
G1X12.896363Y-34.206569
G1X12.902341Y-34.228866
G1X12.911275Y-34.250438
G1X12.914319Y-34.273575
G1X12.920366Y-34.296131
G1X12.920366Y-34.319497
G1X12.923413Y-34.342644
G1X12.920366Y-34.365788
G1X12.920366Y-34.389134
G1X12.914325Y-34.411681
G1X12.911275Y-34.434847
G1X12.902334Y-34.456425
G1X12.896297Y-34.478966
G1X12.884625Y-34.499181
G1X12.875684Y-34.520766
G1X12.861469Y-34.539291
G1X12.849800Y-34.559503
G1X12.833291Y-34.576013
G1X12.819072Y-34.594544
G1X12.800547Y-34.608759
G1X12.784041Y-34.625266
G1X12.763822Y-34.636938
G1X12.745291Y-34.651159
G1X12.723713Y-34.660097
G1X12.703503Y-34.671766
G1X12.680950Y-34.677809
G1X12.454984Y-34.771403
G1X12.027403Y-35.198988
G1X11.795997Y-35.757644
G1X11.795997Y-36.360522
G1X11.797378Y-36.365672
G1X11.806309Y-36.387234
G1X11.809356Y-36.410384
G1X11.815403Y-36.432947
G1X11.815403Y-36.456300
G1X11.818450Y-36.479438
G1X11.815403Y-36.502591
G1X11.815403Y-36.525950
G1X11.809363Y-36.548494
G1X11.806316Y-36.571644
G1X11.797378Y-36.593219
G1X11.791334Y-36.615778
G1X11.779659Y-36.636000
G1X11.770728Y-36.657563
G1X11.756516Y-36.676084
G1X11.744834Y-36.696319
G1X11.728322Y-36.712828
G1X11.714116Y-36.731347
G1X11.695591Y-36.745562
G1X11.679075Y-36.762078
G1X11.658856Y-36.773750
G1X11.640338Y-36.787962
G1X11.618759Y-36.796900
G1X11.598534Y-36.808578
G1X11.575981Y-36.814619
G1X11.554419Y-36.823553
G1X11.531269Y-36.826600
G1X11.508706Y-36.832647
G1X11.485353Y-36.832647
G1X11.462216Y-36.835694
G1X11.439063Y-36.832647
G1X11.415703Y-36.832647
G1X11.393159Y-36.826606
G1X11.370009Y-36.823559
G1X11.348434Y-36.814622
G1X11.325875Y-36.808578
G1X11.305653Y-36.796903
G1X11.284091Y-36.787972
G1X11.265569Y-36.773759
G1X11.245334Y-36.762078
G1X11.228825Y-36.745566
G1X11.210306Y-36.731359
G1X11.196091Y-36.712831
G1X9.899350Y-35.416091
G1X9.553200Y-35.069941
G1X9.122888Y-34.891697
G1X8.085091Y-34.891697
G1X8.020731Y-34.874450
G1X7.995269Y-34.867628
G1X7.995269Y-34.867625
G1X7.995259Y-34.867625
G1X7.958531Y-34.846416
G1X7.914728Y-34.821128
G1X7.865003Y-34.771400
G1X7.639044Y-34.677809
G1X7.616491Y-34.671766
G1X7.596281Y-34.660097
G1X7.574703Y-34.651159
G1X7.556172Y-34.636938
G1X7.535953Y-34.625266
G1X7.519450Y-34.608759
G1X7.500922Y-34.594544
G1X7.486703Y-34.576009
G1X7.470194Y-34.559503
G1X7.458525Y-34.539291
G1X7.444309Y-34.520766
G1X7.435369Y-34.499181
G1X7.423697Y-34.478966
G1X7.417659Y-34.456425
G1X7.408719Y-34.434847
G1X7.405669Y-34.411681
G1X7.399628Y-34.389134
G1X7.399628Y-34.365788
G1X7.396581Y-34.342644
G1X7.399628Y-34.319497
G1X7.399628Y-34.296131
G1X7.405675Y-34.273575
G1X7.408719Y-34.250438
G1X7.417656Y-34.228866
G1X7.423631Y-34.206569
G1X7.384834Y-34.232494

G0Z2
G0X5.616809Y-35.256000
G1Z-0.100 f25
G1X7.083188Y-35.256000 f200
G1X7.238519Y-35.286897
G1X7.384834Y-35.347503
G1X7.516519Y-35.435491
G1X7.628506Y-35.547478
G1X7.668744Y-35.607700
G1X8.949875Y-35.607700
G1X9.065544Y-35.638694
G1X9.169253Y-35.698569
G1X9.253928Y-35.783244
G1X12.888384Y-39.417700
G1X16.252375Y-39.417700
G1X16.368044Y-39.448694
G1X16.471753Y-39.508569
G1X16.556428Y-39.593244
G1X17.610884Y-40.647700
G1X17.812534Y-40.647700
G1X17.897103Y-40.521131
G1X18.024131Y-40.394103
G1X18.173503Y-40.294297
G1X18.339478Y-40.225547
G1X18.515672Y-40.190500
G1X20.219325Y-40.190500
G1X20.395519Y-40.225547
G1X20.561494Y-40.294297
G1X20.710866Y-40.394103
G1X20.837894Y-40.521131
G1X20.937700Y-40.670503
G1X21.006450Y-40.836478
G1X21.041497Y-41.012672
G1X21.041497Y-41.192325
G1X21.006450Y-41.368519
G1X20.937700Y-41.534494
G1X20.837894Y-41.683866
G1X20.710866Y-41.810894
G1X20.561494Y-41.910700
G1X20.395519Y-41.979450
G1X20.219325Y-42.014497
G1X18.515672Y-42.014497
G1X18.339478Y-41.979450
G1X18.173503Y-41.910700
G1X18.024131Y-41.810894
G1X17.897103Y-41.683866
G1X17.812534Y-41.557297
G1X17.362622Y-41.557297
G1X17.246953Y-41.526303
G1X17.143244Y-41.466428
G1X16.004113Y-40.327297
G1X12.640122Y-40.327297
G1X12.524453Y-40.296303
G1X12.420744Y-40.236428
G1X8.701613Y-36.517297
G1X7.665403Y-36.517297
G1X7.628506Y-36.572519
G1X7.516519Y-36.684506
G1X7.384834Y-36.772494
G1X7.238519Y-36.833100
G1X7.083188Y-36.863997
G1X5.616809Y-36.863997
G1X5.461478Y-36.833100
G1X5.315163Y-36.772494
G1X5.183478Y-36.684506
G1X5.071491Y-36.572519
G1X4.983503Y-36.440834
G1X4.922897Y-36.294519
G1X4.892000Y-36.139187
G1X4.892000Y-35.980809
G1X4.922897Y-35.825478
G1X4.983503Y-35.679163
G1X5.071491Y-35.547478
G1X5.183478Y-35.435491
G1X5.315163Y-35.347503
G1X5.461478Y-35.286897
G1X5.616809Y-35.256000

G0Z2
G0X5.616809Y-37.796000
G1Z-0.100 f25
G1X7.083188Y-37.796000 f200
G1X7.238519Y-37.826897
G1X7.384834Y-37.887503
G1X7.468788Y-37.943600
G1X9.073250Y-37.943600
G1X9.214763Y-37.981519
G1X9.341634Y-38.054769
G1X9.445228Y-38.158363
G1X11.895228Y-40.608363
G1X11.968478Y-40.735234
G1X12.006397Y-40.876747
G1X12.006397Y-45.152922
G1X12.031366Y-45.169603
G1X12.158394Y-45.296631
G1X12.258200Y-45.446003
G1X12.326950Y-45.611978
G1X12.361997Y-45.788172
G1X12.361997Y-47.491825
G1X12.326950Y-47.668019
G1X12.258200Y-47.833994
G1X12.158394Y-47.983366
G1X12.031366Y-48.110394
G1X11.881994Y-48.210200
G1X11.716019Y-48.278950
G1X11.539825Y-48.313997
G1X11.360172Y-48.313997
G1X11.183978Y-48.278950
G1X11.018003Y-48.210200
G1X10.868631Y-48.110394
G1X10.741603Y-47.983366
G1X10.641797Y-47.833994
G1X10.573047Y-47.668019
G1X10.538000Y-47.491825
G1X10.538000Y-45.788172
G1X10.573047Y-45.611978
G1X10.641797Y-45.446003
G1X10.741603Y-45.296631
G1X10.868631Y-45.169603
G1X10.893600Y-45.152922
G1X10.893600Y-41.180466
G1X8.769531Y-39.056397
G1X7.666003Y-39.056397
G1X7.628506Y-39.112519
G1X7.516519Y-39.224506
G1X7.384834Y-39.312494
G1X7.238519Y-39.373100
G1X7.083188Y-39.403997
G1X5.616809Y-39.403997
G1X5.461478Y-39.373100
G1X5.315163Y-39.312494
G1X5.183478Y-39.224506
G1X5.071491Y-39.112519
G1X4.983503Y-38.980834
G1X4.922897Y-38.834519
G1X4.892000Y-38.679188
G1X4.892000Y-38.520809
G1X4.922897Y-38.365478
G1X4.983503Y-38.219163
G1X5.071491Y-38.087478
G1X5.183478Y-37.975491
G1X5.315163Y-37.887503
G1X5.461478Y-37.826897
G1X5.616809Y-37.796000

G0Z2
G0X13.236809Y-37.796000
G1Z-0.100 f25
G1X14.703188Y-37.796000 f200
G1X14.858519Y-37.826897
G1X15.004834Y-37.887503
G1X15.136519Y-37.975491
G1X15.207128Y-38.046100
G1X17.880422Y-38.046100
G1X17.897103Y-38.021131
G1X18.024131Y-37.894103
G1X18.173503Y-37.794297
G1X18.339478Y-37.725547
G1X18.515672Y-37.690500
G1X20.219325Y-37.690500
G1X20.395519Y-37.725547
G1X20.561494Y-37.794297
G1X20.710866Y-37.894103
G1X20.837894Y-38.021131
G1X20.937700Y-38.170503
G1X21.006450Y-38.336478
G1X21.041497Y-38.512672
G1X21.041497Y-38.692325
G1X21.006450Y-38.868519
G1X20.937700Y-39.034494
G1X20.837894Y-39.183866
G1X20.710866Y-39.310894
G1X20.561494Y-39.410700
G1X20.395519Y-39.479450
G1X20.219325Y-39.514497
G1X18.515672Y-39.514497
G1X18.339478Y-39.479450
G1X18.173503Y-39.410700
G1X18.024131Y-39.310894
G1X17.897103Y-39.183866
G1X17.880422Y-39.158897
G1X15.202128Y-39.158897
G1X15.136519Y-39.224506
G1X15.004834Y-39.312494
G1X14.858519Y-39.373100
G1X14.703188Y-39.403997
G1X13.236809Y-39.403997
G1X13.081478Y-39.373100
G1X12.935163Y-39.312494
G1X12.803478Y-39.224506
G1X12.691491Y-39.112519
G1X12.603503Y-38.980834
G1X12.542897Y-38.834519
G1X12.512000Y-38.679188
G1X12.512000Y-38.520809
G1X12.542897Y-38.365478
G1X12.603503Y-38.219163
G1X12.691491Y-38.087478
G1X12.803478Y-37.975491
G1X12.935163Y-37.887503
G1X13.081478Y-37.826897
G1X13.236809Y-37.796000

G0Z2
G0X13.038000Y-47.491825
G1Z-0.100 f25
G1X13.038000Y-45.788172 f200
G1X13.073047Y-45.611978
G1X13.141797Y-45.446003
G1X13.241603Y-45.296631
G1X13.368631Y-45.169603
G1X13.393600Y-45.152922
G1X13.393600Y-41.943997
G1X13.236809Y-41.943997
G1X13.081478Y-41.913100
G1X12.935163Y-41.852494
G1X12.803478Y-41.764506
G1X12.691491Y-41.652519
G1X12.603503Y-41.520834
G1X12.542897Y-41.374519
G1X12.512000Y-41.219188
G1X12.512000Y-41.060809
G1X12.542897Y-40.905478
G1X12.603503Y-40.759163
G1X12.691491Y-40.627478
G1X12.803478Y-40.515491
G1X12.935163Y-40.427503
G1X13.081478Y-40.366897
G1X13.236809Y-40.336000
G1X14.703188Y-40.336000
G1X14.858519Y-40.366897
G1X15.004834Y-40.427503
G1X15.136519Y-40.515491
G1X15.248506Y-40.627478
G1X15.336494Y-40.759163
G1X15.397100Y-40.905478
G1X15.427997Y-41.060809
G1X15.427997Y-41.219188
G1X15.397100Y-41.374519
G1X15.336494Y-41.520834
G1X15.248506Y-41.652519
G1X15.136519Y-41.764506
G1X15.004834Y-41.852494
G1X14.858519Y-41.913100
G1X14.703188Y-41.943997
G1X14.506397Y-41.943997
G1X14.506397Y-45.152922
G1X14.531366Y-45.169603
G1X14.658394Y-45.296631
G1X14.758200Y-45.446003
G1X14.826950Y-45.611978
G1X14.861997Y-45.788172
G1X14.861997Y-47.491825
G1X14.826950Y-47.668019
G1X14.758200Y-47.833994
G1X14.658394Y-47.983366
G1X14.531366Y-48.110394
G1X14.381994Y-48.210200
G1X14.216019Y-48.278950
G1X14.039825Y-48.313997
G1X13.860172Y-48.313997
G1X13.683978Y-48.278950
G1X13.518003Y-48.210200
G1X13.368631Y-48.110394
G1X13.241603Y-47.983366
G1X13.141797Y-47.833994
G1X13.073047Y-47.668019
G1X13.038000Y-47.491825

G0Z2
G0X20.219325Y-37.014497
G1Z-0.100 f25
G1X18.515672Y-37.014497 f200
G1X18.339478Y-36.979450
G1X18.173503Y-36.910700
G1X18.024131Y-36.810894
G1X17.897103Y-36.683866
G1X17.880422Y-36.658897
G1X15.162125Y-36.658897
G1X15.136519Y-36.684506
G1X15.004834Y-36.772494
G1X14.858519Y-36.833100
G1X14.703188Y-36.863997
G1X13.236809Y-36.863997
G1X13.081478Y-36.833100
G1X12.935163Y-36.772494
G1X12.803478Y-36.684506
G1X12.691491Y-36.572519
G1X12.603503Y-36.440834
G1X12.542897Y-36.294519
G1X12.512000Y-36.139187
G1X12.512000Y-35.980809
G1X12.542897Y-35.825478
G1X12.603503Y-35.679163
G1X12.691491Y-35.547478
G1X12.803478Y-35.435491
G1X12.935163Y-35.347503
G1X13.081478Y-35.286897
G1X13.236809Y-35.256000
G1X14.703188Y-35.256000
G1X14.858519Y-35.286897
G1X15.004834Y-35.347503
G1X15.136519Y-35.435491
G1X15.247125Y-35.546100
G1X17.880422Y-35.546100
G1X17.897103Y-35.521131
G1X18.024131Y-35.394103
G1X18.173503Y-35.294297
G1X18.339478Y-35.225547
G1X18.515672Y-35.190500
G1X20.219325Y-35.190500
G1X20.395519Y-35.225547
G1X20.561494Y-35.294297
G1X20.710866Y-35.394103
G1X20.837894Y-35.521131
G1X20.937700Y-35.670503
G1X21.006450Y-35.836478
G1X21.041497Y-36.012672
G1X21.041497Y-36.192325
G1X21.006450Y-36.368519
G1X20.937700Y-36.534494
G1X20.837894Y-36.683866
G1X20.710866Y-36.810894
G1X20.561494Y-36.910700
G1X20.395519Y-36.979450
G1X20.219325Y-37.014497

G0Z2
G0X32.040631Y-39.842966
G1Z-0.100 f25
G1X32.121172Y-39.796466 f200
G1X32.211000Y-39.772397
G1X32.373150Y-39.772397
G1X32.462978Y-39.796466
G1X32.543519Y-39.842966
G1X32.609278Y-39.908725
G1X34.237028Y-41.536475
G1X34.283528Y-41.617016
G1X34.307597Y-41.706844
G1X34.307597Y-44.748256
G1X34.283528Y-44.838084
G1X34.237028Y-44.918625
G1X34.199844Y-44.955806
G1X33.951997Y-45.554163
G1X33.951997Y-47.725831
G1X34.199844Y-48.324188
G1X34.657806Y-48.782150
G1X35.256163Y-49.029997
G1X35.903831Y-49.029997
G1X36.502184Y-48.782150
G1X36.547366Y-48.736969
G1X36.547366Y-48.736966
G1X36.610109Y-48.674225
G1X36.613122Y-48.671209
G1X36.613125Y-48.671206
G1X36.670306Y-48.638194
G1X36.693659Y-48.624709
G1X36.693663Y-48.624709
G1X36.693666Y-48.624706
G1X36.749212Y-48.609825
G1X36.783491Y-48.600638
G1X36.876497Y-48.600638
G1X36.966325Y-48.624706
G1X37.011797Y-48.650959
G1X37.046863Y-48.671203
G1X37.112622Y-48.736963
G1X37.157806Y-48.782150
G1X37.756163Y-49.029997
G1X38.403831Y-49.029997
G1X39.002188Y-48.782150
G1X39.460150Y-48.324188
G1X39.707997Y-47.725831
G1X39.707997Y-45.554163
G1X39.460150Y-44.955806
G1X39.422966Y-44.918625
G1X39.376466Y-44.838084
G1X39.352397Y-44.748256
G1X39.352397Y-42.796512
G1X39.349350Y-42.773369
G1X39.352397Y-42.750222
G1X39.352397Y-42.726866
G1X39.358441Y-42.704313
G1X39.361488Y-42.681162
G1X39.370422Y-42.659597
G1X39.376466Y-42.637038
G1X39.388147Y-42.616806
G1X39.397078Y-42.595244
G1X39.411288Y-42.576731
G1X39.422966Y-42.556497
G1X39.439481Y-42.539984
G1X39.453691Y-42.521463
G1X39.472213Y-42.507253
G1X39.488725Y-42.490738
G1X39.508959Y-42.479059
G1X39.527472Y-42.464850
G1X39.549034Y-42.455922
G1X39.569266Y-42.444237
G1X39.591831Y-42.438194
G1X39.615006Y-42.428594
G1X40.042591Y-42.001009
G1X40.051891Y-41.978556
G1X40.057934Y-41.955994
G1X40.069613Y-41.935769
G1X40.078544Y-41.914203
G1X40.092756Y-41.895681
G1X40.104434Y-41.875453
G1X40.120947Y-41.858944
G1X40.135156Y-41.840422
G1X40.153681Y-41.826209
G1X40.170194Y-41.809694
G1X40.190419Y-41.798019
G1X40.208938Y-41.783806
G1X40.230513Y-41.774872
G1X40.250734Y-41.763194
G1X40.273284Y-41.757153
G1X40.294856Y-41.748216
G1X40.318013Y-41.745169
G1X40.340563Y-41.739125
G1X40.363916Y-41.739125
G1X40.387062Y-41.736078
G1X40.410206Y-41.739125
G1X40.433566Y-41.739125
G1X40.456122Y-41.745172
G1X40.479266Y-41.748216
G1X40.500831Y-41.757150
G1X40.523394Y-41.763194
G1X40.543619Y-41.774872
G1X40.565184Y-41.783803
G1X40.583706Y-41.798016
G1X40.603934Y-41.809694
G1X40.620444Y-41.826206
G1X40.638966Y-41.840416
G1X40.653178Y-41.858941
G1X40.889291Y-42.095053
G1X41.319606Y-42.273297
G1X41.504162Y-42.273297
G1X41.527206Y-42.279475
G1X41.593988Y-42.297366
G1X41.674528Y-42.343866
G1X41.740288Y-42.409625
G1X41.740288Y-42.409628
G1X41.813309Y-42.482653
G1X42.411662Y-42.730497
G1X44.583328Y-42.730497
G1X45.181688Y-42.482650
G1X45.639650Y-42.024687
G1X45.887497Y-41.426331
G1X45.887497Y-40.778663
G1X45.639650Y-40.180309
G1X45.594469Y-40.135128
G1X45.594466Y-40.135128
G1X45.531725Y-40.072384
G1X45.528709Y-40.069372
G1X45.528706Y-40.069369
G1X45.495694Y-40.012188
G1X45.482209Y-39.988834
G1X45.482209Y-39.988831
G1X45.482206Y-39.988828
G1X45.467325Y-39.933281
G1X45.458137Y-39.899003
G1X45.458137Y-39.805997
G1X45.482206Y-39.716169
G1X45.508459Y-39.670697
G1X45.528703Y-39.635631
G1X45.594462Y-39.569872
G1X45.639650Y-39.524687
G1X45.887497Y-38.926331
G1X45.887497Y-38.278663
G1X45.639650Y-37.680309
G1X45.594469Y-37.635128
G1X45.594466Y-37.635128
G1X45.531725Y-37.572384
G1X45.528709Y-37.569372
G1X45.528706Y-37.569369
G1X45.495694Y-37.512188
G1X45.482209Y-37.488834
G1X45.482209Y-37.488831
G1X45.482206Y-37.488828
G1X45.467325Y-37.433281
G1X45.458137Y-37.399003
G1X45.458137Y-37.305997
G1X45.482206Y-37.216169
G1X45.508459Y-37.170697
G1X45.528703Y-37.135631
G1X45.594462Y-37.069872
G1X45.639650Y-37.024687
G1X45.887497Y-36.426331
G1X45.887497Y-35.778663
G1X45.639650Y-35.180306
G1X45.181688Y-34.722344
G1X44.583331Y-34.474497
G1X42.411662Y-34.474497
G1X41.813313Y-34.722341
G1X41.777066Y-34.758588
G1X41.776134Y-34.759522
G1X41.776128Y-34.759528
G1X41.695588Y-34.806028
G1X41.642381Y-34.820281
G1X41.605769Y-34.830097
G1X39.866444Y-34.830097
G1X39.866388Y-34.830112
G1X39.819988Y-34.830097
G1X39.773497Y-34.830097
G1X39.773441Y-34.830081
G1X39.773384Y-34.830081
G1X39.729731Y-34.818369
G1X39.683669Y-34.806028
G1X39.683622Y-34.806000
G1X39.683563Y-34.805984
G1X39.645759Y-34.784141
G1X39.389044Y-34.677809
G1X39.366491Y-34.671766
G1X39.346281Y-34.660097
G1X39.324703Y-34.651159
G1X39.306172Y-34.636938
G1X39.285953Y-34.625266
G1X39.269450Y-34.608759
G1X39.250922Y-34.594544
G1X39.236703Y-34.576009
G1X39.220194Y-34.559503
G1X39.208525Y-34.539291
G1X39.194309Y-34.520766
G1X39.185369Y-34.499181
G1X39.173697Y-34.478966
G1X39.167659Y-34.456425
G1X39.158719Y-34.434847
G1X39.155672Y-34.411681
G1X39.149628Y-34.389134
G1X39.149628Y-34.365788
G1X39.146581Y-34.342644
G1X39.149628Y-34.319497
G1X39.149628Y-34.296131
G1X39.155675Y-34.273575
G1X39.158719Y-34.250438
G1X39.167656Y-34.228866
G1X39.173631Y-34.206572
G1X39.134834Y-34.232494
G1X38.988519Y-34.293100
G1X38.833188Y-34.323997
G1X37.366809Y-34.323997
G1X37.211478Y-34.293100
G1X37.065162Y-34.232494
G1X37.026363Y-34.206569
G1X37.032338Y-34.228866
G1X37.041275Y-34.250438
G1X37.044319Y-34.273575
G1X37.050366Y-34.296131
G1X37.050366Y-34.319497
G1X37.053413Y-34.342644
G1X37.050366Y-34.365788
G1X37.050366Y-34.389134
G1X37.044322Y-34.411681
G1X37.041275Y-34.434847
G1X37.032334Y-34.456425
G1X37.026297Y-34.478966
G1X37.014622Y-34.499181
G1X37.005684Y-34.520766
G1X36.991469Y-34.539291
G1X36.979800Y-34.559503
G1X36.963291Y-34.576009
G1X36.949072Y-34.594544
G1X36.930544Y-34.608759
G1X36.914041Y-34.625266
G1X36.893822Y-34.636938
G1X36.875291Y-34.651159
G1X36.853713Y-34.660094
G1X36.833503Y-34.671766
G1X36.810950Y-34.677809
G1X36.584984Y-34.771403
G1X36.157403Y-35.198984
G1X35.925997Y-35.757644
G1X35.925997Y-36.360519
G1X35.927375Y-36.365672
G1X35.936306Y-36.387222
G1X35.939353Y-36.410375
G1X35.945403Y-36.432944
G1X35.945403Y-36.456294
G1X35.948450Y-36.479425
G1X35.945403Y-36.502578
G1X35.945403Y-36.525947
G1X35.939359Y-36.548500
G1X35.936316Y-36.571631
G1X35.927381Y-36.593197
G1X35.921334Y-36.615775
G1X35.909656Y-36.636000
G1X35.900731Y-36.657553
G1X35.886516Y-36.676075
G1X35.874834Y-36.696316
G1X35.858325Y-36.712822
G1X35.844122Y-36.731338
G1X35.825594Y-36.745553
G1X35.809075Y-36.762075
G1X35.788850Y-36.773750
G1X35.770344Y-36.787953
G1X35.748775Y-36.796888
G1X35.728534Y-36.808575
G1X35.705978Y-36.814616
G1X35.684428Y-36.823547
G1X35.661275Y-36.826594
G1X35.638706Y-36.832644
G1X35.615356Y-36.832644
G1X35.592225Y-36.835691
G1X35.569072Y-36.832644
G1X35.545703Y-36.832644
G1X35.523150Y-36.826600
G1X35.500019Y-36.823556
G1X35.478453Y-36.814622
G1X35.455875Y-36.808575
G1X35.435650Y-36.796897
G1X35.414097Y-36.787972
G1X35.395575Y-36.773756
G1X35.375334Y-36.762075
G1X35.358828Y-36.745566
G1X35.340313Y-36.731363
G1X35.326097Y-36.712834
G1X34.095116Y-35.481853
G1X34.095109Y-35.481850
G1X33.683200Y-35.069941
G1X33.252887Y-34.891697
G1X32.215091Y-34.891697
G1X32.150731Y-34.874450
G1X32.125269Y-34.867628
G1X32.125269Y-34.867625
G1X32.125259Y-34.867625
G1X32.088531Y-34.846419
G1X32.044728Y-34.821128
G1X31.995003Y-34.771400
G1X31.769044Y-34.677809
G1X31.746491Y-34.671766
G1X31.726281Y-34.660097
G1X31.704703Y-34.651159
G1X31.686172Y-34.636938
G1X31.665953Y-34.625266
G1X31.649450Y-34.608759
G1X31.630922Y-34.594544
G1X31.616703Y-34.576009
G1X31.600194Y-34.559503
G1X31.588525Y-34.539291
G1X31.574309Y-34.520766
G1X31.565369Y-34.499181
G1X31.553697Y-34.478966
G1X31.547659Y-34.456425
G1X31.538719Y-34.434847
G1X31.535669Y-34.411681
G1X31.529628Y-34.389134
G1X31.529628Y-34.365788
G1X31.526581Y-34.342644
G1X31.529628Y-34.319497
G1X31.529628Y-34.296131
G1X31.535675Y-34.273575
G1X31.538719Y-34.250438
G1X31.547656Y-34.228866
G1X31.553628Y-34.206572
G1X31.514834Y-34.232494
G1X31.368519Y-34.293100
G1X31.213188Y-34.323997
G1X29.746809Y-34.323997
G1X29.591478Y-34.293100
G1X29.445163Y-34.232494
G1X29.406363Y-34.206569
G1X29.412338Y-34.228866
G1X29.421275Y-34.250438
G1X29.424319Y-34.273575
G1X29.430366Y-34.296131
G1X29.430366Y-34.319497
G1X29.433413Y-34.342644
G1X29.430366Y-34.365788
G1X29.430366Y-34.389134
G1X29.424325Y-34.411681
G1X29.421275Y-34.434847
G1X29.412334Y-34.456425
G1X29.406297Y-34.478966
G1X29.394625Y-34.499181
G1X29.385684Y-34.520766
G1X29.371469Y-34.539291
G1X29.359800Y-34.559503
G1X29.343291Y-34.576013
G1X29.329072Y-34.594544
G1X29.310544Y-34.608759
G1X29.294041Y-34.625266
G1X29.273822Y-34.636938
G1X29.255291Y-34.651159
G1X29.233713Y-34.660097
G1X29.213503Y-34.671766
G1X29.190950Y-34.677809
G1X28.964984Y-34.771403
G1X28.537403Y-35.198988
G1X28.305997Y-35.757644
G1X28.305997Y-36.362350
G1X28.537403Y-36.921013
G1X28.663756Y-37.047362
G1X28.663766Y-37.047366
G1X28.729525Y-37.113125
G1X28.776025Y-37.193666
G1X28.793369Y-37.258400
G1X28.800094Y-37.283491
G1X28.800094Y-37.376497
G1X28.776025Y-37.466325
G1X28.729525Y-37.546866
G1X28.537403Y-37.738988
G1X28.305997Y-38.297644
G1X28.305997Y-38.902350
G1X28.537403Y-39.461009
G1X28.964984Y-39.888591
G1X29.190950Y-39.982184
G1X29.213503Y-39.988228
G1X29.233713Y-39.999897
G1X29.255291Y-40.008834
G1X29.273822Y-40.023056
G1X29.294041Y-40.034728
G1X29.310544Y-40.051234
G1X29.329072Y-40.065450
G1X29.343291Y-40.083984
G1X29.359800Y-40.100491
G1X29.371469Y-40.120703
G1X29.385684Y-40.139228
G1X29.394625Y-40.160812
G1X29.406297Y-40.181028
G1X29.412334Y-40.203569
G1X29.421275Y-40.225147
G1X29.424322Y-40.248313
G1X29.430366Y-40.270859
G1X29.430366Y-40.294206
G1X29.433413Y-40.317353
G1X29.430366Y-40.340497
G1X29.430366Y-40.363863
G1X29.424319Y-40.386419
G1X29.421275Y-40.409556
G1X29.412338Y-40.431128
G1X29.406363Y-40.453431
G1X29.445163Y-40.427503
G1X29.591478Y-40.366897
G1X29.746809Y-40.336000
G1X31.213188Y-40.336000
G1X31.368519Y-40.366897
G1X31.514834Y-40.427503
G1X31.553631Y-40.453428
G1X31.547653Y-40.431128
G1X31.538719Y-40.409556
G1X31.535675Y-40.386419
G1X31.529628Y-40.363863
G1X31.529628Y-40.340497
G1X31.526581Y-40.317353
G1X31.529628Y-40.294206
G1X31.529628Y-40.270859
G1X31.535669Y-40.248313
G1X31.538719Y-40.225147
G1X31.547659Y-40.203569
G1X31.553697Y-40.181028
G1X31.565369Y-40.160812
G1X31.574309Y-40.139228
G1X31.588525Y-40.120703
G1X31.600194Y-40.100491
G1X31.616703Y-40.083981
G1X31.630922Y-40.065450
G1X31.649447Y-40.051234
G1X31.665953Y-40.034728
G1X31.686172Y-40.023056
G1X31.704703Y-40.008834
G1X31.726281Y-39.999897
G1X31.746491Y-39.988228
G1X31.769044Y-39.982184
G1X31.995009Y-39.888591
G1X32.040631Y-39.842966

G0Z2
G0X44.349325Y-39.514497
G1Z-0.100 f25
G1X42.645672Y-39.514497 f200
G1X42.469478Y-39.479450
G1X42.303503Y-39.410700
G1X42.154131Y-39.310894
G1X42.027103Y-39.183866
G1X42.008750Y-39.156397
G1X39.334628Y-39.156397
G1X39.266519Y-39.224506
G1X39.134834Y-39.312494
G1X38.988519Y-39.373100
G1X38.833188Y-39.403997
G1X37.366809Y-39.403997
G1X37.211478Y-39.373100
G1X37.065162Y-39.312494
G1X36.933478Y-39.224506
G1X36.821491Y-39.112519
G1X36.733503Y-38.980834
G1X36.672897Y-38.834519
G1X36.642000Y-38.679188
G1X36.642000Y-38.520809
G1X36.672897Y-38.365478
G1X36.733503Y-38.219163
G1X36.821491Y-38.087478
G1X36.933478Y-37.975491
G1X37.065162Y-37.887503
G1X37.211478Y-37.826897
G1X37.366809Y-37.796000
G1X38.833188Y-37.796000
G1X38.988519Y-37.826897
G1X39.134834Y-37.887503
G1X39.266519Y-37.975491
G1X39.334628Y-38.043600
G1X42.012094Y-38.043600
G1X42.027103Y-38.021131
G1X42.154131Y-37.894103
G1X42.303503Y-37.794297
G1X42.469478Y-37.725547
G1X42.645672Y-37.690500
G1X44.349325Y-37.690500
G1X44.525519Y-37.725547
G1X44.691494Y-37.794297
G1X44.840866Y-37.894103
G1X44.967894Y-38.021131
G1X45.067700Y-38.170503
G1X45.136450Y-38.336478
G1X45.171497Y-38.512672
G1X45.171497Y-38.692325
G1X45.136450Y-38.868519
G1X45.067700Y-39.034494
G1X44.967894Y-39.183866
G1X44.840866Y-39.310894
G1X44.691494Y-39.410700
G1X44.525519Y-39.479450
G1X44.349325Y-39.514497

G0Z2
G0X37.366809Y-35.256000
G1Z-0.100 f25
G1X38.833188Y-35.256000 f200
G1X38.988519Y-35.286897
G1X39.134834Y-35.347503
G1X39.266519Y-35.435491
G1X39.377128Y-35.546100
G1X42.010422Y-35.546100
G1X42.027103Y-35.521131
G1X42.154131Y-35.394103
G1X42.303503Y-35.294297
G1X42.469478Y-35.225547
G1X42.645672Y-35.190500
G1X44.349325Y-35.190500
G1X44.525519Y-35.225547
G1X44.691494Y-35.294297
G1X44.840866Y-35.394103
G1X44.967894Y-35.521131
G1X45.067700Y-35.670503
G1X45.136450Y-35.836478
G1X45.171497Y-36.012672
G1X45.171497Y-36.192325
G1X45.136450Y-36.368519
G1X45.067700Y-36.534494
G1X44.967894Y-36.683866
G1X44.840866Y-36.810894
G1X44.691494Y-36.910700
G1X44.525519Y-36.979450
G1X44.349325Y-37.014497
G1X42.645672Y-37.014497
G1X42.469478Y-36.979450
G1X42.303503Y-36.910700
G1X42.154131Y-36.810894
G1X42.027103Y-36.683866
G1X42.010422Y-36.658897
G1X39.292128Y-36.658897
G1X39.266519Y-36.684506
G1X39.134834Y-36.772494
G1X38.988519Y-36.833100
G1X38.833188Y-36.863997
G1X37.366809Y-36.863997
G1X37.211478Y-36.833100
G1X37.065162Y-36.772494
G1X36.933478Y-36.684506
G1X36.821491Y-36.572519
G1X36.733503Y-36.440834
G1X36.672897Y-36.294519
G1X36.642000Y-36.139187
G1X36.642000Y-35.980809
G1X36.672897Y-35.825478
G1X36.733503Y-35.679163
G1X36.821491Y-35.547478
G1X36.933478Y-35.435491
G1X37.065162Y-35.347503
G1X37.211478Y-35.286897
G1X37.366809Y-35.256000

G0Z2
G0X29.746809Y-35.256000
G1Z-0.100 f25
G1X31.213188Y-35.256000 f200
G1X31.368519Y-35.286897
G1X31.514834Y-35.347503
G1X31.646519Y-35.435491
G1X31.758506Y-35.547478
G1X31.798744Y-35.607700
G1X33.079875Y-35.607700
G1X33.195544Y-35.638694
G1X33.299253Y-35.698569
G1X33.383928Y-35.783244
G1X37.018384Y-39.417700
G1X40.382375Y-39.417700
G1X40.498044Y-39.448694
G1X40.601753Y-39.508569
G1X40.686428Y-39.593244
G1X41.740884Y-40.647700
G1X41.942534Y-40.647700
G1X42.027103Y-40.521131
G1X42.154131Y-40.394103
G1X42.303503Y-40.294297
G1X42.469478Y-40.225547
G1X42.645672Y-40.190500
G1X44.349325Y-40.190500
G1X44.525519Y-40.225547
G1X44.691494Y-40.294297
G1X44.840866Y-40.394103
G1X44.967894Y-40.521131
G1X45.067700Y-40.670503
G1X45.136450Y-40.836478
G1X45.171497Y-41.012672
G1X45.171497Y-41.192325
G1X45.136450Y-41.368519
G1X45.067700Y-41.534494
G1X44.967894Y-41.683866
G1X44.840866Y-41.810894
G1X44.691494Y-41.910700
G1X44.525519Y-41.979450
G1X44.349325Y-42.014497
G1X42.645672Y-42.014497
G1X42.469478Y-41.979450
G1X42.303503Y-41.910700
G1X42.154131Y-41.810894
G1X42.027103Y-41.683866
G1X41.942534Y-41.557297
G1X41.492622Y-41.557297
G1X41.376953Y-41.526303
G1X41.273244Y-41.466428
G1X40.134113Y-40.327297
G1X36.770122Y-40.327297
G1X36.654453Y-40.296303
G1X36.550744Y-40.236428
G1X32.831612Y-36.517297
G1X31.795403Y-36.517297
G1X31.758506Y-36.572519
G1X31.646519Y-36.684506
G1X31.514834Y-36.772494
G1X31.368519Y-36.833100
G1X31.213188Y-36.863997
G1X29.746809Y-36.863997
G1X29.591478Y-36.833100
G1X29.445163Y-36.772494
G1X29.313478Y-36.684506
G1X29.201491Y-36.572519
G1X29.113503Y-36.440834
G1X29.052897Y-36.294519
G1X29.022000Y-36.139187
G1X29.022000Y-35.980809
G1X29.052897Y-35.825478
G1X29.113503Y-35.679163
G1X29.201491Y-35.547478
G1X29.313478Y-35.435491
G1X29.445163Y-35.347503
G1X29.591478Y-35.286897
G1X29.746809Y-35.256000

G0Z2
G0X29.746809Y-37.796000
G1Z-0.100 f25
G1X31.213188Y-37.796000 f200
G1X31.368519Y-37.826897
G1X31.514834Y-37.887503
G1X31.598791Y-37.943600
G1X33.073250Y-37.943600
G1X33.214762Y-37.981519
G1X33.341634Y-38.054769
G1X33.445228Y-38.158363
G1X33.445228Y-38.158366
G1X36.025228Y-40.738363
G1X36.098478Y-40.865234
G1X36.136397Y-41.006747
G1X36.136397Y-45.152922
G1X36.161366Y-45.169603
G1X36.288394Y-45.296631
G1X36.388200Y-45.446003
G1X36.456950Y-45.611978
G1X36.491997Y-45.788172
G1X36.491997Y-47.491825
G1X36.456950Y-47.668019
G1X36.388200Y-47.833994
G1X36.288394Y-47.983366
G1X36.161366Y-48.110394
G1X36.011994Y-48.210200
G1X35.846019Y-48.278950
G1X35.669825Y-48.313997
G1X35.490172Y-48.313997
G1X35.313978Y-48.278950
G1X35.148003Y-48.210200
G1X34.998631Y-48.110394
G1X34.871603Y-47.983366
G1X34.771797Y-47.833994
G1X34.703047Y-47.668019
G1X34.668000Y-47.491825
G1X34.668000Y-45.788172
G1X34.703047Y-45.611978
G1X34.771797Y-45.446003
G1X34.871603Y-45.296631
G1X34.998631Y-45.169603
G1X35.023600Y-45.152922
G1X35.023600Y-41.310466
G1X32.769531Y-39.056397
G1X31.796006Y-39.056397
G1X31.758506Y-39.112519
G1X31.646519Y-39.224506
G1X31.514834Y-39.312494
G1X31.368519Y-39.373100
G1X31.213188Y-39.403997
G1X29.746809Y-39.403997
G1X29.591478Y-39.373100
G1X29.445163Y-39.312494
G1X29.313478Y-39.224506
G1X29.201491Y-39.112519
G1X29.113503Y-38.980834
G1X29.052897Y-38.834519
G1X29.022000Y-38.679188
G1X29.022000Y-38.520809
G1X29.052897Y-38.365478
G1X29.113503Y-38.219163
G1X29.201491Y-38.087478
G1X29.313478Y-37.975491
G1X29.445163Y-37.887503
G1X29.591478Y-37.826897
G1X29.746809Y-37.796000

G0Z2
G0X37.168000Y-47.491825
G1Z-0.100 f25
G1X37.168000Y-45.788172 f200
G1X37.203047Y-45.611978
G1X37.271797Y-45.446003
G1X37.371603Y-45.296631
G1X37.498631Y-45.169603
G1X37.523600Y-45.152922
G1X37.523600Y-41.943997
G1X37.366809Y-41.943997
G1X37.211478Y-41.913100
G1X37.065162Y-41.852494
G1X36.933478Y-41.764506
G1X36.821491Y-41.652519
G1X36.733503Y-41.520834
G1X36.672897Y-41.374519
G1X36.642000Y-41.219188
G1X36.642000Y-41.060809
G1X36.672897Y-40.905478
G1X36.733503Y-40.759163
G1X36.821491Y-40.627478
G1X36.933478Y-40.515491
G1X37.065162Y-40.427503
G1X37.211478Y-40.366897
G1X37.366809Y-40.336000
G1X38.833188Y-40.336000
G1X38.988519Y-40.366897
G1X39.134834Y-40.427503
G1X39.266519Y-40.515491
G1X39.378506Y-40.627478
G1X39.466494Y-40.759163
G1X39.527100Y-40.905478
G1X39.557997Y-41.060809
G1X39.557997Y-41.219188
G1X39.527100Y-41.374519
G1X39.466494Y-41.520834
G1X39.378506Y-41.652519
G1X39.266519Y-41.764506
G1X39.134834Y-41.852494
G1X38.988519Y-41.913100
G1X38.833188Y-41.943997
G1X38.636397Y-41.943997
G1X38.636397Y-45.152922
G1X38.661366Y-45.169603
G1X38.788394Y-45.296631
G1X38.888200Y-45.446003
G1X38.956950Y-45.611978
G1X38.991997Y-45.788172
G1X38.991997Y-47.491825
G1X38.956950Y-47.668019
G1X38.888200Y-47.833994
G1X38.788394Y-47.983366
G1X38.661366Y-48.110394
G1X38.511994Y-48.210200
G1X38.346019Y-48.278950
G1X38.169825Y-48.313997
G1X37.990172Y-48.313997
G1X37.813978Y-48.278950
G1X37.648003Y-48.210200
G1X37.498631Y-48.110394
G1X37.371603Y-47.983366
G1X37.271797Y-47.833994
G1X37.203047Y-47.668019
G1X37.168000Y-47.491825

G0Z2
G0X43.743094Y-26.001697
G1Z-0.100 f25
G1X43.653266Y-25.977628 f200
G1X43.572725Y-25.931128
G1X43.506966Y-25.865369
G1X43.460466Y-25.784828
G1X43.436397Y-25.695000
G1X43.436397Y-25.154537
G1X43.460466Y-25.064709
G1X43.506966Y-24.984169
G1X43.572725Y-24.918409
G1X43.653266Y-24.871909
G1X43.743094Y-24.847841
G1X43.836097Y-24.847841
G1X43.925925Y-24.871909
G1X44.006466Y-24.918409
G1X44.519684Y-25.431628
G1X44.566184Y-25.512169
G1X44.590253Y-25.601997
G1X44.590253Y-25.695000
G1X44.566184Y-25.784828
G1X44.519684Y-25.865369
G1X44.453925Y-25.931128
G1X44.373384Y-25.977628
G1X44.283556Y-26.001697
G1X44.190553Y-26.001697
G1X43.743094Y-26.001697

G0Z2
G0X48.316397Y-25.270244
G1Z-0.100 f25
G1X47.422250Y-24.376097 f200
G1X47.162844Y-24.376097
G1X47.073016Y-24.352028
G1X46.992475Y-24.305528
G1X46.926716Y-24.239769
G1X44.968256Y-22.281306
G1X44.500591Y-22.087597
G1X39.777503Y-22.087597
G1X39.754359Y-22.090644
G1X39.731213Y-22.087597
G1X39.707856Y-22.087597
G1X39.685303Y-22.081553
G1X39.662153Y-22.078506
G1X39.640584Y-22.069572
G1X39.618028Y-22.063528
G1X39.597803Y-22.051850
G1X39.086347Y-21.839997
G1X37.173644Y-21.839997
G1X36.614988Y-22.071403
G1X36.187403Y-22.498988
G1X35.955997Y-23.057644
G1X35.955997Y-23.662350
G1X36.187403Y-24.221013
G1X36.303756Y-24.337363
G1X36.303766Y-24.337366
G1X36.369525Y-24.403125
G1X36.416025Y-24.483666
G1X36.433369Y-24.548400
G1X36.440094Y-24.573491
G1X36.440094Y-24.666497
G1X36.416025Y-24.756325
G1X36.369525Y-24.836866
G1X36.167403Y-25.038988
G1X35.935997Y-25.597644
G1X35.935997Y-25.695000
G1X35.911928Y-25.784828
G1X35.865428Y-25.865369
G1X35.799669Y-25.931128
G1X35.719128Y-25.977628
G1X35.629300Y-26.001697
G1X32.960694Y-26.001697
G1X32.870866Y-25.977628
G1X32.790325Y-25.931128
G1X32.724566Y-25.865369
G1X32.678066Y-25.784828
G1X32.653997Y-25.695000
G1X32.653997Y-25.597644
G1X32.422591Y-25.038984
G1X32.375272Y-24.991666
G1X32.356750Y-24.977456
G1X32.342541Y-24.958934
G1X32.326025Y-24.942422
G1X32.314347Y-24.922187
G1X32.300137Y-24.903675
G1X32.291206Y-24.882113
G1X32.279525Y-24.861881
G1X32.273481Y-24.839322
G1X32.264547Y-24.817756
G1X32.261500Y-24.794606
G1X32.255456Y-24.772053
G1X32.255456Y-24.748697
G1X32.252409Y-24.725553
G1X32.255456Y-24.702406
G1X32.255456Y-24.679050
G1X32.261500Y-24.656497
G1X32.264547Y-24.633347
G1X32.273484Y-24.611778
G1X32.279525Y-24.589222
G1X32.291203Y-24.569000
G1X32.615997Y-23.784878
G1X32.615997Y-23.777841
G1X32.622041Y-23.755288
G1X32.625087Y-23.732138
G1X32.634025Y-23.710569
G1X32.640066Y-23.688013
G1X32.651741Y-23.667794
G1X32.653997Y-23.662344
G1X32.653997Y-23.057650
G1X32.651741Y-23.052200
G1X32.640066Y-23.031981
G1X32.634025Y-23.009428
G1X32.625087Y-22.987856
G1X32.622041Y-22.964706
G1X32.615997Y-22.942153
G1X32.615997Y-22.935119
G1X32.290813Y-22.150050
G1X23.826822Y-13.686066
G1X23.780322Y-13.605525
G1X23.756253Y-13.515697
G1X23.756253Y-13.422694
G1X23.780322Y-13.332866
G1X23.826822Y-13.252325
G1X23.892581Y-13.186566
G1X23.973122Y-13.140066
G1X24.062950Y-13.115997
G1X41.245438Y-13.115997
G1X41.335266Y-13.140066
G1X41.415806Y-13.186566
G1X41.481566Y-13.252325
G1X52.035272Y-23.806028
G1X52.081772Y-23.886569
G1X52.105841Y-23.976397
G1X52.105841Y-24.069400
G1X52.081772Y-24.159228
G1X52.035272Y-24.239769
G1X51.969513Y-24.305528
G1X51.888972Y-24.352028
G1X51.799144Y-24.376097
G1X51.120244Y-24.376097
G1X50.226097Y-25.270244
G1X50.226097Y-25.695000
G1X50.202028Y-25.784828
G1X50.155528Y-25.865369
G1X50.089769Y-25.931128
G1X50.009228Y-25.977628
G1X49.919400Y-26.001697
G1X48.623094Y-26.001697
G1X48.533266Y-25.977628
G1X48.452725Y-25.931128
G1X48.386966Y-25.865369
G1X48.340466Y-25.784828
G1X48.316397Y-25.695000
G1X48.316397Y-25.601997
G1X48.316397Y-25.270244

G0Z2
G0X13.266809Y-22.556000
G1Z-0.100 f25
G1X14.733188Y-22.556000 f200
G1X14.888519Y-22.586897
G1X15.034834Y-22.647503
G1X15.166519Y-22.735491
G1X15.234625Y-22.803600
G1X20.190750Y-22.803600
G1X20.332263Y-22.841519
G1X20.459134Y-22.914769
G1X22.636466Y-25.092100
G1X22.995675Y-25.092100
G1X23.470397Y-25.566822
G1X23.470397Y-26.238175
G1X22.995675Y-26.712897
G1X22.324322Y-26.712897
G1X21.849600Y-26.238175
G1X21.849600Y-25.878966
G1X19.887031Y-23.916397
G1X15.234625Y-23.916397
G1X15.166519Y-23.984506
G1X15.034834Y-24.072494
G1X14.888519Y-24.133100
G1X14.733188Y-24.163997
G1X13.266809Y-24.163997
G1X13.111478Y-24.133100
G1X12.965162Y-24.072494
G1X12.833478Y-23.984506
G1X12.721491Y-23.872519
G1X12.633503Y-23.740834
G1X12.572897Y-23.594519
G1X12.542000Y-23.439188
G1X12.542000Y-23.280809
G1X12.572897Y-23.125478
G1X12.633503Y-22.979163
G1X12.721491Y-22.847478
G1X12.833478Y-22.735491
G1X12.965162Y-22.647503
G1X13.111478Y-22.586897
G1X13.266809Y-22.556000

G0Z2
G0X37.396809Y-22.556000
G1Z-0.100 f25
G1X38.863188Y-22.556000 f200
G1X39.018519Y-22.586897
G1X39.164834Y-22.647503
G1X39.296519Y-22.735491
G1X39.364628Y-22.803600
G1X44.320750Y-22.803600
G1X44.462263Y-22.841519
G1X44.589134Y-22.914769
G1X46.766466Y-25.092100
G1X47.125675Y-25.092100
G1X47.600397Y-25.566822
G1X47.600397Y-26.238175
G1X47.125675Y-26.712897
G1X46.454322Y-26.712897
G1X45.979600Y-26.238175
G1X45.979600Y-25.878966
G1X44.017031Y-23.916397
G1X39.364628Y-23.916397
G1X39.296519Y-23.984506
G1X39.164834Y-24.072494
G1X39.018519Y-24.133100
G1X38.863188Y-24.163997
G1X37.396809Y-24.163997
G1X37.241478Y-24.133100
G1X37.095163Y-24.072494
G1X36.963478Y-23.984506
G1X36.851491Y-23.872519
G1X36.763503Y-23.740834
G1X36.702897Y-23.594519
G1X36.672000Y-23.439188
G1X36.672000Y-23.280809
G1X36.702897Y-23.125478
G1X36.763503Y-22.979163
G1X36.851491Y-22.847478
G1X36.963478Y-22.735491
G1X37.095163Y-22.647503
G1X37.241478Y-22.586897
G1X37.396809Y-22.556000

G0Z2
G0X37.376809Y-25.096000
G1Z-0.100 f25
G1X38.843187Y-25.096000 f200
G1X38.998519Y-25.126897
G1X39.144834Y-25.187503
G1X39.276519Y-25.275491
G1X39.344628Y-25.343600
G1X41.322822Y-25.343600
G1X41.574322Y-25.092100
G1X42.245675Y-25.092100
G1X42.720397Y-25.566822
G1X42.720397Y-26.238175
G1X42.245675Y-26.712897
G1X41.574322Y-26.712897
G1X41.317822Y-26.456397
G1X39.344628Y-26.456397
G1X39.276519Y-26.524506
G1X39.144834Y-26.612494
G1X38.998519Y-26.673100
G1X38.843187Y-26.703997
G1X37.376809Y-26.703997
G1X37.221478Y-26.673100
G1X37.075163Y-26.612494
G1X36.943478Y-26.524506
G1X36.831491Y-26.412519
G1X36.743503Y-26.280834
G1X36.682897Y-26.134519
G1X36.652000Y-25.979188
G1X36.652000Y-25.820809
G1X36.682897Y-25.665478
G1X36.743503Y-25.519163
G1X36.831491Y-25.387478
G1X36.943478Y-25.275491
G1X37.075163Y-25.187503
G1X37.221478Y-25.126897
G1X37.376809Y-25.096000

G0Z2
G0X37.366809Y-27.636000
G1Z-0.100 f25
G1X38.833188Y-27.636000 f200
G1X38.988519Y-27.666897
G1X39.134834Y-27.727503
G1X39.266519Y-27.815491
G1X39.337128Y-27.886100
G1X41.320322Y-27.886100
G1X41.574322Y-27.632100
G1X42.245675Y-27.632100
G1X42.720397Y-28.106822
G1X42.720397Y-28.778175
G1X42.245675Y-29.252897
G1X41.574322Y-29.252897
G1X41.320322Y-28.998897
G1X39.332128Y-28.998897
G1X39.266519Y-29.064506
G1X39.134834Y-29.152494
G1X38.988519Y-29.213100
G1X38.833188Y-29.243997
G1X37.366809Y-29.243997
G1X37.211478Y-29.213100
G1X37.065162Y-29.152494
G1X36.933478Y-29.064506
G1X36.821491Y-28.952519
G1X36.733503Y-28.820834
G1X36.672897Y-28.674519
G1X36.642000Y-28.519188
G1X36.642000Y-28.360809
G1X36.672897Y-28.205478
G1X36.733503Y-28.059163
G1X36.821491Y-27.927478
G1X36.933478Y-27.815491
G1X37.065162Y-27.727503
G1X37.211478Y-27.666897
G1X37.366809Y-27.636000

G0Z2
G0X53.876809Y-27.636000
G1Z-0.100 f25
G1X54.112819Y-27.636000 f200
G1X54.104112Y-27.627297
G1X30.934797Y-27.627297
G1X30.934797Y-27.636000
G1X31.213188Y-27.636000
G1X31.368519Y-27.666897
G1X31.514834Y-27.727503
G1X31.646519Y-27.815491
G1X31.758506Y-27.927478
G1X31.846494Y-28.059163
G1X31.907100Y-28.205478
G1X31.937997Y-28.360809
G1X31.937997Y-28.519188
G1X31.907100Y-28.674519
G1X31.846494Y-28.820834
G1X31.758506Y-28.952519
G1X31.646519Y-29.064506
G1X31.514834Y-29.152494
G1X31.368519Y-29.213100
G1X31.213188Y-29.243997
G1X29.746809Y-29.243997
G1X29.591478Y-29.213100
G1X29.445163Y-29.152494
G1X29.313478Y-29.064506
G1X29.201491Y-28.952519
G1X29.113503Y-28.820834
G1X29.052897Y-28.674519
G1X29.022000Y-28.519188
G1X29.022000Y-28.360809
G1X29.052897Y-28.205478
G1X29.113503Y-28.059163
G1X29.201491Y-27.927478
G1X29.313478Y-27.815491
G1X29.445163Y-27.727503
G1X29.591478Y-27.666897
G1X29.746809Y-27.636000
G1X30.025200Y-27.636000
G1X30.025200Y-27.627297
G1X7.805884Y-27.627297
G1X7.567103Y-27.866078
G1X7.628506Y-27.927478
G1X7.716494Y-28.059163
G1X7.777100Y-28.205478
G1X7.807997Y-28.360809
G1X7.807997Y-28.519188
G1X7.777100Y-28.674519
G1X7.716494Y-28.820834
G1X7.628506Y-28.952519
G1X7.516519Y-29.064506
G1X7.384834Y-29.152494
G1X7.238519Y-29.213100
G1X7.083188Y-29.243997
G1X5.616809Y-29.243997
G1X5.461478Y-29.213100
G1X5.315163Y-29.152494
G1X5.183478Y-29.064506
G1X5.071491Y-28.952519
G1X4.983503Y-28.820834
G1X4.922897Y-28.674519
G1X4.892000Y-28.519188
G1X4.892000Y-28.360809
G1X4.922897Y-28.205478
G1X4.983503Y-28.059163
G1X5.071491Y-27.927478
G1X5.183478Y-27.815491
G1X5.315163Y-27.727503
G1X5.461478Y-27.666897
G1X5.616809Y-27.636000
G1X6.510813Y-27.636000
G1X7.338244Y-26.808569
G1X7.441953Y-26.748694
G1X7.557622Y-26.717700
G1X68.004875Y-26.717700
G1X68.120544Y-26.748694
G1X68.224253Y-26.808569
G1X68.308928Y-26.893244
G1X69.578928Y-28.163244
G1X69.638803Y-28.266953
G1X69.669797Y-28.382622
G1X69.669797Y-32.670500
G1X70.066825Y-32.670500
G1X70.243019Y-32.705547
G1X70.408994Y-32.774297
G1X70.558366Y-32.874103
G1X70.685394Y-33.001131
G1X70.785200Y-33.150503
G1X70.853950Y-33.316478
G1X70.888997Y-33.492672
G1X70.888997Y-33.672325
G1X70.853950Y-33.848519
G1X70.785200Y-34.014494
G1X70.685394Y-34.163866
G1X70.558366Y-34.290894
G1X70.408994Y-34.390700
G1X70.243019Y-34.459450
G1X70.066825Y-34.494497
G1X68.363172Y-34.494497
G1X68.186978Y-34.459450
G1X68.021003Y-34.390700
G1X67.871631Y-34.290894
G1X67.744603Y-34.163866
G1X67.644797Y-34.014494
G1X67.576047Y-33.848519
G1X67.541000Y-33.672325
G1X67.541000Y-33.492672
G1X67.576047Y-33.316478
G1X67.644797Y-33.150503
G1X67.744603Y-33.001131
G1X67.871631Y-32.874103
G1X68.021003Y-32.774297
G1X68.186978Y-32.705547
G1X68.363172Y-32.670500
G1X68.760200Y-32.670500
G1X68.760200Y-28.630884
G1X67.756613Y-27.627297
G1X55.064797Y-27.627297
G1X55.064797Y-27.636000
G1X55.343188Y-27.636000
G1X55.498519Y-27.666897
G1X55.644834Y-27.727503
G1X55.776519Y-27.815491
G1X55.888506Y-27.927478
G1X55.976494Y-28.059163
G1X56.037100Y-28.205478
G1X56.067997Y-28.360809
G1X56.067997Y-28.519188
G1X56.037100Y-28.674519
G1X55.976494Y-28.820834
G1X55.888506Y-28.952519
G1X55.776519Y-29.064506
G1X55.644834Y-29.152494
G1X55.498519Y-29.213100
G1X55.343188Y-29.243997
G1X53.876809Y-29.243997
G1X53.721478Y-29.213100
G1X53.575163Y-29.152494
G1X53.443478Y-29.064506
G1X53.331491Y-28.952519
G1X53.243503Y-28.820834
G1X53.182897Y-28.674519
G1X53.152000Y-28.519188
G1X53.152000Y-28.360809
G1X53.182897Y-28.205478
G1X53.243503Y-28.059163
G1X53.331491Y-27.927478
G1X53.443478Y-27.815491
G1X53.575163Y-27.727503
G1X53.721478Y-27.666897
G1X53.876809Y-27.636000

G0Z2
G0X53.876809Y-35.256000
G1Z-0.100 f25
G1X55.343188Y-35.256000 f200
G1X55.498519Y-35.286897
G1X55.644834Y-35.347503
G1X55.776519Y-35.435491
G1X55.888506Y-35.547478
G1X55.928744Y-35.607700
G1X56.892375Y-35.607700
G1X57.008044Y-35.638694
G1X57.111753Y-35.698569
G1X57.196428Y-35.783244
G1X60.830884Y-39.417700
G1X64.512375Y-39.417700
G1X64.628044Y-39.448694
G1X64.731753Y-39.508569
G1X64.816428Y-39.593244
G1X64.816428Y-39.593247
G1X65.850884Y-40.627700
G1X67.660034Y-40.627700
G1X67.744603Y-40.501131
G1X67.871631Y-40.374103
G1X68.021003Y-40.274297
G1X68.186978Y-40.205547
G1X68.363172Y-40.170500
G1X70.066825Y-40.170500
G1X70.243019Y-40.205547
G1X70.408994Y-40.274297
G1X70.558366Y-40.374103
G1X70.685394Y-40.501131
G1X70.785200Y-40.650503
G1X70.853950Y-40.816478
G1X70.888997Y-40.992672
G1X70.888997Y-41.172325
G1X70.853950Y-41.348519
G1X70.785200Y-41.514494
G1X70.685394Y-41.663866
G1X70.558366Y-41.790894
G1X70.408994Y-41.890700
G1X70.243019Y-41.959450
G1X70.066825Y-41.994497
G1X68.363172Y-41.994497
G1X68.186978Y-41.959450
G1X68.021003Y-41.890700
G1X67.871631Y-41.790894
G1X67.744603Y-41.663866
G1X67.660034Y-41.537297
G1X65.602622Y-41.537297
G1X65.486953Y-41.506303
G1X65.383244Y-41.446428
G1X64.264112Y-40.327297
G1X60.582622Y-40.327297
G1X60.466953Y-40.296303
G1X60.363244Y-40.236428
G1X56.644113Y-36.517297
G1X55.925403Y-36.517297
G1X55.888506Y-36.572519
G1X55.776519Y-36.684506
G1X55.644834Y-36.772494
G1X55.498519Y-36.833100
G1X55.343188Y-36.863997
G1X53.876809Y-36.863997
G1X53.721478Y-36.833100
G1X53.575163Y-36.772494
G1X53.443478Y-36.684506
G1X53.331491Y-36.572519
G1X53.243503Y-36.440834
G1X53.182897Y-36.294519
G1X53.152000Y-36.139187
G1X53.152000Y-35.980809
G1X53.182897Y-35.825478
G1X53.243503Y-35.679163
G1X53.331491Y-35.547478
G1X53.443478Y-35.435491
G1X53.575163Y-35.347503
G1X53.721478Y-35.286897
G1X53.876809Y-35.256000

G0Z2
G0X53.876809Y-37.796000
G1Z-0.100 f25
G1X55.343188Y-37.796000 f200
G1X55.498519Y-37.826897
G1X55.644834Y-37.887503
G1X55.776519Y-37.975491
G1X55.847128Y-38.046100
G1X57.223250Y-38.046100
G1X57.364763Y-38.084019
G1X57.491634Y-38.157269
G1X57.595228Y-38.260863
G1X60.155228Y-40.820863
G1X60.228478Y-40.947734
G1X60.266397Y-41.089247
G1X60.266397Y-45.152922
G1X60.291366Y-45.169603
G1X60.418394Y-45.296631
G1X60.518200Y-45.446003
G1X60.586950Y-45.611978
G1X60.621997Y-45.788172
G1X60.621997Y-47.491825
G1X60.586950Y-47.668019
G1X60.518200Y-47.833994
G1X60.418394Y-47.983366
G1X60.291366Y-48.110394
G1X60.141994Y-48.210200
G1X59.976019Y-48.278950
G1X59.799825Y-48.313997
G1X59.620172Y-48.313997
G1X59.443978Y-48.278950
G1X59.278003Y-48.210200
G1X59.128631Y-48.110394
G1X59.001603Y-47.983366
G1X58.901797Y-47.833994
G1X58.833047Y-47.668019
G1X58.798000Y-47.491825
G1X58.798000Y-45.788172
G1X58.833047Y-45.611978
G1X58.901797Y-45.446003
G1X59.001603Y-45.296631
G1X59.128631Y-45.169603
G1X59.153600Y-45.152922
G1X59.153600Y-41.392966
G1X56.919531Y-39.158897
G1X55.842128Y-39.158897
G1X55.776519Y-39.224506
G1X55.644834Y-39.312494
G1X55.498519Y-39.373100
G1X55.343188Y-39.403997
G1X53.876809Y-39.403997
G1X53.721478Y-39.373100
G1X53.575163Y-39.312494
G1X53.443478Y-39.224506
G1X53.331491Y-39.112519
G1X53.243503Y-38.980834
G1X53.182897Y-38.834519
G1X53.152000Y-38.679188
G1X53.152000Y-38.520809
G1X53.182897Y-38.365478
G1X53.243503Y-38.219163
G1X53.331491Y-38.087478
G1X53.443478Y-37.975491
G1X53.575163Y-37.887503
G1X53.721478Y-37.826897
G1X53.876809Y-37.796000

G0Z2
G0X61.496809Y-37.796000
G1Z-0.100 f25
G1X62.963188Y-37.796000 f200
G1X63.118519Y-37.826897
G1X63.264834Y-37.887503
G1X63.396519Y-37.975491
G1X63.447125Y-38.026100
G1X67.727922Y-38.026100
G1X67.744603Y-38.001131
G1X67.871631Y-37.874103
G1X68.021003Y-37.774297
G1X68.186978Y-37.705547
G1X68.363172Y-37.670500
G1X70.066825Y-37.670500
G1X70.243019Y-37.705547
G1X70.408994Y-37.774297
G1X70.558366Y-37.874103
G1X70.685394Y-38.001131
G1X70.785200Y-38.150503
G1X70.853950Y-38.316478
G1X70.888997Y-38.492672
G1X70.888997Y-38.672325
G1X70.853950Y-38.848519
G1X70.785200Y-39.014494
G1X70.685394Y-39.163866
G1X70.558366Y-39.290894
G1X70.408994Y-39.390700
G1X70.243019Y-39.459450
G1X70.066825Y-39.494497
G1X68.363172Y-39.494497
G1X68.186978Y-39.459450
G1X68.021003Y-39.390700
G1X67.871631Y-39.290894
G1X67.744603Y-39.163866
G1X67.727922Y-39.138897
G1X63.482125Y-39.138897
G1X63.396519Y-39.224506
G1X63.264834Y-39.312494
G1X63.118519Y-39.373100
G1X62.963188Y-39.403997
G1X61.496809Y-39.403997
G1X61.341478Y-39.373100
G1X61.195163Y-39.312494
G1X61.063478Y-39.224506
G1X60.951491Y-39.112519
G1X60.863503Y-38.980834
G1X60.802897Y-38.834519
G1X60.772000Y-38.679188
G1X60.772000Y-38.520809
G1X60.802897Y-38.365478
G1X60.863503Y-38.219163
G1X60.951491Y-38.087478
G1X61.063478Y-37.975491
G1X61.195163Y-37.887503
G1X61.341478Y-37.826897
G1X61.496809Y-37.796000

G0Z2
G0X52.088175Y-26.712897
G1Z-0.100 f25
G1X51.416822Y-26.712897 f200
G1X50.942100Y-26.238175
G1X50.942100Y-25.566822
G1X51.416822Y-25.092100
G1X52.088175Y-25.092100
G1X52.339675Y-25.343600
G1X53.375372Y-25.343600
G1X53.443478Y-25.275491
G1X53.575163Y-25.187503
G1X53.721478Y-25.126897
G1X53.876809Y-25.096000
G1X55.343188Y-25.096000
G1X55.498519Y-25.126897
G1X55.644834Y-25.187503
G1X55.776519Y-25.275491
G1X55.888506Y-25.387478
G1X55.976494Y-25.519163
G1X56.037100Y-25.665478
G1X56.067997Y-25.820809
G1X56.067997Y-25.979188
G1X56.037100Y-26.134519
G1X55.976494Y-26.280834
G1X55.888506Y-26.412519
G1X55.776519Y-26.524506
G1X55.644834Y-26.612494
G1X55.498519Y-26.673100
G1X55.343188Y-26.703997
G1X53.876809Y-26.703997
G1X53.721478Y-26.673100
G1X53.575163Y-26.612494
G1X53.443478Y-26.524506
G1X53.375372Y-26.456397
G1X52.344675Y-26.456397
G1X52.088175Y-26.712897

G0Z2
G0X28.432897Y-28.106822
G1Z-0.100 f25
G1X28.432897Y-28.778175 f200
G1X28.120522Y-29.090547
G1X28.141522Y-29.087781
G1X28.164078Y-29.081738
G1X28.187438Y-29.081738
G1X28.210584Y-29.078691
G1X28.233728Y-29.081738
G1X28.257081Y-29.081738
G1X28.279631Y-29.087781
G1X28.302788Y-29.090828
G1X28.324359Y-29.099766
G1X28.346909Y-29.105806
G1X28.367131Y-29.117484
G1X28.388706Y-29.126419
G1X28.407225Y-29.140631
G1X28.427450Y-29.152306
G1X28.443966Y-29.168822
G1X28.462488Y-29.183034
G1X28.476697Y-29.201553
G1X28.493209Y-29.218066
G1X28.504888Y-29.238294
G1X28.519100Y-29.256816
G1X28.528031Y-29.278381
G1X28.539709Y-29.298606
G1X28.541431Y-29.305038
G1X28.964984Y-29.728591
G1X29.190944Y-29.822184
G1X29.213494Y-29.828225
G1X29.233709Y-29.839897
G1X29.255288Y-29.848834
G1X29.273816Y-29.863053
G1X29.294034Y-29.874725
G1X29.310544Y-29.891238
G1X29.329069Y-29.905450
G1X29.343278Y-29.923972
G1X29.359794Y-29.940484
G1X29.371472Y-29.960716
G1X29.385681Y-29.979231
G1X29.394613Y-30.000794
G1X29.406294Y-30.021025
G1X29.412338Y-30.043584
G1X29.421272Y-30.065150
G1X29.424319Y-30.088300
G1X29.430363Y-30.110853
G1X29.430363Y-30.134209
G1X29.433409Y-30.157356
G1X29.430363Y-30.180500
G1X29.430363Y-30.203856
G1X29.424319Y-30.226409
G1X29.421272Y-30.249559
G1X29.412334Y-30.271131
G1X29.406359Y-30.293431
G1X29.445163Y-30.267503
G1X29.591478Y-30.206897
G1X29.746809Y-30.176000
G1X31.213188Y-30.176000
G1X31.368519Y-30.206897
G1X31.514834Y-30.267503
G1X31.553634Y-30.293428
G1X31.547659Y-30.271131
G1X31.538722Y-30.249559
G1X31.535675Y-30.226409
G1X31.529631Y-30.203856
G1X31.529631Y-30.180500
G1X31.526584Y-30.157356
G1X31.529631Y-30.134209
G1X31.529631Y-30.110853
G1X31.535675Y-30.088300
G1X31.538722Y-30.065150
G1X31.547656Y-30.043584
G1X31.553700Y-30.021025
G1X31.565381Y-30.000794
G1X31.574313Y-29.979231
G1X31.588522Y-29.960719
G1X31.600200Y-29.940484
G1X31.616716Y-29.923969
G1X31.630925Y-29.905450
G1X31.649450Y-29.891238
G1X31.665959Y-29.874725
G1X31.686181Y-29.863053
G1X31.704706Y-29.848834
G1X31.726284Y-29.839897
G1X31.746500Y-29.828225
G1X31.769050Y-29.822184
G1X31.995009Y-29.728591
G1X32.422591Y-29.301006
G1X32.653997Y-28.742350
G1X32.653997Y-28.649994
G1X32.678066Y-28.560166
G1X32.724566Y-28.479625
G1X32.790325Y-28.413866
G1X32.870866Y-28.367366
G1X32.960694Y-28.343297
G1X35.619300Y-28.343297
G1X35.709128Y-28.367366
G1X35.789669Y-28.413866
G1X35.855428Y-28.479625
G1X35.901928Y-28.560166
G1X35.925997Y-28.649994
G1X35.925997Y-28.742350
G1X36.157403Y-29.301009
G1X36.584984Y-29.728591
G1X36.810944Y-29.822184
G1X36.833494Y-29.828225
G1X36.853709Y-29.839897
G1X36.875287Y-29.848834
G1X36.893813Y-29.863053
G1X36.914034Y-29.874725
G1X36.930544Y-29.891238
G1X36.949069Y-29.905450
G1X36.963278Y-29.923972
G1X36.979794Y-29.940484
G1X36.991472Y-29.960716
G1X37.005681Y-29.979231
G1X37.014612Y-30.000794
G1X37.026294Y-30.021025
G1X37.032338Y-30.043584
G1X37.041272Y-30.065150
G1X37.044319Y-30.088300
G1X37.050362Y-30.110853
G1X37.050362Y-30.134209
G1X37.053409Y-30.157356
G1X37.050362Y-30.180500
G1X37.050362Y-30.203856
G1X37.044319Y-30.226409
G1X37.041272Y-30.249559
G1X37.032334Y-30.271131
G1X37.026359Y-30.293431
G1X37.065162Y-30.267503
G1X37.211478Y-30.206897
G1X37.366809Y-30.176000
G1X38.833188Y-30.176000
G1X38.988519Y-30.206897
G1X39.134834Y-30.267503
G1X39.173631Y-30.293428
G1X39.167656Y-30.271125
G1X39.158722Y-30.249556
G1X39.155675Y-30.226413
G1X39.149631Y-30.203856
G1X39.149631Y-30.180500
G1X39.146584Y-30.157356
G1X39.149631Y-30.134209
G1X39.149631Y-30.110853
G1X39.155675Y-30.088300
G1X39.158722Y-30.065150
G1X39.167656Y-30.043581
G1X39.173700Y-30.021025
G1X39.185378Y-30.000800
G1X39.194313Y-29.979228
G1X39.208525Y-29.960706
G1X39.220200Y-29.940484
G1X39.236713Y-29.923972
G1X39.250925Y-29.905450
G1X39.269447Y-29.891238
G1X39.285959Y-29.874725
G1X39.306181Y-29.863053
G1X39.324706Y-29.848834
G1X39.346284Y-29.839897
G1X39.366500Y-29.828225
G1X39.389053Y-29.822184
G1X39.561769Y-29.750644
G1X39.581994Y-29.738966
G1X39.604556Y-29.732922
G1X39.626122Y-29.723987
G1X39.649266Y-29.720941
G1X39.671822Y-29.714897
G1X39.695178Y-29.714897
G1X39.718322Y-29.711850
G1X39.741469Y-29.714897
G1X40.923947Y-29.714897
G1X41.013775Y-29.738966
G1X41.094316Y-29.785466
G1X41.160075Y-29.851225
G1X41.160078Y-29.851234
G1X41.277741Y-29.968897
G1X42.542250Y-29.968897
G1X43.436397Y-29.074750
G1X43.436397Y-28.649994
G1X43.460466Y-28.560166
G1X43.506966Y-28.479625
G1X43.572725Y-28.413866
G1X43.653266Y-28.367366
G1X43.743094Y-28.343297
G1X45.718900Y-28.343297
G1X45.808728Y-28.367366
G1X45.889269Y-28.413866
G1X45.955028Y-28.479625
G1X45.979600Y-28.522188
G1X45.979600Y-28.106822
G1X46.454322Y-27.632100
G1X47.125675Y-27.632100
G1X47.600397Y-28.106822
G1X47.600397Y-28.522184
G1X47.624966Y-28.479625
G1X47.690725Y-28.413866
G1X47.771266Y-28.367366
G1X47.861094Y-28.343297
G1X50.681400Y-28.343297
G1X50.771228Y-28.367366
G1X50.851769Y-28.413866
G1X50.917528Y-28.479625
G1X50.942100Y-28.522191
G1X50.942100Y-28.106822
G1X51.416822Y-27.632100
G1X52.088175Y-27.632100
G1X52.562897Y-28.106822
G1X52.562897Y-28.778175
G1X52.250528Y-29.090541
G1X52.271531Y-29.087778
G1X52.294075Y-29.081734
G1X52.317438Y-29.081734
G1X52.340591Y-29.078688
G1X52.363728Y-29.081734
G1X52.387075Y-29.081734
G1X52.409631Y-29.087781
G1X52.432794Y-29.090828
G1X52.454363Y-29.099766
G1X52.476906Y-29.105803
G1X52.497128Y-29.117481
G1X52.518712Y-29.126419
G1X52.537228Y-29.140628
G1X52.557447Y-29.152300
G1X52.573966Y-29.168819
G1X52.592491Y-29.183034
G1X52.606700Y-29.201556
G1X52.623206Y-29.218059
G1X52.634881Y-29.238284
G1X52.649103Y-29.256816
G1X52.658038Y-29.278388
G1X52.669706Y-29.298597
G1X52.671431Y-29.305038
G1X53.094984Y-29.728591
G1X53.320944Y-29.822184
G1X53.343494Y-29.828225
G1X53.363709Y-29.839897
G1X53.385288Y-29.848834
G1X53.403813Y-29.863053
G1X53.424034Y-29.874725
G1X53.440544Y-29.891238
G1X53.459069Y-29.905450
G1X53.473278Y-29.923972
G1X53.489794Y-29.940484
G1X53.501472Y-29.960716
G1X53.515681Y-29.979231
G1X53.524613Y-30.000794
G1X53.536294Y-30.021025
G1X53.542338Y-30.043584
G1X53.551272Y-30.065150
G1X53.554319Y-30.088300
G1X53.560363Y-30.110853
G1X53.560363Y-30.134209
G1X53.563409Y-30.157356
G1X53.560363Y-30.180500
G1X53.560363Y-30.203856
G1X53.554319Y-30.226409
G1X53.551272Y-30.249559
G1X53.542334Y-30.271131
G1X53.536359Y-30.293431
G1X53.575163Y-30.267503
G1X53.721478Y-30.206897
G1X53.876809Y-30.176000
G1X55.343188Y-30.176000
G1X55.498519Y-30.206897
G1X55.644834Y-30.267503
G1X55.683631Y-30.293428
G1X55.677656Y-30.271131
G1X55.668722Y-30.249559
G1X55.665675Y-30.226409
G1X55.659631Y-30.203856
G1X55.659631Y-30.180500
G1X55.656584Y-30.157356
G1X55.659631Y-30.134209
G1X55.659631Y-30.110853
G1X55.665675Y-30.088300
G1X55.668722Y-30.065150
G1X55.677656Y-30.043584
G1X55.683700Y-30.021025
G1X55.695381Y-30.000794
G1X55.704313Y-29.979231
G1X55.718519Y-29.960716
G1X55.730200Y-29.940484
G1X55.746716Y-29.923969
G1X55.760925Y-29.905450
G1X55.779447Y-29.891238
G1X55.795959Y-29.874725
G1X55.816181Y-29.863053
G1X55.834706Y-29.848834
G1X55.856284Y-29.839897
G1X55.876500Y-29.828225
G1X55.899050Y-29.822184
G1X56.125009Y-29.728591
G1X56.552591Y-29.301006
G1X56.783997Y-28.742347
G1X56.783997Y-28.649994
G1X56.808066Y-28.560166
G1X56.854566Y-28.479625
G1X56.920325Y-28.413866
G1X57.000866Y-28.367366
G1X57.090694Y-28.343297
G1X59.749300Y-28.343297
G1X59.839128Y-28.367366
G1X59.919669Y-28.413866
G1X59.985428Y-28.479625
G1X60.031928Y-28.560166
G1X60.055997Y-28.649994
G1X60.055997Y-28.742350
G1X60.287403Y-29.301006
G1X60.714984Y-29.728591
G1X60.940944Y-29.822184
G1X60.963494Y-29.828225
G1X60.983709Y-29.839897
G1X61.005288Y-29.848834
G1X61.023816Y-29.863053
G1X61.044034Y-29.874725
G1X61.060544Y-29.891238
G1X61.079069Y-29.905450
G1X61.093278Y-29.923972
G1X61.109794Y-29.940484
G1X61.121472Y-29.960716
G1X61.135681Y-29.979231
G1X61.144613Y-30.000794
G1X61.156294Y-30.021025
G1X61.162337Y-30.043584
G1X61.171272Y-30.065150
G1X61.174319Y-30.088300
G1X61.180363Y-30.110853
G1X61.180363Y-30.134209
G1X61.183409Y-30.157356
G1X61.180363Y-30.180500
G1X61.180363Y-30.203856
G1X61.174319Y-30.226409
G1X61.171272Y-30.249559
G1X61.162334Y-30.271131
G1X61.156359Y-30.293431
G1X61.195163Y-30.267503
G1X61.341478Y-30.206897
G1X61.496809Y-30.176000
G1X62.963188Y-30.176000
G1X63.118519Y-30.206897
G1X63.264834Y-30.267503
G1X63.303634Y-30.293428
G1X63.297656Y-30.271125
G1X63.288722Y-30.249556
G1X63.285675Y-30.226413
G1X63.279631Y-30.203856
G1X63.279631Y-30.180500
G1X63.276584Y-30.157356
G1X63.279631Y-30.134209
G1X63.279631Y-30.110853
G1X63.285675Y-30.088300
G1X63.288722Y-30.065150
G1X63.297656Y-30.043581
G1X63.303700Y-30.021025
G1X63.315378Y-30.000800
G1X63.324313Y-29.979228
G1X63.338525Y-29.960709
G1X63.350200Y-29.940484
G1X63.366713Y-29.923972
G1X63.380925Y-29.905450
G1X63.399450Y-29.891238
G1X63.415959Y-29.874725
G1X63.436181Y-29.863053
G1X63.454706Y-29.848834
G1X63.476284Y-29.839897
G1X63.496500Y-29.828225
G1X63.519053Y-29.822184
G1X63.691769Y-29.750644
G1X63.711994Y-29.738966
G1X63.734556Y-29.732922
G1X63.756122Y-29.723987
G1X63.779266Y-29.720941
G1X63.801822Y-29.714897
G1X63.825178Y-29.714897
G1X63.848322Y-29.711850
G1X63.871469Y-29.714897
G1X65.053947Y-29.714897
G1X65.143775Y-29.738966
G1X65.224316Y-29.785466
G1X65.290075Y-29.851225
G1X65.290078Y-29.851234
G1X65.407741Y-29.968897
G1X66.672250Y-29.968897
G1X67.408369Y-29.232778
G1X67.408369Y-29.232775
G1X67.459516Y-29.181631
G1X67.474128Y-29.167016
G1X67.554669Y-29.120516
G1X67.644497Y-29.096447
G1X67.737500Y-29.096447
G1X67.827328Y-29.120516
G1X67.907869Y-29.167016
G1X67.973628Y-29.232775
G1X68.020128Y-29.313316
G1X68.044197Y-29.403144
G1X68.044197Y-31.730547
G1X68.047244Y-31.753694
G1X68.044197Y-31.776838
G1X68.044197Y-31.800194
G1X68.038153Y-31.822747
G1X68.035106Y-31.845897
G1X68.026172Y-31.867463
G1X68.020128Y-31.890022
G1X68.008447Y-31.910253
G1X67.999516Y-31.931816
G1X67.985306Y-31.950328
G1X67.973628Y-31.970562
G1X67.957113Y-31.987078
G1X67.942903Y-32.005597
G1X67.924384Y-32.019806
G1X67.907869Y-32.036322
G1X67.887634Y-32.048000
G1X67.869122Y-32.062209
G1X67.847563Y-32.071137
G1X67.827328Y-32.082822
G1X67.804759Y-32.088869
G1X67.530806Y-32.202344
G1X67.072844Y-32.660306
G1X66.824997Y-33.258662
G1X66.824997Y-33.906331
G1X66.988203Y-34.300347
G1X66.999881Y-34.320569
G1X67.005922Y-34.343125
G1X67.014859Y-34.364694
G1X67.017906Y-34.387844
G1X67.023950Y-34.410397
G1X67.023950Y-34.433753
G1X67.026997Y-34.456900
G1X67.023950Y-34.480044
G1X67.023950Y-34.503400
G1X67.017906Y-34.525953
G1X67.014859Y-34.549103
G1X67.005925Y-34.570669
G1X66.999881Y-34.593228
G1X66.988200Y-34.613459
G1X66.979269Y-34.635022
G1X66.965059Y-34.653537
G1X66.953381Y-34.673769
G1X66.936866Y-34.690281
G1X66.922656Y-34.708803
G1X66.904134Y-34.723013
G1X66.887622Y-34.739528
G1X66.867391Y-34.751206
G1X66.848875Y-34.765416
G1X66.827313Y-34.774347
G1X66.807081Y-34.786028
G1X66.784522Y-34.792072
G1X66.762956Y-34.801006
G1X66.739806Y-34.804053
G1X66.717253Y-34.810097
G1X66.693897Y-34.810097
G1X66.670753Y-34.813144
G1X66.647606Y-34.810097
G1X63.931825Y-34.810097
G1X63.908681Y-34.813144
G1X63.885534Y-34.810097
G1X63.862175Y-34.810097
G1X63.839619Y-34.804050
G1X63.816475Y-34.801006
G1X63.794909Y-34.792072
G1X63.772347Y-34.786028
G1X63.752122Y-34.774350
G1X63.519044Y-34.677806
G1X63.496491Y-34.671766
G1X63.476281Y-34.660094
G1X63.454703Y-34.651159
G1X63.436172Y-34.636938
G1X63.415953Y-34.625266
G1X63.399450Y-34.608759
G1X63.380922Y-34.594544
G1X63.366703Y-34.576009
G1X63.350194Y-34.559503
G1X63.338525Y-34.539291
G1X63.324309Y-34.520766
G1X63.315372Y-34.499184
G1X63.303697Y-34.478966
G1X63.297656Y-34.456419
G1X63.288719Y-34.434844
G1X63.285672Y-34.411681
G1X63.279628Y-34.389134
G1X63.279628Y-34.365788
G1X63.276581Y-34.342644
G1X63.279628Y-34.319497
G1X63.279628Y-34.296131
G1X63.285675Y-34.273575
G1X63.288719Y-34.250438
G1X63.297656Y-34.228866
G1X63.303631Y-34.206569
G1X63.264834Y-34.232494
G1X63.118519Y-34.293100
G1X62.963188Y-34.323997
G1X61.496809Y-34.323997
G1X61.341478Y-34.293100
G1X61.195163Y-34.232494
G1X61.156363Y-34.206569
G1X61.162341Y-34.228866
G1X61.171275Y-34.250438
G1X61.174319Y-34.273575
G1X61.180366Y-34.296131
G1X61.180366Y-34.319497
G1X61.183413Y-34.342644
G1X61.180366Y-34.365788
G1X61.180366Y-34.389134
G1X61.174325Y-34.411681
G1X61.171275Y-34.434847
G1X61.162334Y-34.456425
G1X61.156297Y-34.478966
G1X61.144625Y-34.499181
G1X61.135684Y-34.520766
G1X61.121469Y-34.539291
G1X61.109800Y-34.559503
G1X61.093291Y-34.576013
G1X61.079072Y-34.594544
G1X61.060547Y-34.608759
G1X61.044041Y-34.625266
G1X61.023822Y-34.636938
G1X61.005291Y-34.651159
G1X60.983713Y-34.660097
G1X60.963503Y-34.671766
G1X60.940950Y-34.677809
G1X60.714984Y-34.771403
G1X60.287403Y-35.198988
G1X60.055997Y-35.757647
G1X60.055997Y-36.362344
G1X60.264169Y-36.864906
G1X60.275844Y-36.885125
G1X60.281884Y-36.907672
G1X60.290822Y-36.929247
G1X60.293869Y-36.952403
G1X60.299913Y-36.974953
G1X60.299913Y-36.998306
G1X60.302959Y-37.021453
G1X60.299913Y-37.044597
G1X60.299913Y-37.067956
G1X60.293869Y-37.090513
G1X60.290822Y-37.113656
G1X60.281888Y-37.135222
G1X60.275844Y-37.157784
G1X60.264166Y-37.178009
G1X60.255234Y-37.199575
G1X60.241025Y-37.218094
G1X60.229344Y-37.238325
G1X60.212822Y-37.254847
G1X60.198619Y-37.273356
G1X60.180106Y-37.287562
G1X60.163584Y-37.304084
G1X60.143356Y-37.315763
G1X60.124841Y-37.329972
G1X60.103266Y-37.338906
G1X60.083044Y-37.350584
G1X60.060494Y-37.356625
G1X60.038922Y-37.365563
G1X60.015766Y-37.368609
G1X59.993216Y-37.374653
G1X59.969863Y-37.374653
G1X59.946719Y-37.377700
G1X59.923572Y-37.374653
G1X59.900213Y-37.374653
G1X59.877656Y-37.368609
G1X59.854513Y-37.365563
G1X59.832947Y-37.356628
G1X59.810384Y-37.350584
G1X59.790159Y-37.338906
G1X59.768594Y-37.329975
G1X59.750075Y-37.315766
G1X59.729844Y-37.304084
G1X59.713322Y-37.287562
G1X59.694813Y-37.273359
G1X59.680606Y-37.254847
G1X57.841850Y-35.416091
G1X57.495700Y-35.069941
G1X57.065387Y-34.891697
G1X56.345100Y-34.891697
G1X56.255272Y-34.867628
G1X56.174731Y-34.821128
G1X56.125009Y-34.771403
G1X55.899044Y-34.677809
G1X55.876491Y-34.671766
G1X55.856281Y-34.660097
G1X55.834703Y-34.651159
G1X55.816172Y-34.636938
G1X55.795953Y-34.625266
G1X55.779450Y-34.608759
G1X55.760922Y-34.594544
G1X55.746703Y-34.576009
G1X55.730194Y-34.559503
G1X55.718525Y-34.539291
G1X55.704309Y-34.520766
G1X55.695369Y-34.499181
G1X55.683697Y-34.478966
G1X55.677659Y-34.456425
G1X55.668719Y-34.434847
G1X55.665669Y-34.411681
G1X55.659628Y-34.389134
G1X55.659628Y-34.365788
G1X55.656581Y-34.342644
G1X55.659628Y-34.319497
G1X55.659628Y-34.296131
G1X55.665675Y-34.273575
G1X55.668719Y-34.250438
G1X55.677656Y-34.228866
G1X55.683631Y-34.206569
G1X55.644834Y-34.232494
G1X55.498519Y-34.293100
G1X55.343188Y-34.323997
G1X53.876809Y-34.323997
G1X53.721478Y-34.293100
G1X53.575163Y-34.232494
G1X53.536363Y-34.206566
G1X53.542338Y-34.228866
G1X53.551275Y-34.250438
G1X53.554319Y-34.273575
G1X53.560366Y-34.296131
G1X53.560366Y-34.319497
G1X53.563413Y-34.342644
G1X53.560366Y-34.365788
G1X53.560366Y-34.389134
G1X53.554322Y-34.411681
G1X53.551275Y-34.434847
G1X53.542334Y-34.456425
G1X53.536297Y-34.478966
G1X53.524622Y-34.499181
G1X53.515684Y-34.520766
G1X53.501469Y-34.539291
G1X53.489800Y-34.559503
G1X53.473291Y-34.576013
G1X53.459072Y-34.594544
G1X53.440544Y-34.608759
G1X53.424041Y-34.625266
G1X53.403822Y-34.636938
G1X53.385291Y-34.651159
G1X53.363713Y-34.660094
G1X53.343503Y-34.671766
G1X53.320950Y-34.677809
G1X53.094984Y-34.771403
G1X52.667403Y-35.198988
G1X52.435997Y-35.757644
G1X52.435997Y-36.362350
G1X52.667403Y-36.921013
G1X52.793756Y-37.047362
G1X52.793766Y-37.047366
G1X52.859525Y-37.113125
G1X52.906025Y-37.193666
G1X52.923369Y-37.258400
G1X52.930094Y-37.283491
G1X52.930094Y-37.376497
G1X52.906025Y-37.466325
G1X52.859525Y-37.546866
G1X52.667403Y-37.738988
G1X52.435997Y-38.297644
G1X52.435997Y-38.902350
G1X52.667403Y-39.461009
G1X53.094984Y-39.888591
G1X53.320950Y-39.982188
G1X53.343503Y-39.988228
G1X53.363713Y-39.999900
G1X53.385291Y-40.008834
G1X53.403822Y-40.023056
G1X53.424041Y-40.034728
G1X53.440544Y-40.051234
G1X53.459072Y-40.065450
G1X53.473291Y-40.083984
G1X53.489800Y-40.100491
G1X53.501469Y-40.120703
G1X53.515684Y-40.139228
G1X53.524622Y-40.160812
G1X53.536297Y-40.181028
G1X53.542334Y-40.203569
G1X53.551275Y-40.225147
G1X53.554322Y-40.248313
G1X53.560366Y-40.270859
G1X53.560366Y-40.294206
G1X53.563413Y-40.317353
G1X53.560366Y-40.340497
G1X53.560366Y-40.363863
G1X53.554319Y-40.386419
G1X53.551275Y-40.409556
G1X53.542338Y-40.431128
G1X53.536363Y-40.453431
G1X53.575163Y-40.427503
G1X53.721478Y-40.366897
G1X53.876809Y-40.336000
G1X55.343188Y-40.336000
G1X55.498519Y-40.366897
G1X55.644834Y-40.427503
G1X55.683631Y-40.453428
G1X55.677653Y-40.431128
G1X55.668719Y-40.409556
G1X55.665675Y-40.386419
G1X55.659628Y-40.363863
G1X55.659628Y-40.340500
G1X55.656581Y-40.317356
G1X55.659628Y-40.294209
G1X55.659628Y-40.270859
G1X55.665672Y-40.248309
G1X55.668719Y-40.225150
G1X55.677656Y-40.203575
G1X55.683697Y-40.181028
G1X55.695372Y-40.160809
G1X55.704309Y-40.139228
G1X55.718525Y-40.120703
G1X55.730194Y-40.100491
G1X55.746703Y-40.083981
G1X55.760922Y-40.065450
G1X55.779447Y-40.051234
G1X55.795953Y-40.034728
G1X55.816172Y-40.023056
G1X55.834703Y-40.008834
G1X55.856281Y-39.999897
G1X55.876491Y-39.988228
G1X55.899044Y-39.982184
G1X56.071766Y-39.910644
G1X56.091991Y-39.898966
G1X56.114553Y-39.892922
G1X56.136119Y-39.883988
G1X56.159263Y-39.880941
G1X56.181819Y-39.874897
G1X56.205175Y-39.874897
G1X56.228319Y-39.871850
G1X56.251466Y-39.874897
G1X56.523150Y-39.874897
G1X56.612978Y-39.898966
G1X56.693519Y-39.945466
G1X56.759278Y-40.011225
G1X58.367028Y-41.618975
G1X58.413528Y-41.699516
G1X58.437597Y-41.789344
G1X58.437597Y-44.748256
G1X58.413528Y-44.838084
G1X58.367028Y-44.918625
G1X58.329844Y-44.955806
G1X58.081997Y-45.554163
G1X58.081997Y-47.725831
G1X58.329844Y-48.324188
G1X58.787806Y-48.782150
G1X59.386163Y-49.029997
G1X60.033831Y-49.029997
G1X60.632184Y-48.782150
G1X60.677366Y-48.736969
G1X60.677366Y-48.736966
G1X60.740109Y-48.674225
G1X60.743122Y-48.671209
G1X60.743125Y-48.671206
G1X60.800306Y-48.638194
G1X60.823659Y-48.624709
G1X60.823663Y-48.624709
G1X60.823666Y-48.624706
G1X60.879213Y-48.609825
G1X60.913491Y-48.600638
G1X61.006497Y-48.600638
G1X61.096325Y-48.624706
G1X61.141797Y-48.650959
G1X61.176863Y-48.671203
G1X61.242622Y-48.736963
G1X61.287806Y-48.782150
G1X61.886163Y-49.029997
G1X62.533831Y-49.029997
G1X63.132188Y-48.782150
G1X63.590150Y-48.324188
G1X63.837997Y-47.725831
G1X63.837997Y-45.554163
G1X63.590150Y-44.955806
G1X63.572966Y-44.938625
G1X63.526466Y-44.858084
G1X63.502397Y-44.768256
G1X63.502397Y-42.788228
G1X63.499350Y-42.765084
G1X63.502397Y-42.741937
G1X63.502397Y-42.718581
G1X63.508441Y-42.696028
G1X63.511488Y-42.672878
G1X63.520422Y-42.651313
G1X63.526466Y-42.628753
G1X63.538147Y-42.608522
G1X63.547078Y-42.586959
G1X63.561288Y-42.568447
G1X63.572966Y-42.548213
G1X63.589481Y-42.531697
G1X63.603691Y-42.513178
G1X63.622209Y-42.498969
G1X63.638725Y-42.482453
G1X63.658959Y-42.470775
G1X63.677472Y-42.456566
G1X63.699034Y-42.447637
G1X63.719266Y-42.435953
G1X63.741831Y-42.429909
G1X63.745006Y-42.428594
G1X64.172588Y-42.001013
G1X64.181897Y-41.978531
G1X64.187938Y-41.955987
G1X64.199603Y-41.935784
G1X64.208541Y-41.914203
G1X64.222763Y-41.895672
G1X64.234434Y-41.875450
G1X64.250941Y-41.858947
G1X64.265153Y-41.840422
G1X64.283687Y-41.826203
G1X64.300197Y-41.809691
G1X64.320416Y-41.798019
G1X64.338934Y-41.783806
G1X64.360503Y-41.774872
G1X64.380734Y-41.763191
G1X64.403297Y-41.757147
G1X64.424853Y-41.748216
G1X64.448003Y-41.745169
G1X64.470566Y-41.739122
G1X64.493919Y-41.739122
G1X64.517056Y-41.736075
G1X64.540209Y-41.739122
G1X64.563566Y-41.739122
G1X64.586103Y-41.745162
G1X64.609262Y-41.748209
G1X64.630856Y-41.757156
G1X64.653397Y-41.763194
G1X64.673600Y-41.774859
G1X64.695181Y-41.783797
G1X64.713712Y-41.798019
G1X64.733934Y-41.809691
G1X64.750441Y-41.826200
G1X64.768963Y-41.840409
G1X64.783178Y-41.858938
G1X64.999291Y-42.075053
G1X65.429606Y-42.253297
G1X67.221656Y-42.253297
G1X67.311484Y-42.277366
G1X67.392025Y-42.323866
G1X67.457784Y-42.389625
G1X67.457784Y-42.389628
G1X67.530806Y-42.462650
G1X68.129163Y-42.710497
G1X70.300831Y-42.710497
G1X70.899184Y-42.462653
G1X71.357150Y-42.004688
G1X71.604997Y-41.406331
G1X71.604997Y-40.758662
G1X71.357150Y-40.160306
G1X71.246206Y-40.049366
G1X71.246203Y-40.049363
G1X71.227144Y-40.016344
G1X71.199706Y-39.968825
G1X71.175638Y-39.878997
G1X71.175638Y-39.785991
G1X71.184075Y-39.754513
G1X71.199706Y-39.696166
G1X71.199709Y-39.696162
G1X71.199709Y-39.696159
G1X71.211144Y-39.676356
G1X71.246206Y-39.615625
G1X71.311966Y-39.549866
G1X71.311969Y-39.549866
G1X71.357150Y-39.504684
G1X71.604997Y-38.906331
G1X71.604997Y-38.258662
G1X71.357150Y-37.660309
G1X71.311969Y-37.615128
G1X71.311966Y-37.615128
G1X71.249225Y-37.552384
G1X71.246209Y-37.549372
G1X71.246206Y-37.549369
G1X71.213194Y-37.492188
G1X71.199709Y-37.468834
G1X71.199709Y-37.468831
G1X71.199706Y-37.468828
G1X71.184825Y-37.413281
G1X71.175638Y-37.379003
G1X71.175638Y-37.285997
G1X71.199706Y-37.196169
G1X71.225959Y-37.150697
G1X71.246203Y-37.115631
G1X71.311963Y-37.049872
G1X71.357150Y-37.004688
G1X71.604997Y-36.406331
G1X71.604997Y-35.758662
G1X71.357150Y-35.160309
G1X71.311969Y-35.115128
G1X71.311966Y-35.115128
G1X71.249225Y-35.052384
G1X71.246209Y-35.049372
G1X71.246206Y-35.049369
G1X71.213194Y-34.992188
G1X71.199709Y-34.968834
G1X71.199709Y-34.968831
G1X71.199706Y-34.968828
G1X71.184825Y-34.913281
G1X71.175638Y-34.879003
G1X71.175638Y-34.785997
G1X71.199706Y-34.696169
G1X71.225959Y-34.650697
G1X71.246203Y-34.615631
G1X71.311963Y-34.549872
G1X71.357150Y-34.504688
G1X71.604997Y-33.906331
G1X71.604997Y-33.258662
G1X71.357150Y-32.660306
G1X70.899187Y-32.202344
G1X70.625234Y-32.088866
G1X70.602666Y-32.082822
G1X70.582434Y-32.071137
G1X70.560872Y-32.062209
G1X70.542356Y-32.048000
G1X70.522125Y-32.036322
G1X70.505612Y-32.019806
G1X70.487091Y-32.005597
G1X70.472881Y-31.987075
G1X70.456366Y-31.970562
G1X70.444688Y-31.950331
G1X70.430478Y-31.931816
G1X70.421547Y-31.910253
G1X70.409866Y-31.890022
G1X70.403822Y-31.867463
G1X70.394888Y-31.845897
G1X70.391841Y-31.822747
G1X70.385797Y-31.800194
G1X70.385797Y-31.776838
G1X70.382750Y-31.753694
G1X70.385797Y-31.730547
G1X70.385797Y-28.209606
G1X70.207553Y-27.779291
G1X68.954350Y-26.526091
G1X68.608200Y-26.179941
G1X68.177887Y-26.001697
G1X67.873094Y-26.001697
G1X67.783266Y-25.977628
G1X67.702725Y-25.931128
G1X67.636966Y-25.865369
G1X67.590466Y-25.784828
G1X67.566397Y-25.695000
G1X67.566397Y-25.270244
G1X67.098781Y-24.802628
G1X67.098778Y-24.802628
G1X67.043453Y-24.747300
G1X67.033019Y-24.736869
G1X66.986519Y-24.656331
G1X66.962450Y-24.566500
G1X66.962450Y-24.473497
G1X66.985497Y-24.387494
G1X66.986519Y-24.383669
G1X67.033019Y-24.303128
G1X67.098778Y-24.237369
G1X67.606397Y-23.729750
G1X67.606397Y-22.465244
G1X66.712466Y-21.571313
G1X66.712463Y-21.571313
G1X66.663778Y-21.522625
G1X66.646703Y-21.505553
G1X66.600203Y-21.425013
G1X66.576134Y-21.335184
G1X66.576134Y-21.242181
G1X66.588853Y-21.194716
G1X66.415675Y-21.367897
G1X65.744322Y-21.367897
G1X65.571141Y-21.194713
G1X65.583859Y-21.242181
G1X65.583859Y-21.335184
G1X65.559791Y-21.425013
G1X65.513291Y-21.505553
G1X65.447531Y-21.571313
G1X65.001816Y-22.017028
G1X64.921275Y-22.063528
G1X64.831447Y-22.087597
G1X63.907503Y-22.087597
G1X63.884359Y-22.090644
G1X63.861213Y-22.087597
G1X63.837856Y-22.087597
G1X63.815303Y-22.081553
G1X63.792153Y-22.078506
G1X63.770584Y-22.069572
G1X63.748028Y-22.063528
G1X63.727803Y-22.051850
G1X63.216347Y-21.839997
G1X61.303644Y-21.839997
G1X60.744988Y-22.071403
G1X60.317403Y-22.498988
G1X60.085997Y-23.057644
G1X60.085997Y-23.662350
G1X60.317403Y-24.221013
G1X60.433756Y-24.337363
G1X60.433766Y-24.337366
G1X60.499525Y-24.403125
G1X60.546025Y-24.483666
G1X60.563369Y-24.548400
G1X60.570094Y-24.573491
G1X60.570094Y-24.666497
G1X60.546025Y-24.756325
G1X60.499525Y-24.836866
G1X60.297403Y-25.038988
G1X60.065997Y-25.597644
G1X60.065997Y-25.695000
G1X60.041928Y-25.784828
G1X59.995428Y-25.865369
G1X59.929669Y-25.931128
G1X59.849128Y-25.977628
G1X59.759300Y-26.001697
G1X57.090694Y-26.001697
G1X57.000866Y-25.977628
G1X56.920325Y-25.931128
G1X56.854566Y-25.865369
G1X56.808066Y-25.784828
G1X56.783997Y-25.695000
G1X56.783997Y-25.597644
G1X56.552591Y-25.038984
G1X56.505272Y-24.991666
G1X56.486750Y-24.977456
G1X56.472541Y-24.958934
G1X56.456025Y-24.942422
G1X56.444347Y-24.922187
G1X56.430138Y-24.903675
G1X56.421206Y-24.882113
G1X56.409525Y-24.861881
G1X56.403481Y-24.839322
G1X56.394547Y-24.817756
G1X56.391500Y-24.794606
G1X56.385456Y-24.772053
G1X56.385456Y-24.748697
G1X56.382409Y-24.725553
G1X56.385456Y-24.702406
G1X56.385456Y-24.679050
G1X56.391500Y-24.656497
G1X56.394547Y-24.633347
G1X56.403484Y-24.611778
G1X56.409525Y-24.589222
G1X56.421203Y-24.569000
G1X56.745997Y-23.784878
G1X56.745997Y-23.777841
G1X56.752041Y-23.755288
G1X56.755088Y-23.732138
G1X56.764025Y-23.710569
G1X56.770066Y-23.688013
G1X56.781741Y-23.667794
G1X56.783997Y-23.662344
G1X56.783997Y-23.057653
G1X56.781741Y-23.052200
G1X56.770066Y-23.031981
G1X56.764022Y-23.009428
G1X56.755088Y-22.987856
G1X56.752041Y-22.964706
G1X56.745997Y-22.942153
G1X56.745997Y-22.935116
G1X56.420813Y-22.150050
G1X44.057609Y-9.786850
G1X43.379966Y-9.109206
G1X43.333466Y-9.028666
G1X43.309397Y-8.938837
G1X43.309397Y-8.821672
G1X42.880675Y-9.250397
G1X42.209322Y-9.250397
G1X41.752138Y-8.793209
G1X41.610006Y-8.793209
G1X41.563728Y-8.819928
G1X41.473900Y-8.843997
G1X37.266094Y-8.843997
G1X37.176266Y-8.819928
G1X37.129987Y-8.793209
G1X36.987859Y-8.793209
G1X36.530675Y-9.250397
G1X35.859322Y-9.250397
G1X35.402138Y-8.793209
G1X35.260006Y-8.793209
G1X35.213728Y-8.819928
G1X35.123900Y-8.843997
G1X18.533594Y-8.843997
G1X18.443766Y-8.819928
G1X18.397488Y-8.793209
G1X18.255359Y-8.793209
G1X17.798175Y-9.250397
G1X17.126822Y-9.250397
G1X16.669638Y-8.793209
G1X16.527506Y-8.793209
G1X16.481228Y-8.819928
G1X16.391400Y-8.843997
G1X14.088594Y-8.843997
G1X13.998766Y-8.819928
G1X13.952488Y-8.793209
G1X13.810359Y-8.793209
G1X13.353175Y-9.250397
G1X12.681822Y-9.250397
G1X12.224638Y-8.793209
G1X12.082506Y-8.793209
G1X12.036228Y-8.819928
G1X11.946400Y-8.843997
G1X8.792694Y-8.843997
G1X8.702866Y-8.819928
G1X8.622325Y-8.773428
G1X8.556566Y-8.707669
G1X8.510066Y-8.627128
G1X8.485997Y-8.537300
G1X8.485997Y-5.167694
G1X8.510066Y-5.077866
G1X8.556566Y-4.997325
G1X8.622325Y-4.931566
G1X8.702866Y-4.885066
G1X8.792694Y-4.860997
G1X9.384944Y-4.860997
G1X9.408091Y-4.857950
G1X9.431234Y-4.860997
G1X9.454591Y-4.860997
G1X9.477144Y-4.867041
G1X9.500294Y-4.870088
G1X9.521863Y-4.879022
G1X9.544419Y-4.885066
G1X9.564644Y-4.896744
G1X9.846269Y-5.013397
G1X10.473728Y-5.013397
G1X11.053406Y-4.773284
G1X11.168931Y-4.657759
G1X11.183144Y-4.639234
G1X11.201663Y-4.625028
G1X11.218172Y-4.608516
G1X11.238406Y-4.596834
G1X11.256928Y-4.582622
G1X11.278491Y-4.573691
G1X11.298713Y-4.562016
G1X11.321278Y-4.555969
G1X11.369944Y-4.535813
G1X11.749947Y-4.155806
G1X11.760941Y-4.140672
G1X11.782691Y-4.123063
G1X11.802481Y-4.103269
G1X11.818688Y-4.093916
G1X11.833216Y-4.082147
G1X11.858772Y-4.070772
G1X11.883019Y-4.056769
G1X11.901094Y-4.051928
G1X11.918172Y-4.044322
G1X11.945809Y-4.039947
G1X11.972850Y-4.032700
G1X11.991559Y-4.032700
G1X12.010028Y-4.029775
G1X12.037856Y-4.032700
G1X12.065850Y-4.032700
G1X12.083244Y-4.037363
G1X12.031063Y-3.985181
G1X11.936816Y-3.844131
G1X11.871897Y-3.687403
G1X11.838800Y-3.521022
G1X11.838800Y-1.928975
G1X11.871897Y-1.762594
G1X11.936816Y-1.605866
G1X12.031063Y-1.464816
G1X12.151016Y-1.344863
G1X12.292066Y-1.250616
G1X12.448794Y-1.185697
G1X12.615175Y-1.152600
G1X12.784822Y-1.152600
G1X12.951203Y-1.185697
G1X13.107931Y-1.250616
G1X13.248981Y-1.344863
G1X13.350900Y-1.446784
G1X13.349384Y-1.439656
G1X13.351334Y-1.402434
G1X13.351334Y-1.365194
G1X13.353759Y-1.356144
G1X13.354250Y-1.346781
G1X13.365759Y-1.311362
G1X13.375403Y-1.275366
G1X13.380094Y-1.267244
G1X13.382988Y-1.258334
G1X13.403269Y-1.227103
G1X13.421903Y-1.194825
G1X13.428531Y-1.188200
G1X13.433634Y-1.180338
G1X13.461319Y-1.155412
G1X13.487663Y-1.129066
G1X13.495781Y-1.124378
G1X13.502747Y-1.118106
G1X13.535947Y-1.101191
G1X13.568203Y-1.082566
G1X13.577253Y-1.080141
G1X13.585606Y-1.075884
G1X13.622063Y-1.068134
G1X13.658031Y-1.058497
G1X13.667400Y-1.058497
G1X13.676572Y-1.056547
G1X13.713794Y-1.058497
G1X78.827300Y-1.058497
G1X78.917128Y-1.082566
G1X78.997669Y-1.129066
G1X79.063428Y-1.194825
G1X79.109928Y-1.275366
G1X79.133997Y-1.365194
G1X79.133997Y-59.327300
G1X79.109928Y-59.417128
G1X79.063428Y-59.497669
G1X78.997669Y-59.563428
G1X78.917128Y-59.609928
G1X78.827300Y-59.633997
G1X1.172694Y-59.633997
G1X1.082866Y-59.609928
G1X1.002325Y-59.563428
G1X0.936566Y-59.497669
G1X0.890066Y-59.417128
G1X0.865997Y-59.327300
G1X0.865997Y-1.365194
G1X0.890066Y-1.275366
G1X0.936566Y-1.194825
G1X1.002325Y-1.129066
G1X1.082866Y-1.082566
G1X1.172694Y-1.058497
G1X4.176547Y-1.058497
G1X4.199691Y-1.055450
G1X4.222837Y-1.058497
G1X4.246197Y-1.058497
G1X4.268753Y-1.064541
G1X4.291897Y-1.067588
G1X4.313466Y-1.076522
G1X4.336025Y-1.082566
G1X4.356244Y-1.094241
G1X4.377819Y-1.103175
G1X4.396344Y-1.117394
G1X4.416566Y-1.129066
G1X4.433078Y-1.145578
G1X4.451600Y-1.159791
G1X4.465813Y-1.178313
G1X4.482325Y-1.194825
G1X4.494000Y-1.215047
G1X4.508212Y-1.233569
G1X4.517147Y-1.255141
G1X4.528825Y-1.275366
G1X4.534869Y-1.297922
G1X4.543803Y-1.319491
G1X4.546850Y-1.342641
G1X4.552894Y-1.365194
G1X4.552894Y-1.388547
G1X4.555941Y-1.411691
G1X4.552894Y-1.434837
G1X4.552894Y-1.458197
G1X4.546850Y-1.480753
G1X4.543803Y-1.503897
G1X4.534869Y-1.525463
G1X4.528825Y-1.548025
G1X4.517147Y-1.568250
G1X4.347550Y-1.977703
G1X4.341509Y-2.000247
G1X4.329844Y-2.020450
G1X4.320903Y-2.042038
G1X4.306681Y-2.060572
G1X4.295009Y-2.080788
G1X4.278500Y-2.097294
G1X4.264288Y-2.115819
G1X4.245766Y-2.130031
G1X4.229250Y-2.146547
G1X4.209028Y-2.158219
G1X4.190509Y-2.172431
G1X4.168931Y-2.181369
G1X4.148709Y-2.193044
G1X4.126163Y-2.199084
G1X4.104588Y-2.208022
G1X4.081431Y-2.211069
G1X4.058881Y-2.217113
G1X4.035531Y-2.217113
G1X4.012387Y-2.220159
G1X3.989241Y-2.217113
G1X3.965878Y-2.217113
G1X3.943325Y-2.211069
G1X3.920181Y-2.208022
G1X3.898603Y-2.199084
G1X3.876050Y-2.193041
G1X3.855844Y-2.181372
G1X3.834259Y-2.172434
G1X3.815725Y-2.158213
G1X3.795509Y-2.146541
G1X3.779003Y-2.130031
G1X3.760478Y-2.115819
G1X3.746266Y-2.097294
G1X3.660481Y-2.011509
G1X3.231934Y-1.833997
G1X2.768059Y-1.833997
G1X2.339513Y-2.011509
G1X2.011509Y-2.339513
G1X1.833997Y-2.768059
G1X1.833997Y-3.231934
G1X2.011509Y-3.660481
G1X2.339513Y-3.988484
G1X2.768059Y-4.165997
G1X3.231934Y-4.165997
G1X3.702353Y-3.971141
G1X3.722375Y-3.959409
G1X3.723481Y-3.959106
G1X3.724469Y-3.958534
G1X3.748022Y-3.952225
G1X3.768350Y-3.943803
G1X3.789125Y-3.941069
G1X3.812050Y-3.934769
G1X3.813194Y-3.934763
G1X3.814297Y-3.934466
G1X3.839284Y-3.934466
G1X3.860556Y-3.931666
G1X3.880809Y-3.934334
G1X3.905050Y-3.934178
G1X3.906150Y-3.934466
G1X3.907300Y-3.934466
G1X3.931900Y-3.941059
G1X3.952759Y-3.943803
G1X3.971266Y-3.951469
G1X3.995031Y-3.957675
G1X3.996019Y-3.958238
G1X3.997128Y-3.958534
G1X4.019491Y-3.971447
G1X4.038678Y-3.979394
G1X4.054359Y-3.991428
G1X4.075863Y-4.003659
G1X4.076672Y-4.004459
G1X4.077669Y-4.005034
G1X4.096047Y-4.023416
G1X4.112459Y-4.036006
G1X4.124444Y-4.051628
G1X4.142041Y-4.069000
G1X4.142616Y-4.069981
G1X4.143428Y-4.070794
G1X4.156425Y-4.093306
G1X4.169072Y-4.109788
G1X4.176634Y-4.128047
G1X4.189053Y-4.149241
G1X4.189356Y-4.150347
G1X4.189928Y-4.151334
G1X4.196606Y-4.176259
G1X4.204663Y-4.195706
G1X4.207275Y-4.215559
G1X4.213694Y-4.238916
G1X4.213700Y-4.240059
G1X4.213997Y-4.241163
G1X4.213997Y-4.266616
G1X4.216800Y-4.287913
G1X4.214131Y-4.308166
G1X4.214284Y-4.331916
G1X4.213997Y-4.333016
G1X4.213997Y-15.306400
G1X4.189928Y-15.396228
G1X4.143428Y-15.476769
G1X4.077669Y-15.542528
G1X3.997128Y-15.589028
G1X3.907300Y-15.613097
G1X3.874169Y-15.613097
G1X4.302897Y-16.041822
G1X4.302897Y-16.713175
G1X3.874172Y-17.141897
G1X3.907300Y-17.141897
G1X3.997128Y-17.165966
G1X4.077669Y-17.212466
G1X4.143428Y-17.278225
G1X4.189928Y-17.358766
G1X4.213997Y-17.448594
G1X4.213997Y-19.116400
G1X4.189928Y-19.206228
G1X4.143428Y-19.286769
G1X4.077669Y-19.352528
G1X3.997128Y-19.399028
G1X3.907300Y-19.423097
G1X3.874169Y-19.423097
G1X4.302897Y-19.851822
G1X4.302897Y-20.523175
G1X3.874172Y-20.951897
G1X3.907300Y-20.951897
G1X3.997128Y-20.975966
G1X4.077669Y-21.022466
G1X4.143428Y-21.088225
G1X4.189928Y-21.168766
G1X4.213997Y-21.258594
G1X4.213997Y-22.872513
G1X4.217044Y-22.895659
G1X4.213997Y-22.918803
G1X4.213997Y-22.942156
G1X4.207953Y-22.964706
G1X4.204906Y-22.987863
G1X4.195969Y-23.009434
G1X4.189928Y-23.031984
G1X4.178253Y-23.052206
G1X4.175997Y-23.057653
G1X4.175997Y-23.662344
G1X4.178253Y-23.667791
G1X4.189928Y-23.688009
G1X4.195969Y-23.710559
G1X4.204906Y-23.732131
G1X4.207953Y-23.755288
G1X4.213997Y-23.777838
G1X4.213997Y-23.784872
G1X4.247747Y-23.866350
G1X4.259422Y-23.886569
G1X4.265462Y-23.909119
G1X4.274400Y-23.930691
G1X4.277447Y-23.953847
G1X4.283491Y-23.976397
G1X4.283491Y-23.999750
G1X4.286538Y-24.022897
G1X4.283491Y-24.046041
G1X4.283491Y-24.069400
G1X4.277444Y-24.091956
G1X4.274400Y-24.115100
G1X4.265466Y-24.136666
G1X4.259422Y-24.159228
G1X4.247744Y-24.179453
G1X4.238812Y-24.201019
G1X4.224600Y-24.219541
G1X4.212922Y-24.239769
G1X4.196409Y-24.256278
G1X4.182200Y-24.274800
G1X4.163675Y-24.289013
G1X4.147163Y-24.305528
G1X4.126938Y-24.317203
G1X4.108419Y-24.331416
G1X4.086844Y-24.340350
G1X4.066622Y-24.352028
G1X4.044072Y-24.358069
G1X4.022500Y-24.367006
G1X3.999344Y-24.370053
G1X3.976794Y-24.376097
G1X3.953441Y-24.376097
G1X3.930297Y-24.379144
G1X3.907150Y-24.376097
G1X2.860244Y-24.376097
G1X1.966097Y-25.270244
G1X1.966097Y-26.534750
G1X2.925791Y-27.494444
G1X2.972291Y-27.574984
G1X2.996359Y-27.664813
G1X2.996359Y-27.757816
G1X2.983637Y-27.805284
G1X3.156822Y-27.632100
G1X3.828175Y-27.632100
G1X4.302897Y-28.106822
G1X4.302897Y-28.778175
G1X3.990522Y-29.090547
G1X4.011522Y-29.087781
G1X4.034078Y-29.081738
G1X4.057437Y-29.081738
G1X4.080584Y-29.078691
G1X4.103728Y-29.081738
G1X4.127081Y-29.081738
G1X4.149631Y-29.087781
G1X4.172788Y-29.090828
G1X4.194359Y-29.099766
G1X4.216909Y-29.105806
G1X4.237131Y-29.117484
G1X4.258706Y-29.126419
G1X4.277225Y-29.140631
G1X4.297450Y-29.152306
G1X4.313966Y-29.168822
G1X4.332488Y-29.183034
G1X4.346697Y-29.201553
G1X4.363209Y-29.218066
G1X4.374887Y-29.238294
G1X4.389100Y-29.256816
G1X4.398031Y-29.278381
G1X4.409709Y-29.298606
G1X4.411431Y-29.305038
G1X4.834984Y-29.728591
G1X5.060944Y-29.822184
G1X5.083494Y-29.828225
G1X5.103709Y-29.839897
G1X5.125288Y-29.848834
G1X5.143816Y-29.863053
G1X5.164034Y-29.874725
G1X5.180544Y-29.891238
G1X5.199069Y-29.905450
G1X5.213278Y-29.923972
G1X5.229794Y-29.940484
G1X5.241472Y-29.960716
G1X5.255681Y-29.979231
G1X5.264613Y-30.000794
G1X5.276294Y-30.021025
G1X5.282338Y-30.043584
G1X5.291272Y-30.065150
G1X5.294319Y-30.088300
G1X5.300363Y-30.110853
G1X5.300363Y-30.134209
G1X5.303409Y-30.157356
G1X5.300363Y-30.180500
G1X5.300363Y-30.203856
G1X5.294319Y-30.226409
G1X5.291272Y-30.249559
G1X5.282334Y-30.271131
G1X5.276359Y-30.293431
G1X5.315163Y-30.267503
G1X5.461478Y-30.206897
G1X5.616809Y-30.176000
G1X7.083188Y-30.176000
G1X7.238519Y-30.206897
G1X7.384834Y-30.267503
G1X7.423634Y-30.293428
G1X7.417659Y-30.271131
G1X7.408722Y-30.249559
G1X7.405675Y-30.226409
G1X7.399631Y-30.203856
G1X7.399631Y-30.180500
G1X7.396584Y-30.157356
G1X7.399631Y-30.134209
G1X7.399631Y-30.110853
G1X7.405675Y-30.088300
G1X7.408722Y-30.065150
G1X7.417656Y-30.043584
G1X7.423700Y-30.021025
G1X7.435381Y-30.000794
G1X7.444313Y-29.979231
G1X7.458519Y-29.960719
G1X7.470200Y-29.940484
G1X7.486716Y-29.923969
G1X7.500925Y-29.905450
G1X7.519450Y-29.891238
G1X7.535959Y-29.874725
G1X7.556181Y-29.863053
G1X7.574706Y-29.848834
G1X7.596284Y-29.839897
G1X7.616500Y-29.828225
G1X7.639050Y-29.822184
G1X7.865009Y-29.728591
G1X8.292591Y-29.301006
G1X8.523997Y-28.742350
G1X8.523997Y-28.649994
G1X8.548066Y-28.560166
G1X8.594566Y-28.479625
G1X8.660325Y-28.413866
G1X8.740866Y-28.367366
G1X8.830694Y-28.343297
G1X11.489300Y-28.343297
G1X11.579128Y-28.367366
G1X11.659669Y-28.413866
G1X11.725428Y-28.479625
G1X11.771928Y-28.560166
G1X11.795997Y-28.649994
G1X11.795997Y-28.742350
G1X12.027403Y-29.301009
G1X12.454984Y-29.728591
G1X12.680944Y-29.822184
G1X12.703494Y-29.828225
G1X12.723709Y-29.839897
G1X12.745287Y-29.848834
G1X12.763813Y-29.863053
G1X12.784034Y-29.874725
G1X12.800544Y-29.891238
G1X12.819069Y-29.905450
G1X12.833278Y-29.923972
G1X12.849794Y-29.940484
G1X12.861472Y-29.960716
G1X12.875681Y-29.979231
G1X12.884613Y-30.000794
G1X12.896294Y-30.021025
G1X12.902337Y-30.043584
G1X12.911272Y-30.065150
G1X12.914319Y-30.088300
G1X12.920363Y-30.110853
G1X12.920363Y-30.134209
G1X12.923409Y-30.157356
G1X12.920363Y-30.180500
G1X12.920363Y-30.203856
G1X12.914319Y-30.226409
G1X12.911272Y-30.249559
G1X12.902334Y-30.271131
G1X12.896359Y-30.293431
G1X12.935163Y-30.267503
G1X13.081478Y-30.206897
G1X13.236809Y-30.176000
G1X14.703188Y-30.176000
G1X14.858519Y-30.206897
G1X15.004834Y-30.267503
G1X15.043634Y-30.293431
G1X15.037659Y-30.271131
G1X15.028722Y-30.249559
G1X15.025675Y-30.226409
G1X15.019631Y-30.203856
G1X15.019631Y-30.180500
G1X15.016584Y-30.157356
G1X15.019631Y-30.134209
G1X15.019631Y-30.110853
G1X15.025675Y-30.088300
G1X15.028722Y-30.065150
G1X15.037656Y-30.043584
G1X15.043700Y-30.021025
G1X15.055381Y-30.000794
G1X15.064313Y-29.979231
G1X15.078522Y-29.960719
G1X15.090200Y-29.940484
G1X15.106716Y-29.923972
G1X15.120925Y-29.905450
G1X15.139450Y-29.891238
G1X15.155959Y-29.874725
G1X15.176181Y-29.863053
G1X15.194706Y-29.848834
G1X15.216284Y-29.839897
G1X15.236500Y-29.828225
G1X15.259050Y-29.822184
G1X15.437800Y-29.748144
G1X15.458028Y-29.736466
G1X15.480591Y-29.730422
G1X15.502153Y-29.721488
G1X15.525294Y-29.718444
G1X15.547856Y-29.712397
G1X15.571222Y-29.712397
G1X15.594359Y-29.709350
G1X15.617494Y-29.712397
G1X16.791447Y-29.712397
G1X16.881275Y-29.736466
G1X16.961816Y-29.782966
G1X17.027575Y-29.848725
G1X17.027578Y-29.848734
G1X17.147741Y-29.968897
G1X18.412250Y-29.968897
G1X19.306397Y-29.074750
G1X19.306397Y-28.649994
G1X19.330466Y-28.560166
G1X19.376966Y-28.479625
G1X19.442725Y-28.413866
G1X19.523266Y-28.367366
G1X19.613094Y-28.343297
G1X21.588900Y-28.343297
G1X21.678728Y-28.367366
G1X21.759269Y-28.413866
G1X21.825028Y-28.479625
G1X21.849600Y-28.522188
G1X21.849600Y-28.106822
G1X22.324322Y-27.632100
G1X22.995675Y-27.632100
G1X23.470397Y-28.106822
G1X23.470397Y-28.522181
G1X23.494966Y-28.479625
G1X23.560725Y-28.413866
G1X23.641266Y-28.367366
G1X23.731094Y-28.343297
G1X26.551400Y-28.343297
G1X26.641228Y-28.367366
G1X26.721769Y-28.413866
G1X26.787528Y-28.479625
G1X26.812100Y-28.522188
G1X26.812100Y-28.106822
G1X27.286822Y-27.632100
G1X27.958175Y-27.632100
G1X28.432897Y-28.106822

G0Z2
G0X27.958175Y-26.712897
G1Z-0.100 f25
G1X27.286822Y-26.712897 f200
G1X26.812100Y-26.238175
G1X26.812100Y-25.566822
G1X27.286822Y-25.092100
G1X27.958175Y-25.092100
G1X28.209675Y-25.343600
G1X29.245369Y-25.343600
G1X29.313478Y-25.275491
G1X29.445163Y-25.187503
G1X29.591478Y-25.126897
G1X29.746809Y-25.096000
G1X31.213188Y-25.096000
G1X31.368519Y-25.126897
G1X31.514834Y-25.187503
G1X31.646519Y-25.275491
G1X31.758506Y-25.387478
G1X31.846494Y-25.519163
G1X31.907100Y-25.665478
G1X31.937997Y-25.820809
G1X31.937997Y-25.979188
G1X31.907100Y-26.134519
G1X31.846494Y-26.280834
G1X31.758506Y-26.412519
G1X31.646519Y-26.524506
G1X31.514834Y-26.612494
G1X31.368519Y-26.673100
G1X31.213188Y-26.703997
G1X29.746809Y-26.703997
G1X29.591478Y-26.673100
G1X29.445163Y-26.612494
G1X29.313478Y-26.524506
G1X29.245369Y-26.456397
G1X28.214675Y-26.456397
G1X27.958175Y-26.712897

G0Z2
G0X3.828175Y-26.712897
G1Z-0.100 f25
G1X3.156822Y-26.712897 f200
G1X2.682100Y-26.238175
G1X2.682100Y-25.566822
G1X3.156822Y-25.092100
G1X3.828175Y-25.092100
G1X4.079675Y-25.343600
G1X5.115369Y-25.343600
G1X5.183478Y-25.275491
G1X5.315163Y-25.187503
G1X5.461478Y-25.126897
G1X5.616809Y-25.096000
G1X7.083188Y-25.096000
G1X7.238519Y-25.126897
G1X7.384834Y-25.187503
G1X7.516519Y-25.275491
G1X7.628506Y-25.387478
G1X7.716494Y-25.519163
G1X7.777100Y-25.665478
G1X7.807997Y-25.820809
G1X7.807997Y-25.979188
G1X7.777100Y-26.134519
G1X7.716494Y-26.280834
G1X7.628506Y-26.412519
G1X7.516519Y-26.524506
G1X7.384834Y-26.612494
G1X7.238519Y-26.673100
G1X7.083188Y-26.703997
G1X5.616809Y-26.703997
G1X5.461478Y-26.673100
G1X5.315163Y-26.612494
G1X5.183478Y-26.524506
G1X5.115369Y-26.456397
G1X4.084675Y-26.456397
G1X3.828175Y-26.712897

G0Z2
G0X66.850397Y-25.566822
G1Z-0.100 f25
G1X66.850397Y-26.238175 f200
G1X66.375675Y-26.712897
G1X65.704322Y-26.712897
G1X65.447822Y-26.456397
G1X63.474625Y-26.456397
G1X63.406519Y-26.524506
G1X63.274834Y-26.612494
G1X63.128519Y-26.673100
G1X62.973188Y-26.703997
G1X61.506809Y-26.703997
G1X61.351478Y-26.673100
G1X61.205163Y-26.612494
G1X61.073478Y-26.524506
G1X60.961491Y-26.412519
G1X60.873503Y-26.280834
G1X60.812897Y-26.134519
G1X60.782000Y-25.979188
G1X60.782000Y-25.820809
G1X60.812897Y-25.665478
G1X60.873503Y-25.519163
G1X60.961491Y-25.387478
G1X61.073478Y-25.275491
G1X61.205163Y-25.187503
G1X61.351478Y-25.126897
G1X61.506809Y-25.096000
G1X62.973188Y-25.096000
G1X63.128519Y-25.126897
G1X63.274834Y-25.187503
G1X63.406519Y-25.275491
G1X63.474625Y-25.343600
G1X65.452822Y-25.343600
G1X65.704322Y-25.092100
G1X66.375675Y-25.092100
G1X66.850397Y-25.566822

G0Z2
G0X66.850397Y-28.106822
G1Z-0.100 f25
G1X66.850397Y-28.778175 f200
G1X66.375675Y-29.252897
G1X65.704322Y-29.252897
G1X65.450322Y-28.998897
G1X63.462125Y-28.998897
G1X63.396519Y-29.064506
G1X63.264834Y-29.152494
G1X63.118519Y-29.213100
G1X62.963188Y-29.243997
G1X61.496809Y-29.243997
G1X61.341478Y-29.213100
G1X61.195163Y-29.152494
G1X61.063478Y-29.064506
G1X60.951491Y-28.952519
G1X60.863503Y-28.820834
G1X60.802897Y-28.674519
G1X60.772000Y-28.519188
G1X60.772000Y-28.360809
G1X60.802897Y-28.205478
G1X60.863503Y-28.059163
G1X60.951491Y-27.927478
G1X61.063478Y-27.815491
G1X61.195163Y-27.727503
G1X61.341478Y-27.666897
G1X61.496809Y-27.636000
G1X62.963188Y-27.636000
G1X63.118519Y-27.666897
G1X63.264834Y-27.727503
G1X63.396519Y-27.815491
G1X63.467125Y-27.886100
G1X65.450322Y-27.886100
G1X65.704322Y-27.632100
G1X66.375675Y-27.632100
G1X66.850397Y-28.106822

G0Z2
G0X18.590397Y-25.566822
G1Z-0.100 f25
G1X18.590397Y-26.238175 f200
G1X18.115675Y-26.712897
G1X17.444322Y-26.712897
G1X17.187822Y-26.456397
G1X15.214625Y-26.456397
G1X15.146519Y-26.524506
G1X15.014834Y-26.612494
G1X14.868519Y-26.673100
G1X14.713188Y-26.703997
G1X13.246809Y-26.703997
G1X13.091478Y-26.673100
G1X12.945163Y-26.612494
G1X12.813478Y-26.524506
G1X12.701491Y-26.412519
G1X12.613503Y-26.280834
G1X12.552897Y-26.134519
G1X12.522000Y-25.979188
G1X12.522000Y-25.820809
G1X12.552897Y-25.665478
G1X12.613503Y-25.519163
G1X12.701491Y-25.387478
G1X12.813478Y-25.275491
G1X12.945163Y-25.187503
G1X13.091478Y-25.126897
G1X13.246809Y-25.096000
G1X14.713188Y-25.096000
G1X14.868519Y-25.126897
G1X15.014834Y-25.187503
G1X15.146519Y-25.275491
G1X15.214625Y-25.343600
G1X17.192822Y-25.343600
G1X17.444322Y-25.092100
G1X18.115675Y-25.092100
G1X18.590397Y-25.566822

G0Z2
G0X18.590397Y-28.106822
G1Z-0.100 f25
G1X18.590397Y-28.778175 f200
G1X18.115675Y-29.252897
G1X17.444322Y-29.252897
G1X17.187822Y-28.996397
G1X15.204625Y-28.996397
G1X15.136519Y-29.064506
G1X15.004834Y-29.152494
G1X14.858519Y-29.213100
G1X14.703188Y-29.243997
G1X13.236809Y-29.243997
G1X13.081478Y-29.213100
G1X12.935163Y-29.152494
G1X12.803478Y-29.064506
G1X12.691491Y-28.952519
G1X12.603503Y-28.820834
G1X12.542897Y-28.674519
G1X12.512000Y-28.519188
G1X12.512000Y-28.360809
G1X12.542897Y-28.205478
G1X12.603503Y-28.059163
G1X12.691491Y-27.927478
G1X12.803478Y-27.815491
G1X12.935163Y-27.727503
G1X13.081478Y-27.666897
G1X13.236809Y-27.636000
G1X14.703188Y-27.636000
G1X14.858519Y-27.666897
G1X15.004834Y-27.727503
G1X15.136519Y-27.815491
G1X15.204625Y-27.883600
G1X17.192822Y-27.883600
G1X17.444322Y-27.632100
G1X18.115675Y-27.632100
G1X18.590397Y-28.106822

G0Z2
G0X66.890397Y-22.761822
G1Z-0.100 f25
G1X66.890397Y-23.433175 f200
G1X66.415675Y-23.907897
G1X65.922472Y-23.907897
G1X65.890750Y-23.916397
G1X63.494625Y-23.916397
G1X63.426519Y-23.984506
G1X63.294834Y-24.072494
G1X63.148519Y-24.133100
G1X62.993188Y-24.163997
G1X61.526809Y-24.163997
G1X61.371478Y-24.133100
G1X61.225163Y-24.072494
G1X61.093478Y-23.984506
G1X60.981491Y-23.872519
G1X60.893503Y-23.740834
G1X60.832897Y-23.594519
G1X60.802000Y-23.439188
G1X60.802000Y-23.280809
G1X60.832897Y-23.125478
G1X60.893503Y-22.979163
G1X60.981491Y-22.847478
G1X61.093478Y-22.735491
G1X61.225163Y-22.647503
G1X61.371478Y-22.586897
G1X61.526809Y-22.556000
G1X62.993188Y-22.556000
G1X63.148519Y-22.586897
G1X63.294834Y-22.647503
G1X63.426519Y-22.735491
G1X63.494625Y-22.803600
G1X65.269600Y-22.803600
G1X65.269600Y-22.761822
G1X65.744322Y-22.287100
G1X66.415675Y-22.287100
G1X66.890397Y-22.761822

G0Z2
G0X61.298000Y-47.491825
G1Z-0.100 f25
G1X61.298000Y-45.788172 f200
G1X61.333047Y-45.611978
G1X61.401797Y-45.446003
G1X61.501603Y-45.296631
G1X61.628631Y-45.169603
G1X61.673600Y-45.139556
G1X61.673600Y-41.943997
G1X61.496809Y-41.943997
G1X61.341478Y-41.913100
G1X61.195163Y-41.852494
G1X61.063478Y-41.764506
G1X60.951491Y-41.652519
G1X60.863503Y-41.520834
G1X60.802897Y-41.374519
G1X60.772000Y-41.219188
G1X60.772000Y-41.060809
G1X60.802897Y-40.905478
G1X60.863503Y-40.759163
G1X60.951491Y-40.627478
G1X61.063478Y-40.515491
G1X61.195163Y-40.427503
G1X61.341478Y-40.366897
G1X61.496809Y-40.336000
G1X62.963188Y-40.336000
G1X63.118519Y-40.366897
G1X63.264834Y-40.427503
G1X63.396519Y-40.515491
G1X63.508506Y-40.627478
G1X63.596494Y-40.759163
G1X63.657100Y-40.905478
G1X63.687997Y-41.060809
G1X63.687997Y-41.219188
G1X63.657100Y-41.374519
G1X63.596494Y-41.520834
G1X63.508506Y-41.652519
G1X63.396519Y-41.764506
G1X63.264834Y-41.852494
G1X63.118519Y-41.913100
G1X62.963188Y-41.943997
G1X62.786397Y-41.943997
G1X62.786397Y-45.166284
G1X62.791366Y-45.169603
G1X62.918394Y-45.296631
G1X63.018200Y-45.446003
G1X63.086950Y-45.611978
G1X63.121997Y-45.788172
G1X63.121997Y-47.491825
G1X63.086950Y-47.668019
G1X63.018200Y-47.833994
G1X62.918394Y-47.983366
G1X62.791366Y-48.110394
G1X62.641994Y-48.210200
G1X62.476019Y-48.278950
G1X62.299825Y-48.313997
G1X62.120172Y-48.313997
