(This G-Code generated with CNC-DRILL-GCODE.ulp program)
(running under Eagle CAD.)

N00010  M03 S3000
G00 Z2.00 F400
(----------------------------------------------------------)
( Drill size=0.600mm )
(----------------------------------------------------------)
N00020  G00 X3.000 Y-3.000
N00030  G1Z-1.70f50
N00040  G00 Z5.00 F400
N00050  G00 X77.000 Y-3.000
N00060  G1Z-1.70f50
N00070  G00 Z5.00 F400
N00080  G00 X77.000 Y-57.000
N00090  G1Z-1.70f50
N00100  G00 Z5.00 F400
N00110  G00 X3.000 Y-57.000
N00120  G1Z-1.70f50
N00130  G00 Z5.00 F400
(----------------------------------------------------------)
( Drill size=0.800mm )
(----------------------------------------------------------)
N00140  G00 X6.350 Y-23.360
N00150  G1Z-1.70f50
N00160  G00 Z5.00 F400
N00170  G00 X6.350 Y-25.900
N00180  G1Z-1.70f50
N00190  G00 Z5.00 F400
N00200  G00 X6.350 Y-28.440
N00210  G1Z-1.70f50
N00220  G00 Z5.00 F400
N00230  G00 X6.350 Y-30.980
N00240  G1Z-1.70f50
N00250  G00 Z5.00 F400
N00260  G00 X13.970 Y-28.440
N00270  G1Z-1.70f50
N00280  G00 Z5.00 F400
N00290  G00 X13.970 Y-30.980
N00300  G1Z-1.70f50
N00310  G00 Z5.00 F400
N00320  G00 X13.980 Y-25.900
N00330  G1Z-1.70f50
N00340  G00 Z5.00 F400
N00350  G00 X14.000 Y-23.360
N00360  G1Z-1.70f50
N00370  G00 Z5.00 F400
N00380  G00 X30.480 Y-23.360
N00390  G1Z-1.70f50
N00400  G00 Z5.00 F400
N00410  G00 X30.480 Y-25.900
N00420  G1Z-1.70f50
N00430  G00 Z5.00 F400
N00440  G00 X30.480 Y-28.440
N00450  G1Z-1.70f50
N00460  G00 Z5.00 F400
N00470  G00 X30.480 Y-30.980
N00480  G1Z-1.70f50
N00490  G00 Z5.00 F400
N00500  G00 X38.100 Y-28.440
N00510  G1Z-1.70f50
N00520  G00 Z5.00 F400
N00530  G00 X38.100 Y-30.980
N00540  G1Z-1.70f50
N00550  G00 Z5.00 F400
N00560  G00 X38.110 Y-25.900
N00570  G1Z-1.70f50
N00580  G00 Z5.00 F400
N00590  G00 X38.130 Y-23.360
N00600  G1Z-1.70f50
N00610  G00 Z5.00 F400
N00620  G00 X54.610 Y-23.360
N00630  G1Z-1.70f50
N00640  G00 Z5.00 F400
N00650  G00 X54.610 Y-25.900
N00660  G1Z-1.70f50
N00670  G00 Z5.00 F400
N00680  G00 X54.610 Y-28.440
N00690  G1Z-1.70f50
N00700  G00 Z5.00 F400
N00710  G00 X54.610 Y-30.980
N00720  G1Z-1.70f50
N00730  G00 Z5.00 F400
N00740  G00 X62.230 Y-28.440
N00750  G1Z-1.70f50
N00760  G00 Z5.00 F400
N00770  G00 X62.230 Y-30.980
N00780  G1Z-1.70f50
N00790  G00 Z5.00 F400
N00800  G00 X62.240 Y-25.900
N00810  G1Z-1.70f50
N00820  G00 Z5.00 F400
N00830  G00 X62.260 Y-23.360
N00840  G1Z-1.70f50
N00850  G00 Z5.00 F400
N00860  G00 X6.350 Y-33.520
N00870  G1Z-1.70f50
N00880  G00 Z5.00 F400
N00890  G00 X13.970 Y-33.520
N00900  G1Z-1.70f50
N00910  G00 Z5.00 F400
N00920  G00 X30.480 Y-33.520
N00930  G1Z-1.70f50
N00940  G00 Z5.00 F400
N00950  G00 X38.100 Y-33.520
N00960  G1Z-1.70f50
N00970  G00 Z5.00 F400
N00980  G00 X54.610 Y-33.520
N00990  G1Z-1.70f50
N01000  G00 Z5.00 F400
N01010  G00 X62.230 Y-33.520
N01020  G1Z-1.70f50
N01030  G00 Z5.00 F400
N01040  G00 X13.970 Y-36.060
N01050  G1Z-1.70f50
N01060  G00 Z5.00 F400
N01070  G00 X6.350 Y-36.060
N01080  G1Z-1.70f50
N01090  G00 Z5.00 F400
N01100  G00 X38.100 Y-36.060
N01110  G1Z-1.70f50
N01120  G00 Z5.00 F400
N01130  G00 X30.480 Y-36.060
N01140  G1Z-1.70f50
N01150  G00 Z5.00 F400
N01160  G00 X62.230 Y-36.060
N01170  G1Z-1.70f50
N01180  G00 Z5.00 F400
N01190  G00 X54.610 Y-36.060
N01200  G1Z-1.70f50
N01210  G00 Z5.00 F400
N01220  G00 X6.350 Y-38.600
N01230  G1Z-1.70f50
N01240  G00 Z5.00 F400
N01250  G00 X13.970 Y-38.600
N01260  G1Z-1.70f50
N01270  G00 Z5.00 F400
N01280  G00 X30.480 Y-38.600
N01290  G1Z-1.70f50
N01300  G00 Z5.00 F400
N01310  G00 X38.100 Y-38.600
N01320  G1Z-1.70f50
N01330  G00 Z5.00 F400
N01340  G00 X54.610 Y-38.600
N01350  G1Z-1.70f50
N01360  G00 Z5.00 F400
N01370  G00 X62.230 Y-38.600
N01380  G1Z-1.70f50
N01390  G00 Z5.00 F400
N01400  G00 X13.970 Y-41.140
N01410  G1Z-1.70f50
N01420  G00 Z5.00 F400
N01430  G00 X6.350 Y-41.140
N01440  G1Z-1.70f50
N01450  G00 Z5.00 F400
N01460  G00 X38.100 Y-41.140
N01470  G1Z-1.70f50
N01480  G00 Z5.00 F400
N01490  G00 X30.480 Y-41.140
N01500  G1Z-1.70f50
N01510  G00 Z5.00 F400
N01520  G00 X62.230 Y-41.140
N01530  G1Z-1.70f50
N01540  G00 Z5.00 F400
N01550  G00 X54.610 Y-41.140
N01560  G1Z-1.70f50
N01570  G00 Z5.00 F400
(----------------------------------------------------------)
( Drill size=0.813mm )
(----------------------------------------------------------)
N01580  G00 X13.018 Y-8.440
N01590  G1Z-1.70f50
N01600  G00 Z5.00 F400
N01610  G00 X13.018 Y-10.980
N01620  G1Z-1.70f50
N01630  G00 Z5.00 F400
N01640  G00 X17.463 Y-8.440
N01650  G1Z-1.70f50
N01660  G00 Z5.00 F400
N01670  G00 X17.463 Y-10.980
N01680  G1Z-1.70f50
N01690  G00 Z5.00 F400
N01700  G00 X36.195 Y-8.440
N01710  G1Z-1.70f50
N01720  G00 Z5.00 F400
N01730  G00 X36.195 Y-10.980
N01740  G1Z-1.70f50
N01750  G00 Z5.00 F400
N01760  G00 X42.545 Y-8.440
N01770  G1Z-1.70f50
N01780  G00 Z5.00 F400
N01790  G00 X42.545 Y-10.980
N01800  G1Z-1.70f50
N01810  G00 Z5.00 F400
N01820  G00 X6.033 Y-16.378
N01830  G1Z-1.70f50
N01840  G00 Z5.00 F400
N01850  G00 X3.493 Y-16.378
N01860  G1Z-1.70f50
N01870  G00 Z5.00 F400
N01880  G00 X6.033 Y-20.188
N01890  G1Z-1.70f50
N01900  G00 Z5.00 F400
N01910  G00 X3.493 Y-20.188
N01920  G1Z-1.70f50
N01930  G00 Z5.00 F400
N01940  G00 X66.080 Y-20.558
N01950  G1Z-1.70f50
N01960  G00 Z5.00 F400
N01970  G00 X66.080 Y-23.098
N01980  G1Z-1.70f50
N01990  G00 Z5.00 F400
N02000  G00 X51.753 Y-25.902
N02010  G1Z-1.70f50
N02020  G00 Z5.00 F400
N02030  G00 X27.623 Y-25.902
N02040  G1Z-1.70f50
N02050  G00 Z5.00 F400
N02060  G00 X3.493 Y-25.902
N02070  G1Z-1.70f50
N02080  G00 Z5.00 F400
N02090  G00 X66.040 Y-25.902
N02100  G1Z-1.70f50
N02110  G00 Z5.00 F400
N02120  G00 X41.910 Y-25.902
N02130  G1Z-1.70f50
N02140  G00 Z5.00 F400
N02150  G00 X17.780 Y-25.902
N02160  G1Z-1.70f50
N02170  G00 Z5.00 F400
N02180  G00 X46.790 Y-25.902
N02190  G1Z-1.70f50
N02200  G00 Z5.00 F400
N02210  G00 X22.660 Y-25.902
N02220  G1Z-1.70f50
N02230  G00 Z5.00 F400
N02240  G00 X51.753 Y-28.443
N02250  G1Z-1.70f50
N02260  G00 Z5.00 F400
N02270  G00 X27.623 Y-28.443
N02280  G1Z-1.70f50
N02290  G00 Z5.00 F400
N02300  G00 X3.493 Y-28.443
N02310  G1Z-1.70f50
N02320  G00 Z5.00 F400
N02330  G00 X66.040 Y-28.443
N02340  G1Z-1.70f50
N02350  G00 Z5.00 F400
N02360  G00 X41.910 Y-28.443
N02370  G1Z-1.70f50
N02380  G00 Z5.00 F400
N02390  G00 X17.780 Y-28.443
N02400  G1Z-1.70f50
N02410  G00 Z5.00 F400
N02420  G00 X46.790 Y-28.443
N02430  G1Z-1.70f50
N02440  G00 Z5.00 F400
N02450  G00 X22.660 Y-28.443
N02460  G1Z-1.70f50
N02470  G00 Z5.00 F400
(----------------------------------------------------------)
( Drill size=0.914mm )
(----------------------------------------------------------)
N02480  G00 X10.160 Y-2.725
N02490  G1Z-1.70f50
N02500  G00 Z5.00 F400
N02510  G00 X12.700 Y-2.725
N02520  G1Z-1.70f50
N02530  G00 Z5.00 F400
(----------------------------------------------------------)
( Drill size=1.016mm )
(----------------------------------------------------------)
N02540  G00 X19.367 Y-36.102
N02550  G1Z-1.70f50
N02560  G00 Z5.00 F400
N02570  G00 X43.498 Y-36.102
N02580  G1Z-1.70f50
N02590  G00 Z5.00 F400
N02600  G00 X69.215 Y-33.583
N02610  G1Z-1.70f50
N02620  G00 Z5.00 F400
N02630  G00 X69.215 Y-36.083
N02640  G1Z-1.70f50
N02650  G00 Z5.00 F400
N02660  G00 X69.215 Y-38.583
N02670  G1Z-1.70f50
N02680  G00 Z5.00 F400
N02690  G00 X19.367 Y-38.602
N02700  G1Z-1.70f50
N02710  G00 Z5.00 F400
N02720  G00 X43.498 Y-38.602
N02730  G1Z-1.70f50
N02740  G00 Z5.00 F400
N02750  G00 X69.215 Y-41.083
N02760  G1Z-1.70f50
N02770  G00 Z5.00 F400
N02780  G00 X19.367 Y-41.102
N02790  G1Z-1.70f50
N02800  G00 Z5.00 F400
N02810  G00 X43.498 Y-41.102
N02820  G1Z-1.70f50
N02830  G00 Z5.00 F400
N02840  G00 X13.950 Y-46.640
N02850  G1Z-1.70f50
N02860  G00 Z5.00 F400
N02870  G00 X11.450 Y-46.640
N02880  G1Z-1.70f50
N02890  G00 Z5.00 F400
N02900  G00 X38.080 Y-46.640
N02910  G1Z-1.70f50
N02920  G00 Z5.00 F400
N02930  G00 X35.580 Y-46.640
N02940  G1Z-1.70f50
N02950  G00 Z5.00 F400
N02960  G00 X62.210 Y-46.640
N02970  G1Z-1.70f50
N02980  G00 Z5.00 F400
N02990  G00 X59.710 Y-46.640
N03000  G1Z-1.70f50
N03010  G00 Z5.00 F400

(----------------------------------------------------------)
N03020  G00 Z2.00 F400
N03030  G00 X0 Y0 F400
N03040  M05 
