(This GCode generated with outlines_gcode_excel_mirrored.ulp program)
(running under Eagle CAD.)
(Use with mechanical etching/engraving bits, such as the)
(Think&Tinker Mechanical Etching Bit with 60-degree tip angle)
(X/Y/Z home should be at lower left corner of the board, with the tip just touching)
(C:/Users/umaibow/Documents/eagle/robot_2014/S9706_color_bot.nc layer 16)

(mm, Absolute mode, lift cutter above work, rapid to X/Y home, turn spindle on.)
G90
G0Z5.000
G0X0Y0
M03

(Begin)
G0Z2
G0X14.473288Y-83.485834
G1Z-0.100 f25
G1X14.014156Y-83.026706 f200
G1X13.451837Y-82.702050
G1X12.824650Y-82.533997
G1X12.175344Y-82.533997
G1X11.548156Y-82.702050
G1X10.985834Y-83.026706
G1X10.526709Y-83.485831
G1X10.202050Y-84.048156
G1X10.033997Y-84.675344
G1X10.033997Y-85.324650
G1X10.202050Y-85.951838
G1X10.526706Y-86.514156
G1X10.985838Y-86.973287
G1X11.548156Y-87.297944
G1X12.175344Y-87.465997
G1X12.824650Y-87.465997
G1X13.451837Y-87.297944
G1X14.014156Y-86.973287
G1X14.473288Y-86.514156
G1X14.797944Y-85.951838
G1X14.965997Y-85.324650
G1X14.965997Y-84.675344
G1X14.797944Y-84.048156
G1X14.473288Y-83.485834

G0Z2
G0X16.420809Y-41.236000
G1Z-0.100 f25
G1X16.840588Y-41.236000 f200
G1X16.823784Y-41.223106
G1X16.803550Y-41.211428
G1X16.787034Y-41.194913
G1X16.768516Y-41.180703
G1X16.754303Y-41.162178
G1X16.737791Y-41.145669
G1X16.726119Y-41.125447
G1X16.711900Y-41.106922
G1X16.702966Y-41.085344
G1X16.691291Y-41.065128
G1X16.685250Y-41.042575
G1X16.676313Y-41.021003
G1X16.673266Y-40.997853
G1X16.667222Y-40.975300
G1X16.667222Y-40.951944
G1X16.664175Y-40.928800
G1X16.667222Y-40.905653
G1X16.667222Y-40.882297
G1X16.673266Y-40.859744
G1X16.676313Y-40.836594
G1X16.685247Y-40.815028
G1X16.691291Y-40.792469
G1X16.702972Y-40.772238
G1X16.711903Y-40.750675
G1X16.726112Y-40.732163
G1X16.737791Y-40.711928
G1X16.754306Y-40.695413
G1X16.768516Y-40.676894
G1X16.787041Y-40.662681
G1X16.803550Y-40.646169
G1X16.823772Y-40.634497
G1X16.842297Y-40.620278
G1X16.863875Y-40.611341
G1X16.884091Y-40.599669
G1X16.906641Y-40.593628
G1X17.160484Y-40.488484
G1X17.488484Y-40.160481
G1X17.665997Y-39.731934
G1X17.665997Y-39.268059
G1X17.488484Y-38.839509
G1X17.160484Y-38.511509
G1X16.731934Y-38.333997
G1X16.268059Y-38.333997
G1X15.839509Y-38.511509
G1X15.511509Y-38.839509
G1X15.333997Y-39.268059
G1X15.333997Y-39.731934
G1X15.511509Y-40.160484
G1X15.839509Y-40.488484
G1X16.236153Y-40.652778
G1X16.249909Y-40.655703
G1X16.278997Y-40.670525
G1X16.309106Y-40.682997
G1X16.320244Y-40.691544
G1X16.332769Y-40.697925
G1X16.357009Y-40.719753
G1X16.382888Y-40.739609
G1X16.391444Y-40.750763
G1X16.401878Y-40.760156
G1X16.419638Y-40.787506
G1X16.439500Y-40.813391
G1X16.444875Y-40.826372
G1X16.452528Y-40.838153
G1X16.462606Y-40.869172
G1X16.475091Y-40.899309
G1X16.476925Y-40.913241
G1X16.481266Y-40.926600
G1X16.482972Y-40.959187
G1X16.487228Y-40.991516
G1X16.485397Y-41.005434
G1X16.486131Y-41.019475
G1X16.479347Y-41.051394
G1X16.475091Y-41.083719
G1X16.469716Y-41.096691
G1X16.466794Y-41.110441
G1X16.451975Y-41.139522
G1X16.439500Y-41.169638
G1X16.430953Y-41.180775
G1X16.424572Y-41.193300
G1X16.402744Y-41.217541
G1X16.382888Y-41.243419
G1X16.382666Y-41.243588
G1X16.420809Y-41.236000

G0Z2
G0X14.473288Y6.514156
G1Z-0.100 f25
G1X14.014156Y6.973288 f200
G1X13.451837Y7.297944
G1X12.824650Y7.465997
G1X12.175344Y7.465997
G1X11.548156Y7.297944
G1X10.985838Y6.973288
G1X10.526706Y6.514156
G1X10.202050Y5.951837
G1X10.033997Y5.324650
G1X10.033997Y4.675344
G1X10.202050Y4.048156
G1X10.526706Y3.485838
G1X10.985838Y3.026706
G1X11.548156Y2.702050
G1X12.175344Y2.533997
G1X12.824650Y2.533997
G1X13.451837Y2.702050
G1X14.014159Y3.026706
G1X14.473288Y3.485838
G1X14.797944Y4.048156
G1X14.965997Y4.675344
G1X14.965997Y5.324647
G1X14.797944Y5.951837
G1X14.473288Y6.514156

G0Z2
G0X18.418056Y-55.374397
G1Z-0.100 f25
G1X18.441100Y-55.380572 f200
G1X18.507881Y-55.398466
G1X18.588422Y-55.444966
G1X18.654181Y-55.510725
G1X18.654181Y-55.510728
G1X18.670250Y-55.526797
G1X19.429744Y-55.526797
G1X19.966797Y-54.989744
G1X19.966797Y-54.230250
G1X19.429744Y-53.693197
G1X18.670250Y-53.693197
G1X18.654181Y-53.709266
G1X18.654181Y-53.709269
G1X18.591822Y-53.771625
G1X18.588425Y-53.775025
G1X18.588422Y-53.775028
G1X18.507881Y-53.821528
G1X18.443147Y-53.838872
G1X18.418056Y-53.845597
G1X9.521937Y-53.845597
G1X9.498894Y-53.839419
G1X9.432113Y-53.821528
G1X9.351572Y-53.775028
G1X9.285813Y-53.709269
G1X9.285813Y-53.709266
G1X9.269744Y-53.693197
G1X8.510250Y-53.693197
G1X7.973197Y-54.230250
G1X7.973197Y-54.989744
G1X8.510250Y-55.526797
G1X9.269744Y-55.526797
G1X9.285813Y-55.510728
G1X9.285813Y-55.510725
G1X9.348172Y-55.448369
G1X9.351569Y-55.444969
G1X9.351572Y-55.444966
G1X9.432113Y-55.398466
G1X9.496847Y-55.381122
G1X9.521937Y-55.374397
G1X18.418053Y-55.374397
G1X18.418056Y-55.374397

G0Z2
G0X19.860397Y-54.274322
G1Z-0.100 f25
G1X19.860397Y-54.945675 f200
G1X19.385675Y-55.420397
G1X18.714322Y-55.420397
G1X18.561925Y-55.267997
G1X9.378072Y-55.267997
G1X9.225675Y-55.420397
G1X8.554322Y-55.420397
G1X8.079600Y-54.945675
G1X8.079600Y-54.274322
G1X8.554322Y-53.799600
G1X9.225675Y-53.799600
G1X9.378072Y-53.952000
G1X18.561925Y-53.952000
G1X18.714322Y-53.799600
G1X19.385675Y-53.799600
G1X19.860397Y-54.274322

G0Z2
G0X12.768000Y-5.931825
G1Z-0.100 f25
G1X12.768000Y-4.228172 f200
G1X12.773378Y-4.201141
G1X12.767134Y-4.209281
G1X12.741241Y-4.229150
G1X12.717016Y-4.250962
G1X12.704509Y-4.257334
G1X12.693353Y-4.265897
G1X12.663209Y-4.278381
G1X12.634156Y-4.293188
G1X12.620403Y-4.296109
G1X12.607431Y-4.301484
G1X12.575113Y-4.305738
G1X12.543191Y-4.312525
G1X12.529150Y-4.311788
G1X12.515231Y-4.313622
G1X12.482906Y-4.309366
G1X12.450316Y-4.307659
G1X12.436956Y-4.303316
G1X12.423025Y-4.301484
G1X12.392884Y-4.288997
G1X12.361869Y-4.278922
G1X12.350091Y-4.271272
G1X12.337103Y-4.265894
G1X12.311228Y-4.246037
G1X12.283872Y-4.228275
G1X12.274472Y-4.217831
G1X12.263325Y-4.209281
G1X12.243456Y-4.183388
G1X12.221644Y-4.159162
G1X12.215272Y-4.146656
G1X12.206709Y-4.135500
G1X12.194222Y-4.105350
G1X12.179419Y-4.076303
G1X12.176497Y-4.062559
G1X12.043356Y-3.741119
G1X11.756875Y-3.454638
G1X11.382575Y-3.299597
G1X10.977419Y-3.299597
G1X10.603119Y-3.454638
G1X10.316634Y-3.741122
G1X10.274103Y-3.843803
G1X10.274103Y-3.843813
G1X10.238513Y-3.929731
G1X10.195856Y-3.985319
G1X10.181900Y-4.003509
G1X10.181897Y-4.003509
G1X10.181897Y-4.003513
G1X10.108116Y-4.060125
G1X10.058809Y-4.080547
G1X10.022200Y-4.095713
G1X9.929997Y-4.107850
G1X9.929994Y-4.107850
G1X9.837788Y-4.095713
G1X9.751869Y-4.060122
G1X9.696281Y-4.017466
G1X9.678091Y-4.003509
G1X9.678091Y-4.003506
G1X9.678088Y-4.003506
G1X9.621475Y-3.929725
G1X9.600641Y-3.879419
G1X9.585888Y-3.843809
G1X9.585888Y-3.843803
G1X9.543356Y-3.741119
G1X9.256875Y-3.454638
G1X8.882575Y-3.299597
G1X8.477419Y-3.299597
G1X8.103119Y-3.454638
G1X7.816634Y-3.741122
G1X7.774103Y-3.843803
G1X7.774103Y-3.843813
G1X7.738513Y-3.929731
G1X7.695856Y-3.985319
G1X7.681900Y-4.003509
G1X7.681897Y-4.003509
G1X7.681897Y-4.003513
G1X7.608116Y-4.060125
G1X7.558809Y-4.080544
G1X7.522200Y-4.095713
G1X7.429997Y-4.107850
G1X7.429994Y-4.107847
G1X7.429994Y-4.107850
G1X7.337788Y-4.095713
G1X7.251869Y-4.060122
G1X7.196281Y-4.017466
G1X7.178091Y-4.003509
G1X7.178091Y-4.003506
G1X7.178088Y-4.003506
G1X7.121475Y-3.929725
G1X7.100641Y-3.879419
G1X7.085888Y-3.843809
G1X7.085888Y-3.843803
G1X7.043356Y-3.741119
G1X6.756875Y-3.454638
G1X6.382575Y-3.299597
G1X5.977419Y-3.299597
G1X5.603122Y-3.454634
G1X5.316638Y-3.741122
G1X5.161597Y-4.115419
G1X5.161597Y-6.044575
G1X5.316638Y-6.418872
G1X5.345028Y-6.447262
G1X5.391528Y-6.527803
G1X5.415597Y-6.617631
G1X5.415597Y-39.492044
G1X5.531969Y-39.772997
G1X5.780325Y-40.021350
G1X6.759119Y-41.000141
G1X6.761991Y-41.003016
G1X6.824869Y-41.065891
G1X6.824872Y-41.065900
G1X6.824878Y-41.065903
G1X6.840638Y-41.093203
G1X6.871369Y-41.146431
G1X6.895438Y-41.236259
G1X6.895438Y-41.236263
G1X6.895441Y-41.236272
G1X6.895438Y-41.282263
G1X6.895438Y-41.329262
G1X6.895434Y-41.329272
G1X6.895434Y-41.329275
G1X6.893981Y-41.334697
G1X6.871369Y-41.419091
G1X6.871363Y-41.419100
G1X6.871363Y-41.419103
G1X6.862616Y-41.434250
G1X6.824869Y-41.499631
G1X6.800194Y-41.524303
G1X6.661597Y-41.858906
G1X6.661597Y-42.221088
G1X6.800197Y-42.555694
G1X7.056300Y-42.811797
G1X7.390906Y-42.950397
G1X8.622378Y-42.950397
G1X8.712206Y-42.974466
G1X8.792747Y-43.020966
G1X8.858506Y-43.086725
G1X8.905006Y-43.167266
G1X8.929075Y-43.257094
G1X8.929075Y-43.350097
G1X8.905006Y-43.439925
G1X8.858506Y-43.520466
G1X8.792747Y-43.586225
G1X8.779944Y-43.599028
G1X8.699403Y-43.645528
G1X8.609575Y-43.669597
G1X7.390903Y-43.669597
G1X7.056300Y-43.808197
G1X6.800197Y-44.064300
G1X6.661597Y-44.398906
G1X6.661597Y-44.761091
G1X6.800197Y-45.095694
G1X7.056300Y-45.351797
G1X7.390906Y-45.490397
G1X9.061091Y-45.490397
G1X9.395694Y-45.351797
G1X9.651797Y-45.095697
G1X9.762050Y-44.829516
G1X9.768091Y-44.806966
G1X9.779763Y-44.786750
G1X9.788700Y-44.765172
G1X9.802919Y-44.746647
G1X9.814591Y-44.726425
G1X9.831103Y-44.709916
G1X9.845316Y-44.691391
G1X9.863841Y-44.677178
G1X10.916197Y-43.624822
G1X11.148025Y-43.392997
G1X11.264397Y-43.112044
G1X11.264397Y-35.847950
G1X11.148025Y-35.566997
G1X9.514966Y-33.933941
G1X9.468466Y-33.853400
G1X9.444397Y-33.763572
G1X9.444397Y-6.617631
G1X9.468466Y-6.527803
G1X9.514966Y-6.447262
G1X9.543356Y-6.418875
G1X9.585888Y-6.316191
G1X9.585888Y-6.316184
G1X9.599772Y-6.282666
G1X9.621475Y-6.230269
G1X9.678088Y-6.156487
G1X9.678091Y-6.156487
G1X9.678091Y-6.156484
G1X9.694231Y-6.144100
G1X9.751869Y-6.099872
G1X9.837788Y-6.064281
G1X9.929994Y-6.052144
G1X9.929997Y-6.052144
G1X10.022200Y-6.064281
G1X10.056762Y-6.078600
G1X10.108116Y-6.099869
G1X10.181897Y-6.156481
G1X10.181897Y-6.156484
G1X10.181900Y-6.156484
G1X10.194284Y-6.172625
G1X10.238513Y-6.230263
G1X10.274103Y-6.316181
G1X10.274103Y-6.316191
G1X10.316638Y-6.418872
G1X10.345028Y-6.447262
G1X10.391528Y-6.527803
G1X10.415597Y-6.617631
G1X10.415597Y-30.332044
G1X10.531969Y-30.612997
G1X10.829556Y-30.910581
G1X12.165028Y-32.246053
G1X12.211528Y-32.326594
G1X12.235597Y-32.416422
G1X12.235597Y-43.583572
G1X12.211528Y-43.673400
G1X12.165028Y-43.753941
G1X12.125903Y-43.793063
G1X9.702734Y-46.216234
G1X9.688522Y-46.234759
G1X9.670003Y-46.248969
G1X9.653491Y-46.265481
G1X9.633263Y-46.277159
G1X9.614741Y-46.291372
G1X9.593175Y-46.300303
G1X9.572950Y-46.311981
G1X9.550388Y-46.318025
G1X9.528822Y-46.326959
G1X9.505678Y-46.330006
G1X9.483122Y-46.336050
G1X9.459763Y-46.336050
G1X9.436619Y-46.339097
G1X9.413472Y-46.336050
G1X9.390119Y-46.336050
G1X9.367569Y-46.330006
G1X9.344413Y-46.326959
G1X9.322841Y-46.318022
G1X9.300291Y-46.311981
G1X9.280072Y-46.300306
G1X9.061084Y-46.209597
G1X7.390903Y-46.209597
G1X7.056300Y-46.348197
G1X6.800197Y-46.604300
G1X6.661597Y-46.938906
G1X6.661597Y-47.301091
G1X6.800197Y-47.635694
G1X7.056300Y-47.891797
G1X7.390906Y-48.030397
G1X8.609572Y-48.030397
G1X8.699400Y-48.054466
G1X8.779941Y-48.100966
G1X8.826997Y-48.148025
G1X9.107950Y-48.264397
G1X9.652047Y-48.264397
G1X9.701591Y-48.243875
G1X9.721816Y-48.232197
G1X9.744372Y-48.226153
G1X9.765941Y-48.217219
G1X9.789091Y-48.214172
G1X9.811644Y-48.208128
G1X9.835000Y-48.208128
G1X9.858147Y-48.205081
G1X9.881291Y-48.208128
G1X9.904647Y-48.208128
G1X9.927200Y-48.214172
G1X9.950350Y-48.217219
G1X9.971922Y-48.226156
G1X9.994475Y-48.232197
G1X10.014691Y-48.243872
G1X10.036269Y-48.252806
G1X10.054794Y-48.267025
G1X10.075016Y-48.278697
G1X10.091525Y-48.295209
G1X10.110050Y-48.309422
G1X10.124259Y-48.327944
G1X10.140775Y-48.344456
G1X10.152453Y-48.364688
G1X10.166663Y-48.383203
G1X10.175594Y-48.404766
G1X10.187275Y-48.424997
G1X10.193319Y-48.447556
G1X10.202253Y-48.469122
G1X10.205300Y-48.492272
G1X10.211344Y-48.514825
G1X10.211344Y-48.538181
G1X10.214391Y-48.561328
G1X10.211344Y-48.584472
G1X10.211344Y-48.607828
G1X10.205300Y-48.630381
G1X10.202253Y-48.653531
G1X10.193316Y-48.675103
G1X10.187275Y-48.697656
G1X10.175600Y-48.717872
G1X10.166666Y-48.739450
G1X10.152447Y-48.757975
G1X10.140775Y-48.778197
G1X10.124263Y-48.794706
G1X10.110050Y-48.813231
G1X10.091528Y-48.827441
G1X8.583797Y-50.335172
G1X8.583794Y-50.335172
G1X8.351969Y-50.566997
G1X8.235597Y-50.847950
G1X8.235597Y-51.328050
G1X8.211528Y-51.417878
G1X8.165028Y-51.498419
G1X8.099269Y-51.564178
G1X8.099266Y-51.564178
G1X7.973197Y-51.690247
G1X7.973197Y-52.449744
G1X8.510250Y-52.986797
G1X9.269744Y-52.986797
G1X9.806797Y-52.449744
G1X9.806797Y-51.669628
G1X9.788466Y-51.637878
G1X9.764397Y-51.548050
G1X9.764397Y-51.416422
G1X9.788466Y-51.326594
G1X9.834966Y-51.246053
G1X9.900725Y-51.180294
G1X15.666053Y-45.414966
G1X15.746594Y-45.368466
G1X15.836422Y-45.344397
G1X15.873031Y-45.344397
G1X15.896178Y-45.341350
G1X15.919322Y-45.344397
G1X15.942678Y-45.344397
G1X15.965231Y-45.350441
G1X15.988381Y-45.353487
G1X16.009950Y-45.362422
G1X16.032506Y-45.368466
G1X16.052731Y-45.380144
G1X16.318906Y-45.490397
G1X17.989091Y-45.490397
G1X18.255266Y-45.380144
G1X18.275488Y-45.368466
G1X18.298044Y-45.362422
G1X18.319613Y-45.353487
G1X18.342762Y-45.350441
G1X18.365316Y-45.344397
G1X18.388672Y-45.344397
G1X18.411819Y-45.341350
G1X18.434963Y-45.344397
G1X19.072044Y-45.344397
G1X19.352997Y-45.228025
G1X20.916197Y-43.664822
G1X21.148025Y-43.432997
G1X21.264397Y-43.152044
G1X21.264397Y-39.347950
G1X21.148025Y-39.066997
G1X16.834966Y-34.753941
G1X16.788466Y-34.673400
G1X16.764397Y-34.583572
G1X16.764397Y-6.797631
G1X16.788466Y-6.707803
G1X16.834966Y-6.627263
G1X16.900725Y-6.561503
G1X17.043353Y-6.418878
G1X17.047228Y-6.409525
G1X17.053269Y-6.386969
G1X17.064941Y-6.366753
G1X17.073875Y-6.345181
G1X17.088094Y-6.326653
G1X17.099769Y-6.306428
G1X17.116278Y-6.289922
G1X17.130488Y-6.271400
G1X17.149013Y-6.257188
G1X17.165528Y-6.240669
G1X17.185756Y-6.228991
G1X17.204269Y-6.214784
G1X17.225834Y-6.205853
G1X17.246069Y-6.194169
G1X17.268631Y-6.188125
G1X17.290188Y-6.179194
G1X17.313334Y-6.176147
G1X17.335897Y-6.170100
G1X17.359250Y-6.170100
G1X17.382388Y-6.167053
G1X17.405541Y-6.170100
G1X17.428900Y-6.170100
G1X17.451444Y-6.176144
G1X17.474594Y-6.179188
G1X17.496172Y-6.188125
G1X17.518728Y-6.194169
G1X17.538944Y-6.205841
G1X17.560516Y-6.214775
G1X17.579044Y-6.228994
G1X17.599269Y-6.240669
G1X17.615775Y-6.257178
G1X17.634297Y-6.271388
G1X17.648509Y-6.289913
G1X17.665028Y-6.306428
G1X17.676706Y-6.326656
G1X17.690912Y-6.345169
G1X17.699844Y-6.366734
G1X17.711528Y-6.386969
G1X17.717572Y-6.409531
G1X17.726503Y-6.431088
G1X17.729550Y-6.454234
G1X17.735597Y-6.476797
G1X17.735597Y-6.500150
G1X17.738644Y-6.523288
G1X17.735597Y-6.546441
G1X17.735597Y-32.152044
G1X17.851969Y-32.432997
G1X18.149556Y-32.730581
G1X22.665028Y-37.246053
G1X22.711528Y-37.326594
G1X22.735597Y-37.416422
G1X22.735597Y-43.083575
G1X22.711528Y-43.173403
G1X22.665028Y-43.253944
G1X22.599269Y-43.319703
G1X22.599266Y-43.319703
G1X19.633941Y-46.285028
G1X19.553400Y-46.331528
G1X19.463572Y-46.355597
G1X18.434963Y-46.355597
G1X18.411819Y-46.358644
G1X18.388672Y-46.355597
G1X18.365316Y-46.355597
G1X18.342762Y-46.349553
G1X18.319613Y-46.346506
G1X18.298044Y-46.337569
G1X18.275488Y-46.331528
G1X18.255266Y-46.319850
G1X17.989091Y-46.209597
G1X16.318903Y-46.209597
G1X15.984297Y-46.348197
G1X15.728197Y-46.604300
G1X15.589597Y-46.938906
G1X15.589597Y-47.301088
G1X15.728197Y-47.635694
G1X15.984300Y-47.891797
G1X16.318906Y-48.030397
G1X17.989091Y-48.030397
G1X18.255266Y-47.920144
G1X18.275488Y-47.908466
G1X18.298044Y-47.902422
G1X18.319613Y-47.893487
G1X18.342762Y-47.890441
G1X18.365316Y-47.884397
G1X18.388672Y-47.884397
G1X18.411819Y-47.881350
G1X18.434963Y-47.884397
G1X20.032044Y-47.884397
G1X20.312997Y-47.768025
G1X23.498169Y-44.582847
G1X23.512003Y-44.569016
G1X23.563928Y-44.517088
G1X23.644469Y-44.470588
G1X23.734297Y-44.446519
G1X23.827300Y-44.446519
G1X23.917128Y-44.470588
G1X23.997669Y-44.517088
G1X24.063428Y-44.582847
G1X24.109928Y-44.663387
G1X24.133997Y-44.753216
G1X24.133997Y-89.327300
G1X24.109928Y-89.417128
G1X24.063428Y-89.497669
G1X23.997669Y-89.563428
G1X23.917128Y-89.609928
G1X23.827300Y-89.633997
G1X1.172694Y-89.633997
G1X1.082866Y-89.609928
G1X1.002325Y-89.563428
G1X0.936566Y-89.497669
G1X0.890066Y-89.417128
G1X0.865997Y-89.327300
G1X0.865997Y8.327300
G1X0.890066Y8.417128
G1X0.936566Y8.497669
G1X1.002325Y8.563428
G1X1.082866Y8.609928
G1X1.172694Y8.633997
G1X23.827300Y8.633997
G1X23.917128Y8.609928
G1X23.997669Y8.563428
G1X24.063428Y8.497669
G1X24.109928Y8.417128
G1X24.133997Y8.327300
G1X24.133997Y-35.746778
G1X24.109928Y-35.836606
G1X24.063428Y-35.917147
G1X23.997669Y-35.982906
G1X23.917128Y-36.029406
G1X23.827300Y-36.053475
G1X23.734297Y-36.053475
G1X23.644469Y-36.029406
G1X23.563928Y-35.982906
G1X23.498169Y-35.917147
G1X19.334966Y-31.753941
G1X19.288466Y-31.673400
G1X19.264397Y-31.583572
G1X19.264397Y-6.797631
G1X19.288466Y-6.707803
G1X19.334966Y-6.627263
G1X19.400725Y-6.561503
G1X19.543356Y-6.418872
G1X19.698397Y-6.044575
G1X19.698397Y-4.115419
G1X19.543356Y-3.741119
G1X19.256875Y-3.454638
G1X18.882575Y-3.299597
G1X18.477419Y-3.299597
G1X18.103119Y-3.454638
G1X17.816634Y-3.741122
G1X17.774103Y-3.843803
G1X17.774103Y-3.843813
G1X17.738513Y-3.929731
G1X17.695856Y-3.985319
G1X17.681900Y-4.003509
G1X17.681897Y-4.003509
G1X17.681897Y-4.003513
G1X17.608116Y-4.060125
G1X17.558809Y-4.080547
G1X17.522200Y-4.095713
G1X17.429997Y-4.107850
G1X17.429994Y-4.107850
G1X17.337788Y-4.095713
G1X17.251869Y-4.060122
G1X17.196281Y-4.017466
G1X17.178091Y-4.003509
G1X17.178091Y-4.003506
G1X17.178088Y-4.003506
G1X17.121475Y-3.929725
G1X17.100641Y-3.879419
G1X17.085888Y-3.843809
G1X17.085888Y-3.843803
G1X17.043356Y-3.741119
G1X16.756875Y-3.454638
G1X16.382575Y-3.299597
G1X15.977419Y-3.299597
G1X15.603119Y-3.454638
G1X15.316638Y-3.741119
G1X15.183494Y-4.062559
G1X15.180575Y-4.076303
G1X15.165772Y-4.105350
G1X15.153284Y-4.135500
G1X15.144722Y-4.146656
G1X15.138350Y-4.159162
G1X15.116538Y-4.183384
G1X15.096669Y-4.209281
G1X15.085522Y-4.217831
G1X15.076122Y-4.228275
G1X15.048769Y-4.246034
G1X15.022891Y-4.265894
G1X15.009903Y-4.271272
G1X14.998125Y-4.278922
G1X14.967113Y-4.288997
G1X14.936969Y-4.301484
G1X14.923038Y-4.303316
G1X14.909678Y-4.307659
G1X14.877091Y-4.309366
G1X14.844762Y-4.313622
G1X14.830844Y-4.311788
G1X14.816803Y-4.312525
G1X14.784881Y-4.305738
G1X14.752563Y-4.301484
G1X14.739591Y-4.296109
G1X14.725838Y-4.293188
G1X14.696784Y-4.278381
G1X14.666641Y-4.265897
G1X14.655484Y-4.257334
G1X14.642978Y-4.250962
G1X14.618756Y-4.229150
G1X14.592859Y-4.209281
G1X14.586619Y-4.201147
G1X14.591997Y-4.228172
G1X14.591997Y-5.931825
G1X14.586619Y-5.958847
G1X14.592863Y-5.950709
G1X14.618753Y-5.930847
G1X14.642978Y-5.909031
G1X14.655491Y-5.902656
G1X14.666644Y-5.894097
G1X14.696775Y-5.881619
G1X14.725838Y-5.866806
G1X14.739591Y-5.863884
G1X14.752563Y-5.858509
G1X14.784878Y-5.854256
G1X14.816803Y-5.847469
G1X14.830847Y-5.848206
G1X14.844769Y-5.846372
G1X14.877094Y-5.850628
G1X14.909678Y-5.852334
G1X14.923038Y-5.856675
G1X14.936972Y-5.858509
G1X14.967119Y-5.871000
G1X14.998125Y-5.881072
G1X15.009903Y-5.888722
G1X15.022891Y-5.894100
G1X15.048766Y-5.913956
G1X15.076122Y-5.931719
G1X15.085525Y-5.942163
G1X15.096672Y-5.950716
G1X15.116534Y-5.976606
G1X15.138350Y-6.000831
G1X15.144725Y-6.013344
G1X15.153284Y-6.024497
G1X15.165763Y-6.054628
G1X15.180575Y-6.083691
G1X15.183497Y-6.097444
G1X15.199850Y-6.136922
G1X15.211528Y-6.157147
G1X15.217572Y-6.179709
G1X15.226506Y-6.201275
G1X15.229550Y-6.224419
G1X15.235597Y-6.246975
G1X15.235597Y-6.270334
G1X15.238644Y-6.293481
G1X15.235597Y-6.316625
G1X15.235597Y-35.152044
G1X15.351969Y-35.432997
G1X15.649556Y-35.730581
G1X15.649556Y-35.730584
G1X19.599263Y-39.680291
G1X19.599269Y-39.680294
G1X19.665028Y-39.746053
G1X19.711528Y-39.826594
G1X19.735597Y-39.916422
G1X19.735597Y-42.583572
G1X19.711528Y-42.673400
G1X19.665028Y-42.753941
G1X19.599269Y-42.819700
G1X18.673941Y-43.745028
G1X18.593400Y-43.791528
G1X18.503572Y-43.815597
G1X18.434963Y-43.815597
G1X18.411819Y-43.818644
G1X18.388672Y-43.815597
G1X18.365316Y-43.815597
G1X18.342762Y-43.809553
G1X18.319613Y-43.806506
G1X18.298044Y-43.797572
G1X18.275488Y-43.791528
G1X18.255263Y-43.779850
G1X17.989088Y-43.669597
G1X16.318903Y-43.669597
G1X16.052728Y-43.779850
G1X16.032506Y-43.791528
G1X16.009950Y-43.797572
G1X15.988381Y-43.806506
G1X15.965231Y-43.809553
G1X15.942678Y-43.815597
G1X15.919322Y-43.815597
G1X15.896178Y-43.818644
G1X15.873031Y-43.815597
G1X15.267950Y-43.815597
G1X14.986997Y-43.931969
G1X14.327441Y-44.591528
G1X14.313231Y-44.610050
G1X14.294706Y-44.624263
G1X14.278197Y-44.640775
G1X14.257975Y-44.652447
G1X14.239450Y-44.666666
G1X14.217872Y-44.675603
G1X14.197656Y-44.687275
G1X14.175103Y-44.693316
G1X14.153531Y-44.702253
G1X14.130381Y-44.705300
G1X14.107828Y-44.711344
G1X14.084472Y-44.711344
G1X14.061328Y-44.714391
G1X14.038181Y-44.711344
G1X14.014825Y-44.711344
G1X13.992272Y-44.705300
G1X13.969122Y-44.702253
G1X13.947556Y-44.693319
G1X13.924997Y-44.687275
G1X13.904766Y-44.675594
G1X13.883203Y-44.666663
G1X13.864688Y-44.652456
G1X13.844456Y-44.640775
G1X13.827941Y-44.624259
G1X13.809422Y-44.610050
G1X13.795209Y-44.591528
G1X13.778697Y-44.575016
G1X13.767025Y-44.554794
G1X13.752806Y-44.536269
G1X13.743869Y-44.514691
G1X13.732197Y-44.494475
G1X13.726156Y-44.471922
G1X13.717219Y-44.450350
G1X13.714172Y-44.427200
G1X13.708128Y-44.404647
G1X13.708128Y-44.381291
G1X13.705081Y-44.358147
G1X13.708128Y-44.335000
G1X13.708128Y-44.311644
G1X13.714172Y-44.289091
G1X13.717219Y-44.265941
G1X13.726153Y-44.244372
G1X13.732197Y-44.221816
G1X13.743875Y-44.201591
G1X13.764397Y-44.152047
G1X13.764397Y-31.847950
G1X13.648025Y-31.566997
G1X12.014966Y-29.933941
G1X11.968466Y-29.853400
G1X11.944397Y-29.763572
G1X11.944397Y-6.617631
G1X11.968466Y-6.527803
G1X12.014966Y-6.447262
G1X12.043356Y-6.418872
G1X12.176497Y-6.097434
G1X12.179419Y-6.083691
G1X12.194222Y-6.054644
G1X12.206709Y-6.024494
G1X12.215272Y-6.013338
G1X12.221644Y-6.000831
G1X12.243456Y-5.976609
G1X12.263325Y-5.950712
G1X12.274472Y-5.942159
G1X12.283872Y-5.931719
G1X12.311225Y-5.913959
G1X12.337103Y-5.894100
G1X12.350091Y-5.888722
G1X12.361869Y-5.881072
G1X12.392881Y-5.870997
G1X12.423025Y-5.858509
G1X12.436956Y-5.856675
G1X12.450316Y-5.852334
G1X12.482903Y-5.850628
G1X12.515231Y-5.846372
G1X12.529150Y-5.848206
G1X12.543191Y-5.847469
G1X12.575113Y-5.854256
G1X12.607431Y-5.858509
G1X12.620403Y-5.863884
G1X12.634156Y-5.866806
G1X12.663209Y-5.881613
G1X12.693353Y-5.894097
G1X12.704509Y-5.902659
G1X12.717016Y-5.909031
G1X12.741238Y-5.930844
G1X12.767134Y-5.950712
G1X12.773378Y-5.958850
G1X12.768000Y-5.931825

G0Z2
G0X15.268000Y-5.931825
G1Z-0.100 f25
G1X15.268000Y-4.228172 f200
G1X15.303047Y-4.051978
G1X15.371797Y-3.886003
G1X15.471603Y-3.736631
G1X15.598631Y-3.609603
G1X15.748003Y-3.509797
G1X15.913978Y-3.441047
G1X16.090172Y-3.406000
G1X16.269825Y-3.406000
G1X16.446019Y-3.441047
G1X16.611994Y-3.509797
G1X16.761366Y-3.609603
G1X16.888394Y-3.736631
G1X16.988200Y-3.886003
G1X17.056950Y-4.051978
G1X17.091997Y-4.228172
G1X17.091997Y-5.931825
G1X17.056950Y-6.108019
G1X16.988200Y-6.273994
G1X16.888394Y-6.423366
G1X16.761366Y-6.550394
G1X16.657997Y-6.619459
G1X16.657997Y-34.727444
G1X21.011100Y-39.080547
G1X21.083109Y-39.188319
G1X21.132709Y-39.308066
G1X21.157997Y-39.435191
G1X21.157997Y-43.064806
G1X21.132709Y-43.191931
G1X21.083109Y-43.311678
G1X21.011100Y-43.419450
G1X20.919450Y-43.511100
G1X19.339450Y-45.091100
G1X19.231678Y-45.163109
G1X19.111931Y-45.212709
G1X18.984806Y-45.237997
G1X18.270394Y-45.237997
G1X18.188834Y-45.292494
G1X18.042519Y-45.353100
G1X17.887187Y-45.383997
G1X16.420809Y-45.383997
G1X16.265478Y-45.353100
G1X16.119163Y-45.292494
G1X16.037603Y-45.237997
G1X15.692553Y-45.237997
G1X9.657997Y-51.272553
G1X9.657997Y-51.691925
G1X9.700397Y-51.734322
G1X9.700397Y-52.405675
G1X9.225675Y-52.880397
G1X8.554322Y-52.880397
G1X8.079600Y-52.405675
G1X8.079600Y-51.734322
G1X8.342000Y-51.471925
G1X8.342000Y-50.935191
G1X8.367287Y-50.808066
G1X8.416887Y-50.688319
G1X8.488897Y-50.580547
G1X8.580547Y-50.488897
G1X15.000547Y-44.068897
G1X15.108319Y-43.996887
G1X15.228066Y-43.947288
G1X15.355191Y-43.922000
G1X16.037603Y-43.922000
G1X16.119163Y-43.867503
G1X16.265478Y-43.806897
G1X16.420809Y-43.776000
G1X17.887187Y-43.776000
G1X18.042519Y-43.806897
G1X18.188834Y-43.867503
G1X18.270394Y-43.922000
G1X18.647444Y-43.922000
G1X19.842000Y-42.727444
G1X19.842000Y-39.772553
G1X15.580547Y-35.511100
G1X15.488897Y-35.419450
G1X15.416888Y-35.311678
G1X15.367288Y-35.191931
G1X15.342000Y-35.064806
G1X15.342000Y-6.202056
G1X15.303047Y-6.108019
G1X15.268000Y-5.931825

G0Z2
G0X17.768000Y-5.931825
G1Z-0.100 f25
G1X17.768000Y-4.228172 f200
G1X17.803047Y-4.051978
G1X17.871797Y-3.886003
G1X17.971603Y-3.736631
G1X18.098631Y-3.609603
G1X18.248003Y-3.509797
G1X18.413978Y-3.441047
G1X18.590172Y-3.406000
G1X18.769825Y-3.406000
G1X18.946019Y-3.441047
G1X19.111994Y-3.509797
G1X19.261366Y-3.609603
G1X19.388394Y-3.736631
G1X19.488200Y-3.886003
G1X19.556950Y-4.051978
G1X19.591997Y-4.228172
G1X19.591997Y-5.931825
G1X19.556950Y-6.108019
G1X19.488200Y-6.273994
G1X19.388394Y-6.423366
G1X19.261366Y-6.550394
G1X19.157997Y-6.619459
G1X19.157997Y-31.727444
G1X24.011100Y-36.580547
G1X24.083109Y-36.688319
G1X24.132709Y-36.808066
G1X24.157997Y-36.935191
G1X24.157997Y-43.564806
G1X24.132709Y-43.691931
G1X24.083109Y-43.811678
G1X24.011100Y-43.919450
G1X23.919450Y-44.011100
G1X20.299450Y-47.631100
G1X20.191678Y-47.703109
G1X20.071931Y-47.752709
G1X19.944806Y-47.777997
G1X18.270394Y-47.777997
G1X18.188834Y-47.832494
G1X18.042519Y-47.893100
G1X17.887187Y-47.923997
G1X16.420809Y-47.923997
G1X16.265478Y-47.893100
G1X16.119163Y-47.832494
G1X15.987478Y-47.744506
G1X15.875491Y-47.632519
G1X15.787503Y-47.500834
G1X15.726897Y-47.354519
G1X15.696000Y-47.199188
G1X15.696000Y-47.040809
G1X15.726897Y-46.885478
G1X15.787503Y-46.739162
G1X15.875491Y-46.607478
G1X15.987478Y-46.495491
G1X16.119163Y-46.407503
G1X16.265478Y-46.346897
G1X16.420809Y-46.316000
G1X17.887187Y-46.316000
G1X18.042519Y-46.346897
G1X18.188834Y-46.407503
G1X18.270394Y-46.462000
G1X19.607444Y-46.462000
G1X22.842000Y-43.227444
G1X22.842000Y-37.272553
G1X18.080547Y-32.511100
G1X17.988897Y-32.419450
G1X17.916888Y-32.311678
G1X17.867287Y-32.191931
G1X17.842000Y-32.064806
G1X17.842000Y-6.202056
G1X17.803047Y-6.108019
G1X17.768000Y-5.931825

G0Z2
G0X7.492809Y-46.316000
G1Z-0.100 f25
G1X8.959188Y-46.316000 f200
G1X9.114519Y-46.346897
G1X9.260834Y-46.407503
G1X9.392519Y-46.495491
G1X9.483238Y-46.586209
G1X12.342000Y-43.727444
G1X12.342000Y-32.272553
G1X10.760547Y-30.691100
G1X10.668897Y-30.599450
G1X10.596888Y-30.491678
G1X10.547288Y-30.371931
G1X10.522000Y-30.244806
G1X10.522000Y-6.473763
G1X10.471603Y-6.423366
G1X10.371797Y-6.273994
G1X10.303047Y-6.108019
G1X10.268000Y-5.931825
G1X10.268000Y-4.228172
G1X10.303047Y-4.051978
G1X10.371797Y-3.886003
G1X10.471603Y-3.736631
G1X10.598631Y-3.609603
G1X10.748003Y-3.509797
G1X10.913978Y-3.441047
G1X11.090172Y-3.406000
G1X11.269825Y-3.406000
G1X11.446019Y-3.441047
G1X11.611994Y-3.509797
G1X11.761366Y-3.609603
G1X11.888394Y-3.736631
G1X11.988200Y-3.886003
G1X12.056950Y-4.051978
G1X12.091997Y-4.228172
G1X12.091997Y-5.931825
G1X12.056950Y-6.108019
G1X11.988200Y-6.273994
G1X11.888394Y-6.423366
G1X11.837997Y-6.473763
G1X11.837997Y-29.907444
G1X13.511100Y-31.580547
G1X13.583109Y-31.688319
G1X13.632709Y-31.808066
G1X13.657997Y-31.935191
G1X13.657997Y-44.064806
G1X13.632709Y-44.191931
G1X13.583109Y-44.311678
G1X13.511100Y-44.419450
G1X13.419450Y-44.511100
G1X13.419447Y-44.511100
G1X9.919450Y-48.011100
G1X9.811678Y-48.083109
G1X9.691931Y-48.132709
G1X9.564806Y-48.157997
G1X9.195191Y-48.157997
G1X9.068066Y-48.132709
G1X8.948319Y-48.083109
G1X8.840547Y-48.011100
G1X8.753447Y-47.923997
G1X7.492809Y-47.923997
G1X7.337478Y-47.893100
G1X7.191162Y-47.832494
G1X7.059478Y-47.744506
G1X6.947491Y-47.632519
G1X6.859503Y-47.500834
G1X6.798897Y-47.354519
G1X6.768000Y-47.199188
G1X6.768000Y-47.040809
G1X6.798897Y-46.885478
G1X6.859503Y-46.739162
G1X6.947491Y-46.607478
G1X7.059478Y-46.495491
G1X7.191162Y-46.407503
G1X7.337478Y-46.346897
G1X7.492809Y-46.316000

G0Z2
G0X7.492809Y-43.776000
G1Z-0.100 f25
G1X8.753444Y-43.776000 f200
G1X9.842000Y-42.687444
G1X9.842000Y-36.272550
G1X8.260550Y-34.691100
G1X8.260547Y-34.691100
G1X8.168897Y-34.599450
G1X8.096888Y-34.491678
G1X8.047288Y-34.371931
G1X8.022000Y-34.244806
G1X8.022000Y-6.473763
G1X7.971603Y-6.423366
G1X7.871797Y-6.273994
G1X7.803047Y-6.108019
G1X7.768000Y-5.931825
G1X7.768000Y-4.228172
G1X7.803047Y-4.051978
G1X7.871797Y-3.886003
G1X7.971603Y-3.736631
G1X8.098631Y-3.609603
G1X8.248003Y-3.509797
G1X8.413978Y-3.441047
G1X8.590172Y-3.406000
G1X8.769825Y-3.406000
G1X8.946019Y-3.441047
G1X9.111994Y-3.509797
G1X9.261366Y-3.609603
G1X9.388394Y-3.736631
G1X9.488200Y-3.886003
G1X9.556950Y-4.051978
G1X9.591997Y-4.228172
G1X9.591997Y-5.931825
G1X9.556950Y-6.108019
G1X9.488200Y-6.273994
G1X9.388394Y-6.423366
G1X9.337997Y-6.473763
G1X9.337997Y-33.907447
G1X10.919444Y-35.488894
G1X10.919450Y-35.488897
G1X11.011100Y-35.580547
G1X11.083109Y-35.688319
G1X11.132709Y-35.808066
G1X11.157997Y-35.935191
G1X11.157997Y-43.024806
G1X11.132709Y-43.151931
G1X11.083109Y-43.271678
G1X11.011100Y-43.379450
G1X10.919450Y-43.471100
G1X9.672234Y-44.718313
G1X9.653100Y-44.814519
G1X9.592494Y-44.960834
G1X9.504506Y-45.092519
G1X9.392519Y-45.204506
G1X9.260834Y-45.292494
G1X9.114519Y-45.353100
G1X8.959188Y-45.383997
G1X7.492809Y-45.383997
G1X7.337478Y-45.353100
G1X7.191162Y-45.292494
G1X7.059478Y-45.204506
G1X6.947491Y-45.092519
G1X6.859503Y-44.960834
G1X6.798897Y-44.814519
G1X6.768000Y-44.659188
G1X6.768000Y-44.500809
G1X6.798897Y-44.345478
G1X6.859503Y-44.199162
G1X6.947491Y-44.067478
G1X7.059478Y-43.955491
G1X7.191162Y-43.867503
G1X7.337478Y-43.806897
G1X7.492809Y-43.776000

G0Z2
G0X9.114519Y-41.266897
G1Z-0.100 f25
G1X9.260834Y-41.327503 f200
G1X9.392519Y-41.415491
G1X9.504506Y-41.527478
G1X9.592494Y-41.659163
G1X9.653100Y-41.805478
G1X9.683997Y-41.960809
G1X9.683997Y-42.119188
G1X9.653100Y-42.274519
G1X9.592494Y-42.420834
G1X9.504506Y-42.552519
G1X9.392519Y-42.664506
G1X9.260834Y-42.752494
G1X9.114519Y-42.813100
G1X8.959188Y-42.843997
G1X7.492809Y-42.843997
G1X7.337478Y-42.813100
G1X7.191162Y-42.752494
G1X7.059478Y-42.664506
G1X6.947491Y-42.552519
G1X6.859503Y-42.420834
G1X6.798897Y-42.274519
G1X6.768000Y-42.119188
G1X6.768000Y-41.960809
G1X6.798897Y-41.805478
G1X6.859503Y-41.659163
G1X6.947491Y-41.527478
G1X7.059478Y-41.415491
G1X7.191162Y-41.327503
G1X7.223541Y-41.314094
G1X5.760547Y-39.851100
G1X5.668897Y-39.759450
G1X5.596888Y-39.651678
G1X5.547288Y-39.531931
G1X5.522000Y-39.404806
G1X5.522000Y-6.473759
G1X5.471603Y-6.423366
G1X5.371797Y-6.273994
G1X5.303047Y-6.108019
G1X5.268000Y-5.931825
G1X5.268000Y-4.228172
G1X5.303047Y-4.051978
G1X5.371797Y-3.886003
G1X5.471603Y-3.736631
G1X5.598631Y-3.609603
G1X5.748003Y-3.509797
G1X5.913978Y-3.441047
G1X6.090172Y-3.406000
G1X6.269825Y-3.406000
G1X6.446019Y-3.441047
G1X6.611994Y-3.509797
G1X6.761366Y-3.609603
G1X6.888394Y-3.736631
G1X6.988200Y-3.886003
G1X7.056950Y-4.051978
G1X7.091997Y-4.228172
G1X7.091997Y-5.931825
G1X7.056950Y-6.108019
G1X6.988200Y-6.273994
G1X6.888394Y-6.423366
G1X6.837997Y-6.473759
G1X6.837997Y-39.067444
G1X9.018313Y-41.247763
G1X9.114519Y-41.266897

G0Z2
G0X8.031969Y-34.612997
G1Z-0.100 f25
G1X8.329556Y-34.910581 f200
G1X9.665028Y-36.246053
G1X9.711528Y-36.326594
G1X9.735597Y-36.416422
G1X9.735597Y-38.040584
G1X9.738644Y-38.063731
G1X9.735597Y-38.086875
G1X9.735597Y-38.110231
G1X9.729553Y-38.132784
G1X9.726506Y-38.155934
G1X9.717572Y-38.177500
G1X9.711528Y-38.200059
G1X9.699847Y-38.220291
G1X9.690916Y-38.241853
G1X9.676709Y-38.260366
G1X9.665028Y-38.280600
G1X9.648513Y-38.297116
G1X9.634303Y-38.315634
G1X9.615778Y-38.329847
G1X9.599269Y-38.346359
G1X9.579047Y-38.358031
G1X9.560522Y-38.372250
G1X9.538944Y-38.381184
G1X9.518728Y-38.392859
G1X9.496175Y-38.398900
G1X9.474603Y-38.407837
G1X9.451453Y-38.410884
G1X9.428900Y-38.416928
G1X9.405544Y-38.416928
G1X9.382400Y-38.419975
G1X9.359253Y-38.416928
G1X9.335897Y-38.416928
G1X9.313344Y-38.410884
G1X9.290194Y-38.407837
G1X9.268625Y-38.398903
G1X9.246069Y-38.392859
G1X9.225844Y-38.381181
G1X9.111931Y-38.333997
G1X8.648059Y-38.333997
G1X8.219509Y-38.511509
G1X7.891509Y-38.839509
G1X7.771400Y-39.129484
G1X7.765359Y-39.152034
G1X7.753688Y-39.172250
G1X7.744750Y-39.193828
G1X7.730531Y-39.212356
G1X7.718859Y-39.232575
G1X7.702347Y-39.249084
G1X7.688134Y-39.267609
G1X7.669613Y-39.281819
G1X7.653100Y-39.298334
G1X7.632869Y-39.310012
G1X7.614353Y-39.324222
G1X7.592791Y-39.333153
G1X7.572559Y-39.344834
G1X7.550000Y-39.350878
G1X7.528434Y-39.359813
G1X7.505284Y-39.362859
G1X7.482731Y-39.368903
G1X7.459375Y-39.368903
G1X7.436231Y-39.371950
G1X7.413084Y-39.368903
G1X7.389728Y-39.368903
G1X7.367175Y-39.362859
G1X7.344025Y-39.359813
G1X7.322453Y-39.350875
G1X7.299900Y-39.344834
G1X7.279684Y-39.333159
G1X7.258106Y-39.324225
G1X7.239578Y-39.310006
G1X7.219359Y-39.298334
G1X7.202850Y-39.281822
G1X7.184325Y-39.267609
G1X7.170116Y-39.249088
G1X7.014966Y-39.093941
G1X6.968466Y-39.013400
G1X6.944397Y-38.923572
G1X6.944397Y-6.617631
G1X6.968466Y-6.527803
G1X7.014966Y-6.447262
G1X7.043356Y-6.418875
G1X7.085888Y-6.316191
G1X7.085888Y-6.316184
G1X7.099775Y-6.282666
G1X7.121475Y-6.230269
G1X7.178088Y-6.156487
G1X7.178091Y-6.156487
G1X7.178091Y-6.156484
G1X7.194234Y-6.144100
G1X7.251869Y-6.099872
G1X7.337788Y-6.064281
G1X7.429994Y-6.052144
G1X7.429997Y-6.052144
G1X7.522200Y-6.064281
G1X7.556763Y-6.078600
G1X7.608116Y-6.099869
G1X7.681897Y-6.156481
G1X7.681897Y-6.156484
G1X7.681900Y-6.156484
G1X7.694284Y-6.172628
G1X7.738513Y-6.230263
G1X7.774103Y-6.316181
G1X7.774103Y-6.316191
G1X7.816634Y-6.418872
G1X7.845028Y-6.447262
G1X7.891528Y-6.527803
G1X7.915597Y-6.617631
G1X7.915597Y-34.332044
G1X8.031969Y-34.612997

(Finished.  Raise cutter, turn spindle off, reset.)
G0Z5.000
G0X0Y0
M05
M30
