(This G-Code generated with CNC-DRILL-GCODE.ulp program)
(running under Eagle CAD.)

N00010  M03 S3000
G00 Z2.00 F400
(----------------------------------------------------------)
( Drill size=0.600mm )
(----------------------------------------------------------)
N00020  G00 X16.500 Y-39.500
N00030  G1Z-1.70f50
N00040  G00 Z5.00 F400
N00050  G00 X8.880 Y-39.500
N00060  G1Z-1.70f50
N00070  G00 Z5.00 F400
(----------------------------------------------------------)
( Drill size=0.800mm )
(----------------------------------------------------------)
N00080  G00 X16.500 Y-42.040
N00090  G1Z-1.70f50
N00100  G00 Z5.00 F400
N00110  G00 X8.880 Y-42.040
N00120  G1Z-1.70f50
N00130  G00 Z5.00 F400
N00140  G00 X16.500 Y-44.580
N00150  G1Z-1.70f50
N00160  G00 Z5.00 F400
N00170  G00 X8.880 Y-44.580
N00180  G1Z-1.70f50
N00190  G00 Z5.00 F400
N00200  G00 X16.500 Y-47.120
N00210  G1Z-1.70f50
N00220  G00 Z5.00 F400
N00230  G00 X8.880 Y-47.120
N00240  G1Z-1.70f50
N00250  G00 Z5.00 F400
(----------------------------------------------------------)
( Drill size=0.813mm )
(----------------------------------------------------------)
N00260  G00 X8.890 Y-52.070
N00270  G1Z-1.70f50
N00280  G00 Z5.00 F400
N00290  G00 X19.050 Y-54.610
N00300  G1Z-1.70f50
N00310  G00 Z5.00 F400
N00320  G00 X21.590 Y-54.610
N00330  G1Z-1.70f50
N00340  G00 Z5.00 F400
N00350  G00 X8.890 Y-54.610
N00360  G1Z-1.70f50
N00370  G00 Z5.00 F400
(----------------------------------------------------------)
( Drill size=1.016mm )
(----------------------------------------------------------)
N00380  G00 X18.680 Y-5.080
N00390  G1Z-1.70f50
N00400  G00 Z5.00 F400
N00410  G00 X16.180 Y-5.080
N00420  G1Z-1.70f50
N00430  G00 Z5.00 F400
N00440  G00 X13.680 Y-5.080
N00450  G1Z-1.70f50
N00460  G00 Z5.00 F400
N00470  G00 X11.180 Y-5.080
N00480  G1Z-1.70f50
N00490  G00 Z5.00 F400
N00500  G00 X8.680 Y-5.080
N00510  G1Z-1.70f50
N00520  G00 Z5.00 F400
N00530  G00 X6.180 Y-5.080
N00540  G1Z-1.70f50
N00550  G00 Z5.00 F400
(----------------------------------------------------------)
( Drill size=3.200mm )
(----------------------------------------------------------)
N00560  G00 X12.500 Y5.000
N00570  G1Z-1.70f50
N00580  G00 Z5.00 F400
N00590  G00 X12.500 Y-85.000
N00600  G1Z-1.70f50
N00610  G00 Z5.00 F400

(----------------------------------------------------------)
N00620  G00 Z2.00 F400
N00630  G00 X0 Y0 F400
N00640  M05 
