( —ÖŠs 1 )
( USBCNC Postprocessor )
N20G00G21G17G90G40G49
N30G80
N40G00G43Z20.000H1
N50S8000M03
N60G94
N70X0.000Y0.000F500.0
N80G00X8.651Y7.097Z6.000
N90G01Z-0.020F4.0
N100G2X9.151Y6.597I0.000J-0.500F500.0
N110G2X8.651Y6.097I-0.500J0.000
N120G2X8.151Y6.597I0.000J0.500
N130G2X8.651Y7.097I0.500J0.000
N140G01Z-0.040F4.0
N150G2X9.151Y6.597I0.000J-0.500F500.0
N160G2X8.651Y6.097I-0.500J0.000
N170G2X8.151Y6.597I0.000J0.500
N180G2X8.651Y7.097I0.500J0.000
N190G01Z-0.060F4.0
N200G2X9.151Y6.597I0.000J-0.500F500.0
N210G2X8.651Y6.097I-0.500J0.000
N220G2X8.151Y6.597I0.000J0.500
N230G2X8.651Y7.097I0.500J0.000
N240G01Z-0.079F4.0
N250G2X9.151Y6.597I0.000J-0.500F500.0
N260G2X8.651Y6.097I-0.500J0.000
N270G2X8.151Y6.597I0.000J0.500
N280G2X8.651Y7.097I0.500J0.000
N290G01Z-0.099F4.0
N300G2X9.151Y6.597I0.000J-0.500F500.0
N310G2X8.651Y6.097I-0.500J0.000
N320G2X8.151Y6.597I0.000J0.500
N330G2X8.651Y7.097I0.500J0.000
N340G01Z-0.119F4.0
N350G2X9.151Y6.597I0.000J-0.500F500.0
N360G2X8.651Y6.097I-0.500J0.000
N370G2X8.151Y6.597I0.000J0.500
N380G2X8.651Y7.097I0.500J0.000
N390G01Z-0.139F4.0
N400G2X9.151Y6.597I0.000J-0.500F500.0
N410G2X8.651Y6.097I-0.500J0.000
N420G2X8.151Y6.597I0.000J0.500
N430G2X8.651Y7.097I0.500J0.000
N440G01Z-0.159F4.0
N450G2X9.151Y6.597I0.000J-0.500F500.0
N460G2X8.651Y6.097I-0.500J0.000
N470G2X8.151Y6.597I0.000J0.500
N480G2X8.651Y7.097I0.500J0.000
N490G01Z-0.179F4.0
N500G2X9.151Y6.597I0.000J-0.500F500.0
N510G2X8.651Y6.097I-0.500J0.000
N520G2X8.151Y6.597I0.000J0.500
N530G2X8.651Y7.097I0.500J0.000
N540G01Z-0.199F4.0
N550G2X9.151Y6.597I0.000J-0.500F500.0
N560G2X8.651Y6.097I-0.500J0.000
N570G2X8.151Y6.597I0.000J0.500
N580G2X8.651Y7.097I0.500J0.000
N590G01Z-0.219F4.0
N600G2X9.151Y6.597I0.000J-0.500F500.0
N610G2X8.651Y6.097I-0.500J0.000
N620G2X8.151Y6.597I0.000J0.500
N630G2X8.651Y7.097I0.500J0.000
N640G01Z-0.238F4.0
N650G2X9.151Y6.597I0.000J-0.500F500.0
N660G2X8.651Y6.097I-0.500J0.000
N670G2X8.151Y6.597I0.000J0.500
N680G2X8.651Y7.097I0.500J0.000
N690G01Z-0.258F4.0
N700G2X9.151Y6.597I0.000J-0.500F500.0
N710G2X8.651Y6.097I-0.500J0.000
N720G2X8.151Y6.597I0.000J0.500
N730G2X8.651Y7.097I0.500J0.000
N740G01Z-0.278F4.0
N750G2X9.151Y6.597I0.000J-0.500F500.0
N760G2X8.651Y6.097I-0.500J0.000
N770G2X8.151Y6.597I0.000J0.500
N780G2X8.651Y7.097I0.500J0.000
N790G01Z-0.298F4.0
N800G2X9.151Y6.597I0.000J-0.500F500.0
N810G2X8.651Y6.097I-0.500J0.000
N820G2X8.151Y6.597I0.000J0.500
N830G2X8.651Y7.097I0.500J0.000
N840G01Z-0.318F4.0
N850G2X9.151Y6.597I0.000J-0.500F500.0
N860G2X8.651Y6.097I-0.500J0.000
N870G2X8.151Y6.597I0.000J0.500
N880G2X8.651Y7.097I0.500J0.000
N890G01Z-0.338F4.0
N900G2X9.151Y6.597I0.000J-0.500F500.0
N910G2X8.651Y6.097I-0.500J0.000
N920G2X8.151Y6.597I0.000J0.500
N930G2X8.651Y7.097I0.500J0.000
N940G01Z-0.358F4.0
N950G2X9.151Y6.597I0.000J-0.500F500.0
N960G2X8.651Y6.097I-0.500J0.000
N970G2X8.151Y6.597I0.000J0.500
N980G2X8.651Y7.097I0.500J0.000
N990G01Z-0.378F4.0
N1000G2X9.151Y6.597I0.000J-0.500F500.0
N1010G2X8.651Y6.097I-0.500J0.000
N1020G2X8.151Y6.597I0.000J0.500
N1030G2X8.651Y7.097I0.500J0.000
N1040G01Z-0.397F4.0
N1050G2X9.151Y6.597I0.000J-0.500F500.0
N1060G2X8.651Y6.097I-0.500J0.000
N1070G2X8.151Y6.597I0.000J0.500
N1080G2X8.651Y7.097I0.500J0.000
N1090G01Z-0.417F4.0
N1100G2X9.151Y6.597I0.000J-0.500F500.0
N1110G2X8.651Y6.097I-0.500J0.000
N1120G2X8.151Y6.597I0.000J0.500
N1130G2X8.651Y7.097I0.500J0.000
N1140G01Z-0.437F4.0
N1150G2X9.151Y6.597I0.000J-0.500F500.0
N1160G2X8.651Y6.097I-0.500J0.000
N1170G2X8.151Y6.597I0.000J0.500
N1180G2X8.651Y7.097I0.500J0.000
N1190G01Z-0.457F4.0
N1200G2X9.151Y6.597I0.000J-0.500F500.0
N1210G2X8.651Y6.097I-0.500J0.000
N1220G2X8.151Y6.597I0.000J0.500
N1230G2X8.651Y7.097I0.500J0.000
N1240G01Z-0.477F4.0
N1250G2X9.151Y6.597I0.000J-0.500F500.0
N1260G2X8.651Y6.097I-0.500J0.000
N1270G2X8.151Y6.597I0.000J0.500
N1280G2X8.651Y7.097I0.500J0.000
N1290G01Z-0.497F4.0
N1300G2X9.151Y6.597I0.000J-0.500F500.0
N1310G2X8.651Y6.097I-0.500J0.000
N1320G2X8.151Y6.597I0.000J0.500
N1330G2X8.651Y7.097I0.500J0.000
N1340G01Z-0.517F4.0
N1350G2X9.151Y6.597I0.000J-0.500F500.0
N1360G2X8.651Y6.097I-0.500J0.000
N1370G2X8.151Y6.597I0.000J0.500
N1380G2X8.651Y7.097I0.500J0.000
N1390G01Z-0.537F4.0
N1400G2X9.151Y6.597I0.000J-0.500F500.0
N1410G2X8.651Y6.097I-0.500J0.000
N1420G2X8.151Y6.597I0.000J0.500
N1430G2X8.651Y7.097I0.500J0.000
N1440G01Z-0.556F4.0
N1450G2X9.151Y6.597I0.000J-0.500F500.0
N1460G2X8.651Y6.097I-0.500J0.000
N1470G2X8.151Y6.597I0.000J0.500
N1480G2X8.651Y7.097I0.500J0.000
N1490G01Z-0.576F4.0
N1500G2X9.151Y6.597I0.000J-0.500F500.0
N1510G2X8.651Y6.097I-0.500J0.000
N1520G2X8.151Y6.597I0.000J0.500
N1530G2X8.651Y7.097I0.500J0.000
N1540G01Z-0.596F4.0
N1550G2X9.151Y6.597I0.000J-0.500F500.0
N1560G2X8.651Y6.097I-0.500J0.000
N1570G2X8.151Y6.597I0.000J0.500
N1580G2X8.651Y7.097I0.500J0.000
N1590G01Z-0.616F4.0
N1600G2X9.151Y6.597I0.000J-0.500F500.0
N1610G2X8.651Y6.097I-0.500J0.000
N1620G2X8.151Y6.597I0.000J0.500
N1630G2X8.651Y7.097I0.500J0.000
N1640G01Z-0.636F4.0
N1650G2X9.151Y6.597I0.000J-0.500F500.0
N1660G2X8.651Y6.097I-0.500J0.000
N1670G2X8.151Y6.597I0.000J0.500
N1680G2X8.651Y7.097I0.500J0.000
N1690G01Z-0.656F4.0
N1700G2X9.151Y6.597I0.000J-0.500F500.0
N1710G2X8.651Y6.097I-0.500J0.000
N1720G2X8.151Y6.597I0.000J0.500
N1730G2X8.651Y7.097I0.500J0.000
N1740G01Z-0.676F4.0
N1750G2X9.151Y6.597I0.000J-0.500F500.0
N1760G2X8.651Y6.097I-0.500J0.000
N1770G2X8.151Y6.597I0.000J0.500
N1780G2X8.651Y7.097I0.500J0.000
N1790G01Z-0.696F4.0
N1800G2X9.151Y6.597I0.000J-0.500F500.0
N1810G2X8.651Y6.097I-0.500J0.000
N1820G2X8.151Y6.597I0.000J0.500
N1830G2X8.651Y7.097I0.500J0.000
N1840G01Z-0.715F4.0
N1850G2X9.151Y6.597I0.000J-0.500F500.0
N1860G2X8.651Y6.097I-0.500J0.000
N1870G2X8.151Y6.597I0.000J0.500
N1880G2X8.651Y7.097I0.500J0.000
N1890G01Z-0.735F4.0
N1900G2X9.151Y6.597I0.000J-0.500F500.0
N1910G2X8.651Y6.097I-0.500J0.000
N1920G2X8.151Y6.597I0.000J0.500
N1930G2X8.651Y7.097I0.500J0.000
N1940G01Z-0.755F4.0
N1950G2X9.151Y6.597I0.000J-0.500F500.0
N1960G2X8.651Y6.097I-0.500J0.000
N1970G2X8.151Y6.597I0.000J0.500
N1980G2X8.651Y7.097I0.500J0.000
N1990G01Z-0.775F4.0
N2000G2X9.151Y6.597I0.000J-0.500F500.0
N2010G2X8.651Y6.097I-0.500J0.000
N2020G2X8.151Y6.597I0.000J0.500
N2030G2X8.651Y7.097I0.500J0.000
N2040G01Z-0.795F4.0
N2050G2X9.151Y6.597I0.000J-0.500F500.0
N2060G2X8.651Y6.097I-0.500J0.000
N2070G2X8.151Y6.597I0.000J0.500
N2080G2X8.651Y7.097I0.500J0.000
N2090G01Z-0.815F4.0
N2100G2X9.151Y6.597I0.000J-0.500F500.0
N2110G2X8.651Y6.097I-0.500J0.000
N2120G2X8.151Y6.597I0.000J0.500
N2130G2X8.651Y7.097I0.500J0.000
N2140G01Z-0.835F4.0
N2150G2X9.151Y6.597I0.000J-0.500F500.0
N2160G2X8.651Y6.097I-0.500J0.000
N2170G2X8.151Y6.597I0.000J0.500
N2180G2X8.651Y7.097I0.500J0.000
N2190G01Z-0.854F4.0
N2200G2X9.151Y6.597I0.000J-0.500F500.0
N2210G2X8.651Y6.097I-0.500J0.000
N2220G2X8.151Y6.597I0.000J0.500
N2230G2X8.651Y7.097I0.500J0.000
N2240G01Z-0.874F4.0
N2250G2X9.151Y6.597I0.000J-0.500F500.0
N2260G2X8.651Y6.097I-0.500J0.000
N2270G2X8.151Y6.597I0.000J0.500
N2280G2X8.651Y7.097I0.500J0.000
N2290G01Z-0.894F4.0
N2300G2X9.151Y6.597I0.000J-0.500F500.0
N2310G2X8.651Y6.097I-0.500J0.000
N2320G2X8.151Y6.597I0.000J0.500
N2330G2X8.651Y7.097I0.500J0.000
N2340G01Z-0.914F4.0
N2350G2X9.151Y6.597I0.000J-0.500F500.0
N2360G2X8.651Y6.097I-0.500J0.000
N2370G2X8.151Y6.597I0.000J0.500
N2380G2X8.651Y7.097I0.500J0.000
N2390G01Z-0.934F4.0
N2400G2X9.151Y6.597I0.000J-0.500F500.0
N2410G2X8.651Y6.097I-0.500J0.000
N2420G2X8.151Y6.597I0.000J0.500
N2430G2X8.651Y7.097I0.500J0.000
N2440G01Z-0.954F4.0
N2450G2X9.151Y6.597I0.000J-0.500F500.0
N2460G2X8.651Y6.097I-0.500J0.000
N2470G2X8.151Y6.597I0.000J0.500
N2480G2X8.651Y7.097I0.500J0.000
N2490G01Z-0.974F4.0
N2500G2X9.151Y6.597I0.000J-0.500F500.0
N2510G2X8.651Y6.097I-0.500J0.000
N2520G2X8.151Y6.597I0.000J0.500
N2530G2X8.651Y7.097I0.500J0.000
N2540G01Z-0.994F4.0
N2550G2X9.151Y6.597I0.000J-0.500F500.0
N2560G2X8.651Y6.097I-0.500J0.000
N2570G2X8.151Y6.597I0.000J0.500
N2580G2X8.651Y7.097I0.500J0.000
N2590G01Z-1.013F4.0
N2600G2X9.151Y6.597I0.000J-0.500F500.0
N2610G2X8.651Y6.097I-0.500J0.000
N2620G2X8.151Y6.597I0.000J0.500
N2630G2X8.651Y7.097I0.500J0.000
N2640G01Z-1.033F4.0
N2650G2X9.151Y6.597I0.000J-0.500F500.0
N2660G2X8.651Y6.097I-0.500J0.000
N2670G2X8.151Y6.597I0.000J0.500
N2680G2X8.651Y7.097I0.500J0.000
N2690G01Z-1.053F4.0
N2700G2X9.151Y6.597I0.000J-0.500F500.0
N2710G2X8.651Y6.097I-0.500J0.000
N2720G2X8.151Y6.597I0.000J0.500
N2730G2X8.651Y7.097I0.500J0.000
N2740G01Z-1.073F4.0
N2750G2X9.151Y6.597I0.000J-0.500F500.0
N2760G2X8.651Y6.097I-0.500J0.000
N2770G2X8.151Y6.597I0.000J0.500
N2780G2X8.651Y7.097I0.500J0.000
N2790G01Z-1.093F4.0
N2800G2X9.151Y6.597I0.000J-0.500F500.0
N2810G2X8.651Y6.097I-0.500J0.000
N2820G2X8.151Y6.597I0.000J0.500
N2830G2X8.651Y7.097I0.500J0.000
N2840G01Z-1.113F4.0
N2850G2X9.151Y6.597I0.000J-0.500F500.0
N2860G2X8.651Y6.097I-0.500J0.000
N2870G2X8.151Y6.597I0.000J0.500
N2880G2X8.651Y7.097I0.500J0.000
N2890G01Z-1.133F4.0
N2900G2X9.151Y6.597I0.000J-0.500F500.0
N2910G2X8.651Y6.097I-0.500J0.000
N2920G2X8.151Y6.597I0.000J0.500
N2930G2X8.651Y7.097I0.500J0.000
N2940G01Z-1.153F4.0
N2950G2X9.151Y6.597I0.000J-0.500F500.0
N2960G2X8.651Y6.097I-0.500J0.000
N2970G2X8.151Y6.597I0.000J0.500
N2980G2X8.651Y7.097I0.500J0.000
N2990G01Z-1.172F4.0
N3000G2X9.151Y6.597I0.000J-0.500F500.0
N3010G2X8.651Y6.097I-0.500J0.000
N3020G2X8.151Y6.597I0.000J0.500
N3030G2X8.651Y7.097I0.500J0.000
N3040G01Z-1.192F4.0
N3050G2X9.151Y6.597I0.000J-0.500F500.0
N3060G2X8.651Y6.097I-0.500J0.000
N3070G2X8.151Y6.597I0.000J0.500
N3080G2X8.651Y7.097I0.500J0.000
N3090G01Z-1.212F4.0
N3100G2X9.151Y6.597I0.000J-0.500F500.0
N3110G2X8.651Y6.097I-0.500J0.000
N3120G2X8.151Y6.597I0.000J0.500
N3130G2X8.651Y7.097I0.500J0.000
N3140G01Z-1.232F4.0
N3150G2X9.151Y6.597I0.000J-0.500F500.0
N3160G2X8.651Y6.097I-0.500J0.000
N3170G2X8.151Y6.597I0.000J0.500
N3180G2X8.651Y7.097I0.500J0.000
N3190G01Z-1.252F4.0
N3200G2X9.151Y6.597I0.000J-0.500F500.0
N3210G2X8.651Y6.097I-0.500J0.000
N3220G2X8.151Y6.597I0.000J0.500
N3230G2X8.651Y7.097I0.500J0.000
N3240G01Z-1.272F4.0
N3250G2X9.151Y6.597I0.000J-0.500F500.0
N3260G2X8.651Y6.097I-0.500J0.000
N3270G2X8.151Y6.597I0.000J0.500
N3280G2X8.651Y7.097I0.500J0.000
N3290G01Z-1.292F4.0
N3300G2X9.151Y6.597I0.000J-0.500F500.0
N3310G2X8.651Y6.097I-0.500J0.000
N3320G2X8.151Y6.597I0.000J0.500
N3330G2X8.651Y7.097I0.500J0.000
N3340G01Z-1.312F4.0
N3350G2X9.151Y6.597I0.000J-0.500F500.0
N3360G2X8.651Y6.097I-0.500J0.000
N3370G2X8.151Y6.597I0.000J0.500
N3380G2X8.651Y7.097I0.500J0.000
N3390G01Z-1.331F4.0
N3400G2X9.151Y6.597I0.000J-0.500F500.0
N3410G2X8.651Y6.097I-0.500J0.000
N3420G2X8.151Y6.597I0.000J0.500
N3430G2X8.651Y7.097I0.500J0.000
N3440G01Z-1.351F4.0
N3450G2X9.151Y6.597I0.000J-0.500F500.0
N3460G2X8.651Y6.097I-0.500J0.000
N3470G2X8.151Y6.597I0.000J0.500
N3480G2X8.651Y7.097I0.500J0.000
N3490G01Z-1.371F4.0
N3500G2X9.151Y6.597I0.000J-0.500F500.0
N3510G2X8.651Y6.097I-0.500J0.000
N3520G2X8.151Y6.597I0.000J0.500
N3530G2X8.651Y7.097I0.500J0.000
N3540G01Z-1.391F4.0
N3550G2X9.151Y6.597I0.000J-0.500F500.0
N3560G2X8.651Y6.097I-0.500J0.000
N3570G2X8.151Y6.597I0.000J0.500
N3580G2X8.651Y7.097I0.500J0.000
N3590G01Z-1.411F4.0
N3600G2X9.151Y6.597I0.000J-0.500F500.0
N3610G2X8.651Y6.097I-0.500J0.000
N3620G2X8.151Y6.597I0.000J0.500
N3630G2X8.651Y7.097I0.500J0.000
N3640G01Z-1.431F4.0
N3650G2X9.151Y6.597I0.000J-0.500F500.0
N3660G2X8.651Y6.097I-0.500J0.000
N3670G2X8.151Y6.597I0.000J0.500
N3680G2X8.651Y7.097I0.500J0.000
N3690G01Z-1.451F4.0
N3700G2X9.151Y6.597I0.000J-0.500F500.0
N3710G2X8.651Y6.097I-0.500J0.000
N3720G2X8.151Y6.597I0.000J0.500
N3730G2X8.651Y7.097I0.500J0.000
N3740G01Z-1.471F4.0
N3750G2X9.151Y6.597I0.000J-0.500F500.0
N3760G2X8.651Y6.097I-0.500J0.000
N3770G2X8.151Y6.597I0.000J0.500
N3780G2X8.651Y7.097I0.500J0.000
N3790G01Z-1.490F4.0
N3800G2X9.151Y6.597I0.000J-0.500F500.0
N3810G2X8.651Y6.097I-0.500J0.000
N3820G2X8.151Y6.597I0.000J0.500
N3830G2X8.651Y7.097I0.500J0.000
N3840G01Z-1.510F4.0
N3850G2X9.151Y6.597I0.000J-0.500F500.0
N3860G2X8.651Y6.097I-0.500J0.000
N3870G2X8.151Y6.597I0.000J0.500
N3880G2X8.651Y7.097I0.500J0.000
N3890G01Z-1.530F4.0
N3900G2X9.151Y6.597I0.000J-0.500F500.0
N3910G2X8.651Y6.097I-0.500J0.000
N3920G2X8.151Y6.597I0.000J0.500
N3930G2X8.651Y7.097I0.500J0.000
N3940G01Z-1.550F4.0
N3950G2X9.151Y6.597I0.000J-0.500F500.0
N3960G2X8.651Y6.097I-0.500J0.000
N3970G2X8.151Y6.597I0.000J0.500
N3980G2X8.651Y7.097I0.500J0.000
N3990G00Z6.000
N4000G00X9.170Y19.619
N4010G01Z-0.020F4.0
N4020G2X9.670Y19.119I0.000J-0.500F500.0
N4030G2X9.170Y18.619I-0.500J0.000
N4040G2X8.670Y19.119I0.000J0.500
N4050G2X9.170Y19.619I0.500J0.000
N4060G01Z-0.040F4.0
N4070G2X9.670Y19.119I0.000J-0.500F500.0
N4080G2X9.170Y18.619I-0.500J0.000
N4090G2X8.670Y19.119I0.000J0.500
N4100G2X9.170Y19.619I0.500J0.000
N4110G01Z-0.060F4.0
N4120G2X9.670Y19.119I0.000J-0.500F500.0
N4130G2X9.170Y18.619I-0.500J0.000
N4140G2X8.670Y19.119I0.000J0.500
N4150G2X9.170Y19.619I0.500J0.000
N4160G01Z-0.079F4.0
N4170G2X9.670Y19.119I0.000J-0.500F500.0
N4180G2X9.170Y18.619I-0.500J0.000
N4190G2X8.670Y19.119I0.000J0.500
N4200G2X9.170Y19.619I0.500J0.000
N4210G01Z-0.099F4.0
N4220G2X9.670Y19.119I0.000J-0.500F500.0
N4230G2X9.170Y18.619I-0.500J0.000
N4240G2X8.670Y19.119I0.000J0.500
N4250G2X9.170Y19.619I0.500J0.000
N4260G01Z-0.119F4.0
N4270G2X9.670Y19.119I0.000J-0.500F500.0
N4280G2X9.170Y18.619I-0.500J0.000
N4290G2X8.670Y19.119I0.000J0.500
N4300G2X9.170Y19.619I0.500J0.000
N4310G01Z-0.139F4.0
N4320G2X9.670Y19.119I0.000J-0.500F500.0
N4330G2X9.170Y18.619I-0.500J0.000
N4340G2X8.670Y19.119I0.000J0.500
N4350G2X9.170Y19.619I0.500J0.000
N4360G01Z-0.159F4.0
N4370G2X9.670Y19.119I0.000J-0.500F500.0
N4380G2X9.170Y18.619I-0.500J0.000
N4390G2X8.670Y19.119I0.000J0.500
N4400G2X9.170Y19.619I0.500J0.000
N4410G01Z-0.179F4.0
N4420G2X9.670Y19.119I0.000J-0.500F500.0
N4430G2X9.170Y18.619I-0.500J0.000
N4440G2X8.670Y19.119I0.000J0.500
N4450G2X9.170Y19.619I0.500J0.000
N4460G01Z-0.199F4.0
N4470G2X9.670Y19.119I0.000J-0.500F500.0
N4480G2X9.170Y18.619I-0.500J0.000
N4490G2X8.670Y19.119I0.000J0.500
N4500G2X9.170Y19.619I0.500J0.000
N4510G01Z-0.219F4.0
N4520G2X9.670Y19.119I0.000J-0.500F500.0
N4530G2X9.170Y18.619I-0.500J0.000
N4540G2X8.670Y19.119I0.000J0.500
N4550G2X9.170Y19.619I0.500J0.000
N4560G01Z-0.238F4.0
N4570G2X9.670Y19.119I0.000J-0.500F500.0
N4580G2X9.170Y18.619I-0.500J0.000
N4590G2X8.670Y19.119I0.000J0.500
N4600G2X9.170Y19.619I0.500J0.000
N4610G01Z-0.258F4.0
N4620G2X9.670Y19.119I0.000J-0.500F500.0
N4630G2X9.170Y18.619I-0.500J0.000
N4640G2X8.670Y19.119I0.000J0.500
N4650G2X9.170Y19.619I0.500J0.000
N4660G01Z-0.278F4.0
N4670G2X9.670Y19.119I0.000J-0.500F500.0
N4680G2X9.170Y18.619I-0.500J0.000
N4690G2X8.670Y19.119I0.000J0.500
N4700G2X9.170Y19.619I0.500J0.000
N4710G01Z-0.298F4.0
N4720G2X9.670Y19.119I0.000J-0.500F500.0
N4730G2X9.170Y18.619I-0.500J0.000
N4740G2X8.670Y19.119I0.000J0.500
N4750G2X9.170Y19.619I0.500J0.000
N4760G01Z-0.318F4.0
N4770G2X9.670Y19.119I0.000J-0.500F500.0
N4780G2X9.170Y18.619I-0.500J0.000
N4790G2X8.670Y19.119I0.000J0.500
N4800G2X9.170Y19.619I0.500J0.000
N4810G01Z-0.338F4.0
N4820G2X9.670Y19.119I0.000J-0.500F500.0
N4830G2X9.170Y18.619I-0.500J0.000
N4840G2X8.670Y19.119I0.000J0.500
N4850G2X9.170Y19.619I0.500J0.000
N4860G01Z-0.358F4.0
N4870G2X9.670Y19.119I0.000J-0.500F500.0
N4880G2X9.170Y18.619I-0.500J0.000
N4890G2X8.670Y19.119I0.000J0.500
N4900G2X9.170Y19.619I0.500J0.000
N4910G01Z-0.378F4.0
N4920G2X9.670Y19.119I0.000J-0.500F500.0
N4930G2X9.170Y18.619I-0.500J0.000
N4940G2X8.670Y19.119I0.000J0.500
N4950G2X9.170Y19.619I0.500J0.000
N4960G01Z-0.397F4.0
N4970G2X9.670Y19.119I0.000J-0.500F500.0
N4980G2X9.170Y18.619I-0.500J0.000
N4990G2X8.670Y19.119I0.000J0.500
N5000G2X9.170Y19.619I0.500J0.000
N5010G01Z-0.417F4.0
N5020G2X9.670Y19.119I0.000J-0.500F500.0
N5030G2X9.170Y18.619I-0.500J0.000
N5040G2X8.670Y19.119I0.000J0.500
N5050G2X9.170Y19.619I0.500J0.000
N5060G01Z-0.437F4.0
N5070G2X9.670Y19.119I0.000J-0.500F500.0
N5080G2X9.170Y18.619I-0.500J0.000
N5090G2X8.670Y19.119I0.000J0.500
N5100G2X9.170Y19.619I0.500J0.000
N5110G01Z-0.457F4.0
N5120G2X9.670Y19.119I0.000J-0.500F500.0
N5130G2X9.170Y18.619I-0.500J0.000
N5140G2X8.670Y19.119I0.000J0.500
N5150G2X9.170Y19.619I0.500J0.000
N5160G01Z-0.477F4.0
N5170G2X9.670Y19.119I0.000J-0.500F500.0
N5180G2X9.170Y18.619I-0.500J0.000
N5190G2X8.670Y19.119I0.000J0.500
N5200G2X9.170Y19.619I0.500J0.000
N5210G01Z-0.497F4.0
N5220G2X9.670Y19.119I0.000J-0.500F500.0
N5230G2X9.170Y18.619I-0.500J0.000
N5240G2X8.670Y19.119I0.000J0.500
N5250G2X9.170Y19.619I0.500J0.000
N5260G01Z-0.517F4.0
N5270G2X9.670Y19.119I0.000J-0.500F500.0
N5280G2X9.170Y18.619I-0.500J0.000
N5290G2X8.670Y19.119I0.000J0.500
N5300G2X9.170Y19.619I0.500J0.000
N5310G01Z-0.537F4.0
N5320G2X9.670Y19.119I0.000J-0.500F500.0
N5330G2X9.170Y18.619I-0.500J0.000
N5340G2X8.670Y19.119I0.000J0.500
N5350G2X9.170Y19.619I0.500J0.000
N5360G01Z-0.556F4.0
N5370G2X9.670Y19.119I0.000J-0.500F500.0
N5380G2X9.170Y18.619I-0.500J0.000
N5390G2X8.670Y19.119I0.000J0.500
N5400G2X9.170Y19.619I0.500J0.000
N5410G01Z-0.576F4.0
N5420G2X9.670Y19.119I0.000J-0.500F500.0
N5430G2X9.170Y18.619I-0.500J0.000
N5440G2X8.670Y19.119I0.000J0.500
N5450G2X9.170Y19.619I0.500J0.000
N5460G01Z-0.596F4.0
N5470G2X9.670Y19.119I0.000J-0.500F500.0
N5480G2X9.170Y18.619I-0.500J0.000
N5490G2X8.670Y19.119I0.000J0.500
N5500G2X9.170Y19.619I0.500J0.000
N5510G01Z-0.616F4.0
N5520G2X9.670Y19.119I0.000J-0.500F500.0
N5530G2X9.170Y18.619I-0.500J0.000
N5540G2X8.670Y19.119I0.000J0.500
N5550G2X9.170Y19.619I0.500J0.000
N5560G01Z-0.636F4.0
N5570G2X9.670Y19.119I0.000J-0.500F500.0
N5580G2X9.170Y18.619I-0.500J0.000
N5590G2X8.670Y19.119I0.000J0.500
N5600G2X9.170Y19.619I0.500J0.000
N5610G01Z-0.656F4.0
N5620G2X9.670Y19.119I0.000J-0.500F500.0
N5630G2X9.170Y18.619I-0.500J0.000
N5640G2X8.670Y19.119I0.000J0.500
N5650G2X9.170Y19.619I0.500J0.000
N5660G01Z-0.676F4.0
N5670G2X9.670Y19.119I0.000J-0.500F500.0
N5680G2X9.170Y18.619I-0.500J0.000
N5690G2X8.670Y19.119I0.000J0.500
N5700G2X9.170Y19.619I0.500J0.000
N5710G01Z-0.696F4.0
N5720G2X9.670Y19.119I0.000J-0.500F500.0
N5730G2X9.170Y18.619I-0.500J0.000
N5740G2X8.670Y19.119I0.000J0.500
N5750G2X9.170Y19.619I0.500J0.000
N5760G01Z-0.715F4.0
N5770G2X9.670Y19.119I0.000J-0.500F500.0
N5780G2X9.170Y18.619I-0.500J0.000
N5790G2X8.670Y19.119I0.000J0.500
N5800G2X9.170Y19.619I0.500J0.000
N5810G01Z-0.735F4.0
N5820G2X9.670Y19.119I0.000J-0.500F500.0
N5830G2X9.170Y18.619I-0.500J0.000
N5840G2X8.670Y19.119I0.000J0.500
N5850G2X9.170Y19.619I0.500J0.000
N5860G01Z-0.755F4.0
N5870G2X9.670Y19.119I0.000J-0.500F500.0
N5880G2X9.170Y18.619I-0.500J0.000
N5890G2X8.670Y19.119I0.000J0.500
N5900G2X9.170Y19.619I0.500J0.000
N5910G01Z-0.775F4.0
N5920G2X9.670Y19.119I0.000J-0.500F500.0
N5930G2X9.170Y18.619I-0.500J0.000
N5940G2X8.670Y19.119I0.000J0.500
N5950G2X9.170Y19.619I0.500J0.000
N5960G01Z-0.795F4.0
N5970G2X9.670Y19.119I0.000J-0.500F500.0
N5980G2X9.170Y18.619I-0.500J0.000
N5990G2X8.670Y19.119I0.000J0.500
N6000G2X9.170Y19.619I0.500J0.000
N6010G01Z-0.815F4.0
N6020G2X9.670Y19.119I0.000J-0.500F500.0
N6030G2X9.170Y18.619I-0.500J0.000
N6040G2X8.670Y19.119I0.000J0.500
N6050G2X9.170Y19.619I0.500J0.000
N6060G01Z-0.835F4.0
N6070G2X9.670Y19.119I0.000J-0.500F500.0
N6080G2X9.170Y18.619I-0.500J0.000
N6090G2X8.670Y19.119I0.000J0.500
N6100G2X9.170Y19.619I0.500J0.000
N6110G01Z-0.854F4.0
N6120G2X9.670Y19.119I0.000J-0.500F500.0
N6130G2X9.170Y18.619I-0.500J0.000
N6140G2X8.670Y19.119I0.000J0.500
N6150G2X9.170Y19.619I0.500J0.000
N6160G01Z-0.874F4.0
N6170G2X9.670Y19.119I0.000J-0.500F500.0
N6180G2X9.170Y18.619I-0.500J0.000
N6190G2X8.670Y19.119I0.000J0.500
N6200G2X9.170Y19.619I0.500J0.000
N6210G01Z-0.894F4.0
N6220G2X9.670Y19.119I0.000J-0.500F500.0
N6230G2X9.170Y18.619I-0.500J0.000
N6240G2X8.670Y19.119I0.000J0.500
N6250G2X9.170Y19.619I0.500J0.000
N6260G01Z-0.914F4.0
N6270G2X9.670Y19.119I0.000J-0.500F500.0
N6280G2X9.170Y18.619I-0.500J0.000
N6290G2X8.670Y19.119I0.000J0.500
N6300G2X9.170Y19.619I0.500J0.000
N6310G01Z-0.934F4.0
N6320G2X9.670Y19.119I0.000J-0.500F500.0
N6330G2X9.170Y18.619I-0.500J0.000
N6340G2X8.670Y19.119I0.000J0.500
N6350G2X9.170Y19.619I0.500J0.000
N6360G01Z-0.954F4.0
N6370G2X9.670Y19.119I0.000J-0.500F500.0
N6380G2X9.170Y18.619I-0.500J0.000
N6390G2X8.670Y19.119I0.000J0.500
N6400G2X9.170Y19.619I0.500J0.000
N6410G01Z-0.974F4.0
N6420G2X9.670Y19.119I0.000J-0.500F500.0
N6430G2X9.170Y18.619I-0.500J0.000
N6440G2X8.670Y19.119I0.000J0.500
N6450G2X9.170Y19.619I0.500J0.000
N6460G01Z-0.994F4.0
N6470G2X9.670Y19.119I0.000J-0.500F500.0
N6480G2X9.170Y18.619I-0.500J0.000
N6490G2X8.670Y19.119I0.000J0.500
N6500G2X9.170Y19.619I0.500J0.000
N6510G01Z-1.013F4.0
N6520G2X9.670Y19.119I0.000J-0.500F500.0
N6530G2X9.170Y18.619I-0.500J0.000
N6540G2X8.670Y19.119I0.000J0.500
N6550G2X9.170Y19.619I0.500J0.000
N6560G01Z-1.033F4.0
N6570G2X9.670Y19.119I0.000J-0.500F500.0
N6580G2X9.170Y18.619I-0.500J0.000
N6590G2X8.670Y19.119I0.000J0.500
N6600G2X9.170Y19.619I0.500J0.000
N6610G01Z-1.053F4.0
N6620G2X9.670Y19.119I0.000J-0.500F500.0
N6630G2X9.170Y18.619I-0.500J0.000
N6640G2X8.670Y19.119I0.000J0.500
N6650G2X9.170Y19.619I0.500J0.000
N6660G01Z-1.073F4.0
N6670G2X9.670Y19.119I0.000J-0.500F500.0
N6680G2X9.170Y18.619I-0.500J0.000
N6690G2X8.670Y19.119I0.000J0.500
N6700G2X9.170Y19.619I0.500J0.000
N6710G01Z-1.093F4.0
N6720G2X9.670Y19.119I0.000J-0.500F500.0
N6730G2X9.170Y18.619I-0.500J0.000
N6740G2X8.670Y19.119I0.000J0.500
N6750G2X9.170Y19.619I0.500J0.000
N6760G01Z-1.113F4.0
N6770G2X9.670Y19.119I0.000J-0.500F500.0
N6780G2X9.170Y18.619I-0.500J0.000
N6790G2X8.670Y19.119I0.000J0.500
N6800G2X9.170Y19.619I0.500J0.000
N6810G01Z-1.133F4.0
N6820G2X9.670Y19.119I0.000J-0.500F500.0
N6830G2X9.170Y18.619I-0.500J0.000
N6840G2X8.670Y19.119I0.000J0.500
N6850G2X9.170Y19.619I0.500J0.000
N6860G01Z-1.153F4.0
N6870G2X9.670Y19.119I0.000J-0.500F500.0
N6880G2X9.170Y18.619I-0.500J0.000
N6890G2X8.670Y19.119I0.000J0.500
N6900G2X9.170Y19.619I0.500J0.000
N6910G01Z-1.172F4.0
N6920G2X9.670Y19.119I0.000J-0.500F500.0
N6930G2X9.170Y18.619I-0.500J0.000
N6940G2X8.670Y19.119I0.000J0.500
N6950G2X9.170Y19.619I0.500J0.000
N6960G01Z-1.192F4.0
N6970G2X9.670Y19.119I0.000J-0.500F500.0
N6980G2X9.170Y18.619I-0.500J0.000
N6990G2X8.670Y19.119I0.000J0.500
N7000G2X9.170Y19.619I0.500J0.000
N7010G01Z-1.212F4.0
N7020G2X9.670Y19.119I0.000J-0.500F500.0
N7030G2X9.170Y18.619I-0.500J0.000
N7040G2X8.670Y19.119I0.000J0.500
N7050G2X9.170Y19.619I0.500J0.000
N7060G01Z-1.232F4.0
N7070G2X9.670Y19.119I0.000J-0.500F500.0
N7080G2X9.170Y18.619I-0.500J0.000
N7090G2X8.670Y19.119I0.000J0.500
N7100G2X9.170Y19.619I0.500J0.000
N7110G01Z-1.252F4.0
N7120G2X9.670Y19.119I0.000J-0.500F500.0
N7130G2X9.170Y18.619I-0.500J0.000
N7140G2X8.670Y19.119I0.000J0.500
N7150G2X9.170Y19.619I0.500J0.000
N7160G01Z-1.272F4.0
N7170G2X9.670Y19.119I0.000J-0.500F500.0
N7180G2X9.170Y18.619I-0.500J0.000
N7190G2X8.670Y19.119I0.000J0.500
N7200G2X9.170Y19.619I0.500J0.000
N7210G01Z-1.292F4.0
N7220G2X9.670Y19.119I0.000J-0.500F500.0
N7230G2X9.170Y18.619I-0.500J0.000
N7240G2X8.670Y19.119I0.000J0.500
N7250G2X9.170Y19.619I0.500J0.000
N7260G01Z-1.312F4.0
N7270G2X9.670Y19.119I0.000J-0.500F500.0
N7280G2X9.170Y18.619I-0.500J0.000
N7290G2X8.670Y19.119I0.000J0.500
N7300G2X9.170Y19.619I0.500J0.000
N7310G01Z-1.331F4.0
N7320G2X9.670Y19.119I0.000J-0.500F500.0
N7330G2X9.170Y18.619I-0.500J0.000
N7340G2X8.670Y19.119I0.000J0.500
N7350G2X9.170Y19.619I0.500J0.000
N7360G01Z-1.351F4.0
N7370G2X9.670Y19.119I0.000J-0.500F500.0
N7380G2X9.170Y18.619I-0.500J0.000
N7390G2X8.670Y19.119I0.000J0.500
N7400G2X9.170Y19.619I0.500J0.000
N7410G01Z-1.371F4.0
N7420G2X9.670Y19.119I0.000J-0.500F500.0
N7430G2X9.170Y18.619I-0.500J0.000
N7440G2X8.670Y19.119I0.000J0.500
N7450G2X9.170Y19.619I0.500J0.000
N7460G01Z-1.391F4.0
N7470G2X9.670Y19.119I0.000J-0.500F500.0
N7480G2X9.170Y18.619I-0.500J0.000
N7490G2X8.670Y19.119I0.000J0.500
N7500G2X9.170Y19.619I0.500J0.000
N7510G01Z-1.411F4.0
N7520G2X9.670Y19.119I0.000J-0.500F500.0
N7530G2X9.170Y18.619I-0.500J0.000
N7540G2X8.670Y19.119I0.000J0.500
N7550G2X9.170Y19.619I0.500J0.000
N7560G01Z-1.431F4.0
N7570G2X9.670Y19.119I0.000J-0.500F500.0
N7580G2X9.170Y18.619I-0.500J0.000
N7590G2X8.670Y19.119I0.000J0.500
N7600G2X9.170Y19.619I0.500J0.000
N7610G01Z-1.451F4.0
N7620G2X9.670Y19.119I0.000J-0.500F500.0
N7630G2X9.170Y18.619I-0.500J0.000
N7640G2X8.670Y19.119I0.000J0.500
N7650G2X9.170Y19.619I0.500J0.000
N7660G01Z-1.471F4.0
N7670G2X9.670Y19.119I0.000J-0.500F500.0
N7680G2X9.170Y18.619I-0.500J0.000
N7690G2X8.670Y19.119I0.000J0.500
N7700G2X9.170Y19.619I0.500J0.000
N7710G01Z-1.490F4.0
N7720G2X9.670Y19.119I0.000J-0.500F500.0
N7730G2X9.170Y18.619I-0.500J0.000
N7740G2X8.670Y19.119I0.000J0.500
N7750G2X9.170Y19.619I0.500J0.000
N7760G01Z-1.510F4.0
N7770G2X9.670Y19.119I0.000J-0.500F500.0
N7780G2X9.170Y18.619I-0.500J0.000
N7790G2X8.670Y19.119I0.000J0.500
N7800G2X9.170Y19.619I0.500J0.000
N7810G01Z-1.530F4.0
N7820G2X9.670Y19.119I0.000J-0.500F500.0
N7830G2X9.170Y18.619I-0.500J0.000
N7840G2X8.670Y19.119I0.000J0.500
N7850G2X9.170Y19.619I0.500J0.000
N7860G01Z-1.550F4.0
N7870G2X9.670Y19.119I0.000J-0.500F500.0
N7880G2X9.170Y18.619I-0.500J0.000
N7890G2X8.670Y19.119I0.000J0.500
N7900G2X9.170Y19.619I0.500J0.000
N7910G00Z6.000
N7920G00Y31.940
N7930G01Z-0.020F4.0
N7940G2X9.670Y31.440I0.000J-0.500F500.0
N7950G2X9.170Y30.940I-0.500J0.000
N7960G2X8.670Y31.440I0.000J0.500
N7970G2X9.170Y31.940I0.500J0.000
N7980G01Z-0.040F4.0
N7990G2X9.670Y31.440I0.000J-0.500F500.0
N8000G2X9.170Y30.940I-0.500J0.000
N8010G2X8.670Y31.440I0.000J0.500
N8020G2X9.170Y31.940I0.500J0.000
N8030G01Z-0.060F4.0
N8040G2X9.670Y31.440I0.000J-0.500F500.0
N8050G2X9.170Y30.940I-0.500J0.000
N8060G2X8.670Y31.440I0.000J0.500
N8070G2X9.170Y31.940I0.500J0.000
N8080G01Z-0.079F4.0
N8090G2X9.670Y31.440I0.000J-0.500F500.0
N8100G2X9.170Y30.940I-0.500J0.000
N8110G2X8.670Y31.440I0.000J0.500
N8120G2X9.170Y31.940I0.500J0.000
N8130G01Z-0.099F4.0
N8140G2X9.670Y31.440I0.000J-0.500F500.0
N8150G2X9.170Y30.940I-0.500J0.000
N8160G2X8.670Y31.440I0.000J0.500
N8170G2X9.170Y31.940I0.500J0.000
N8180G01Z-0.119F4.0
N8190G2X9.670Y31.440I0.000J-0.500F500.0
N8200G2X9.170Y30.940I-0.500J0.000
N8210G2X8.670Y31.440I0.000J0.500
N8220G2X9.170Y31.940I0.500J0.000
N8230G01Z-0.139F4.0
N8240G2X9.670Y31.440I0.000J-0.500F500.0
N8250G2X9.170Y30.940I-0.500J0.000
N8260G2X8.670Y31.440I0.000J0.500
N8270G2X9.170Y31.940I0.500J0.000
N8280G01Z-0.159F4.0
N8290G2X9.670Y31.440I0.000J-0.500F500.0
N8300G2X9.170Y30.940I-0.500J0.000
N8310G2X8.670Y31.440I0.000J0.500
N8320G2X9.170Y31.940I0.500J0.000
N8330G01Z-0.179F4.0
N8340G2X9.670Y31.440I0.000J-0.500F500.0
N8350G2X9.170Y30.940I-0.500J0.000
N8360G2X8.670Y31.440I0.000J0.500
N8370G2X9.170Y31.940I0.500J0.000
N8380G01Z-0.199F4.0
N8390G2X9.670Y31.440I0.000J-0.500F500.0
N8400G2X9.170Y30.940I-0.500J0.000
N8410G2X8.670Y31.440I0.000J0.500
N8420G2X9.170Y31.940I0.500J0.000
N8430G01Z-0.219F4.0
N8440G2X9.670Y31.440I0.000J-0.500F500.0
N8450G2X9.170Y30.940I-0.500J0.000
N8460G2X8.670Y31.440I0.000J0.500
N8470G2X9.170Y31.940I0.500J0.000
N8480G01Z-0.238F4.0
N8490G2X9.670Y31.440I0.000J-0.500F500.0
N8500G2X9.170Y30.940I-0.500J0.000
N8510G2X8.670Y31.440I0.000J0.500
N8520G2X9.170Y31.940I0.500J0.000
N8530G01Z-0.258F4.0
N8540G2X9.670Y31.440I0.000J-0.500F500.0
N8550G2X9.170Y30.940I-0.500J0.000
N8560G2X8.670Y31.440I0.000J0.500
N8570G2X9.170Y31.940I0.500J0.000
N8580G01Z-0.278F4.0
N8590G2X9.670Y31.440I0.000J-0.500F500.0
N8600G2X9.170Y30.940I-0.500J0.000
N8610G2X8.670Y31.440I0.000J0.500
N8620G2X9.170Y31.940I0.500J0.000
N8630G01Z-0.298F4.0
N8640G2X9.670Y31.440I0.000J-0.500F500.0
N8650G2X9.170Y30.940I-0.500J0.000
N8660G2X8.670Y31.440I0.000J0.500
N8670G2X9.170Y31.940I0.500J0.000
N8680G01Z-0.318F4.0
N8690G2X9.670Y31.440I0.000J-0.500F500.0
N8700G2X9.170Y30.940I-0.500J0.000
N8710G2X8.670Y31.440I0.000J0.500
N8720G2X9.170Y31.940I0.500J0.000
N8730G01Z-0.338F4.0
N8740G2X9.670Y31.440I0.000J-0.500F500.0
N8750G2X9.170Y30.940I-0.500J0.000
N8760G2X8.670Y31.440I0.000J0.500
N8770G2X9.170Y31.940I0.500J0.000
N8780G01Z-0.358F4.0
N8790G2X9.670Y31.440I0.000J-0.500F500.0
N8800G2X9.170Y30.940I-0.500J0.000
N8810G2X8.670Y31.440I0.000J0.500
N8820G2X9.170Y31.940I0.500J0.000
N8830G01Z-0.378F4.0
N8840G2X9.670Y31.440I0.000J-0.500F500.0
N8850G2X9.170Y30.940I-0.500J0.000
N8860G2X8.670Y31.440I0.000J0.500
N8870G2X9.170Y31.940I0.500J0.000
N8880G01Z-0.397F4.0
N8890G2X9.670Y31.440I0.000J-0.500F500.0
N8900G2X9.170Y30.940I-0.500J0.000
N8910G2X8.670Y31.440I0.000J0.500
N8920G2X9.170Y31.940I0.500J0.000
N8930G01Z-0.417F4.0
N8940G2X9.670Y31.440I0.000J-0.500F500.0
N8950G2X9.170Y30.940I-0.500J0.000
N8960G2X8.670Y31.440I0.000J0.500
N8970G2X9.170Y31.940I0.500J0.000
N8980G01Z-0.437F4.0
N8990G2X9.670Y31.440I0.000J-0.500F500.0
N9000G2X9.170Y30.940I-0.500J0.000
N9010G2X8.670Y31.440I0.000J0.500
N9020G2X9.170Y31.940I0.500J0.000
N9030G01Z-0.457F4.0
N9040G2X9.670Y31.440I0.000J-0.500F500.0
N9050G2X9.170Y30.940I-0.500J0.000
N9060G2X8.670Y31.440I0.000J0.500
N9070G2X9.170Y31.940I0.500J0.000
N9080G01Z-0.477F4.0
N9090G2X9.670Y31.440I0.000J-0.500F500.0
N9100G2X9.170Y30.940I-0.500J0.000
N9110G2X8.670Y31.440I0.000J0.500
N9120G2X9.170Y31.940I0.500J0.000
N9130G01Z-0.497F4.0
N9140G2X9.670Y31.440I0.000J-0.500F500.0
N9150G2X9.170Y30.940I-0.500J0.000
N9160G2X8.670Y31.440I0.000J0.500
N9170G2X9.170Y31.940I0.500J0.000
N9180G01Z-0.517F4.0
N9190G2X9.670Y31.440I0.000J-0.500F500.0
N9200G2X9.170Y30.940I-0.500J0.000
N9210G2X8.670Y31.440I0.000J0.500
N9220G2X9.170Y31.940I0.500J0.000
N9230G01Z-0.537F4.0
N9240G2X9.670Y31.440I0.000J-0.500F500.0
N9250G2X9.170Y30.940I-0.500J0.000
N9260G2X8.670Y31.440I0.000J0.500
N9270G2X9.170Y31.940I0.500J0.000
N9280G01Z-0.556F4.0
N9290G2X9.670Y31.440I0.000J-0.500F500.0
N9300G2X9.170Y30.940I-0.500J0.000
N9310G2X8.670Y31.440I0.000J0.500
N9320G2X9.170Y31.940I0.500J0.000
N9330G01Z-0.576F4.0
N9340G2X9.670Y31.440I0.000J-0.500F500.0
N9350G2X9.170Y30.940I-0.500J0.000
N9360G2X8.670Y31.440I0.000J0.500
N9370G2X9.170Y31.940I0.500J0.000
N9380G01Z-0.596F4.0
N9390G2X9.670Y31.440I0.000J-0.500F500.0
N9400G2X9.170Y30.940I-0.500J0.000
N9410G2X8.670Y31.440I0.000J0.500
N9420G2X9.170Y31.940I0.500J0.000
N9430G01Z-0.616F4.0
N9440G2X9.670Y31.440I0.000J-0.500F500.0
N9450G2X9.170Y30.940I-0.500J0.000
N9460G2X8.670Y31.440I0.000J0.500
N9470G2X9.170Y31.940I0.500J0.000
N9480G01Z-0.636F4.0
N9490G2X9.670Y31.440I0.000J-0.500F500.0
N9500G2X9.170Y30.940I-0.500J0.000
N9510G2X8.670Y31.440I0.000J0.500
N9520G2X9.170Y31.940I0.500J0.000
N9530G01Z-0.656F4.0
N9540G2X9.670Y31.440I0.000J-0.500F500.0
N9550G2X9.170Y30.940I-0.500J0.000
N9560G2X8.670Y31.440I0.000J0.500
N9570G2X9.170Y31.940I0.500J0.000
N9580G01Z-0.676F4.0
N9590G2X9.670Y31.440I0.000J-0.500F500.0
N9600G2X9.170Y30.940I-0.500J0.000
N9610G2X8.670Y31.440I0.000J0.500
N9620G2X9.170Y31.940I0.500J0.000
N9630G01Z-0.696F4.0
N9640G2X9.670Y31.440I0.000J-0.500F500.0
N9650G2X9.170Y30.940I-0.500J0.000
N9660G2X8.670Y31.440I0.000J0.500
N9670G2X9.170Y31.940I0.500J0.000
N9680G01Z-0.715F4.0
N9690G2X9.670Y31.440I0.000J-0.500F500.0
N9700G2X9.170Y30.940I-0.500J0.000
N9710G2X8.670Y31.440I0.000J0.500
N9720G2X9.170Y31.940I0.500J0.000
N9730G01Z-0.735F4.0
N9740G2X9.670Y31.440I0.000J-0.500F500.0
N9750G2X9.170Y30.940I-0.500J0.000
N9760G2X8.670Y31.440I0.000J0.500
N9770G2X9.170Y31.940I0.500J0.000
N9780G01Z-0.755F4.0
N9790G2X9.670Y31.440I0.000J-0.500F500.0
N9800G2X9.170Y30.940I-0.500J0.000
N9810G2X8.670Y31.440I0.000J0.500
N9820G2X9.170Y31.940I0.500J0.000
N9830G01Z-0.775F4.0
N9840G2X9.670Y31.440I0.000J-0.500F500.0
N9850G2X9.170Y30.940I-0.500J0.000
N9860G2X8.670Y31.440I0.000J0.500
N9870G2X9.170Y31.940I0.500J0.000
N9880G01Z-0.795F4.0
N9890G2X9.670Y31.440I0.000J-0.500F500.0
N9900G2X9.170Y30.940I-0.500J0.000
N9910G2X8.670Y31.440I0.000J0.500
N9920G2X9.170Y31.940I0.500J0.000
N9930G01Z-0.815F4.0
N9940G2X9.670Y31.440I0.000J-0.500F500.0
N9950G2X9.170Y30.940I-0.500J0.000
N9960G2X8.670Y31.440I0.000J0.500
N9970G2X9.170Y31.940I0.500J0.000
N9980G01Z-0.835F4.0
N9990G2X9.670Y31.440I0.000J-0.500F500.0
N10000G2X9.170Y30.940I-0.500J0.000
N10010G2X8.670Y31.440I0.000J0.500
N10020G2X9.170Y31.940I0.500J0.000
N10030G01Z-0.854F4.0
N10040G2X9.670Y31.440I0.000J-0.500F500.0
N10050G2X9.170Y30.940I-0.500J0.000
N10060G2X8.670Y31.440I0.000J0.500
N10070G2X9.170Y31.940I0.500J0.000
N10080G01Z-0.874F4.0
N10090G2X9.670Y31.440I0.000J-0.500F500.0
N10100G2X9.170Y30.940I-0.500J0.000
N10110G2X8.670Y31.440I0.000J0.500
N10120G2X9.170Y31.940I0.500J0.000
N10130G01Z-0.894F4.0
N10140G2X9.670Y31.440I0.000J-0.500F500.0
N10150G2X9.170Y30.940I-0.500J0.000
N10160G2X8.670Y31.440I0.000J0.500
N10170G2X9.170Y31.940I0.500J0.000
N10180G01Z-0.914F4.0
N10190G2X9.670Y31.440I0.000J-0.500F500.0
N10200G2X9.170Y30.940I-0.500J0.000
N10210G2X8.670Y31.440I0.000J0.500
N10220G2X9.170Y31.940I0.500J0.000
N10230G01Z-0.934F4.0
N10240G2X9.670Y31.440I0.000J-0.500F500.0
N10250G2X9.170Y30.940I-0.500J0.000
N10260G2X8.670Y31.440I0.000J0.500
N10270G2X9.170Y31.940I0.500J0.000
N10280G01Z-0.954F4.0
N10290G2X9.670Y31.440I0.000J-0.500F500.0
N10300G2X9.170Y30.940I-0.500J0.000
N10310G2X8.670Y31.440I0.000J0.500
N10320G2X9.170Y31.940I0.500J0.000
N10330G01Z-0.974F4.0
N10340G2X9.670Y31.440I0.000J-0.500F500.0
N10350G2X9.170Y30.940I-0.500J0.000
N10360G2X8.670Y31.440I0.000J0.500
N10370G2X9.170Y31.940I0.500J0.000
N10380G01Z-0.994F4.0
N10390G2X9.670Y31.440I0.000J-0.500F500.0
N10400G2X9.170Y30.940I-0.500J0.000
N10410G2X8.670Y31.440I0.000J0.500
N10420G2X9.170Y31.940I0.500J0.000
N10430G01Z-1.013F4.0
N10440G2X9.670Y31.440I0.000J-0.500F500.0
N10450G2X9.170Y30.940I-0.500J0.000
N10460G2X8.670Y31.440I0.000J0.500
N10470G2X9.170Y31.940I0.500J0.000
N10480G01Z-1.033F4.0
N10490G2X9.670Y31.440I0.000J-0.500F500.0
N10500G2X9.170Y30.940I-0.500J0.000
N10510G2X8.670Y31.440I0.000J0.500
N10520G2X9.170Y31.940I0.500J0.000
N10530G01Z-1.053F4.0
N10540G2X9.670Y31.440I0.000J-0.500F500.0
N10550G2X9.170Y30.940I-0.500J0.000
N10560G2X8.670Y31.440I0.000J0.500
N10570G2X9.170Y31.940I0.500J0.000
N10580G01Z-1.073F4.0
N10590G2X9.670Y31.440I0.000J-0.500F500.0
N10600G2X9.170Y30.940I-0.500J0.000
N10610G2X8.670Y31.440I0.000J0.500
N10620G2X9.170Y31.940I0.500J0.000
N10630G01Z-1.093F4.0
N10640G2X9.670Y31.440I0.000J-0.500F500.0
N10650G2X9.170Y30.940I-0.500J0.000
N10660G2X8.670Y31.440I0.000J0.500
N10670G2X9.170Y31.940I0.500J0.000
N10680G01Z-1.113F4.0
N10690G2X9.670Y31.440I0.000J-0.500F500.0
N10700G2X9.170Y30.940I-0.500J0.000
N10710G2X8.670Y31.440I0.000J0.500
N10720G2X9.170Y31.940I0.500J0.000
N10730G01Z-1.133F4.0
N10740G2X9.670Y31.440I0.000J-0.500F500.0
N10750G2X9.170Y30.940I-0.500J0.000
N10760G2X8.670Y31.440I0.000J0.500
N10770G2X9.170Y31.940I0.500J0.000
N10780G01Z-1.153F4.0
N10790G2X9.670Y31.440I0.000J-0.500F500.0
N10800G2X9.170Y30.940I-0.500J0.000
N10810G2X8.670Y31.440I0.000J0.500
N10820G2X9.170Y31.940I0.500J0.000
N10830G01Z-1.172F4.0
N10840G2X9.670Y31.440I0.000J-0.500F500.0
N10850G2X9.170Y30.940I-0.500J0.000
N10860G2X8.670Y31.440I0.000J0.500
N10870G2X9.170Y31.940I0.500J0.000
N10880G01Z-1.192F4.0
N10890G2X9.670Y31.440I0.000J-0.500F500.0
N10900G2X9.170Y30.940I-0.500J0.000
N10910G2X8.670Y31.440I0.000J0.500
N10920G2X9.170Y31.940I0.500J0.000
N10930G01Z-1.212F4.0
N10940G2X9.670Y31.440I0.000J-0.500F500.0
N10950G2X9.170Y30.940I-0.500J0.000
N10960G2X8.670Y31.440I0.000J0.500
N10970G2X9.170Y31.940I0.500J0.000
N10980G01Z-1.232F4.0
N10990G2X9.670Y31.440I0.000J-0.500F500.0
N11000G2X9.170Y30.940I-0.500J0.000
N11010G2X8.670Y31.440I0.000J0.500
N11020G2X9.170Y31.940I0.500J0.000
N11030G01Z-1.252F4.0
N11040G2X9.670Y31.440I0.000J-0.500F500.0
N11050G2X9.170Y30.940I-0.500J0.000
N11060G2X8.670Y31.440I0.000J0.500
N11070G2X9.170Y31.940I0.500J0.000
N11080G01Z-1.272F4.0
N11090G2X9.670Y31.440I0.000J-0.500F500.0
N11100G2X9.170Y30.940I-0.500J0.000
N11110G2X8.670Y31.440I0.000J0.500
N11120G2X9.170Y31.940I0.500J0.000
N11130G01Z-1.292F4.0
N11140G2X9.670Y31.440I0.000J-0.500F500.0
N11150G2X9.170Y30.940I-0.500J0.000
N11160G2X8.670Y31.440I0.000J0.500
N11170G2X9.170Y31.940I0.500J0.000
N11180G01Z-1.312F4.0
N11190G2X9.670Y31.440I0.000J-0.500F500.0
N11200G2X9.170Y30.940I-0.500J0.000
N11210G2X8.670Y31.440I0.000J0.500
N11220G2X9.170Y31.940I0.500J0.000
N11230G01Z-1.331F4.0
N11240G2X9.670Y31.440I0.000J-0.500F500.0
N11250G2X9.170Y30.940I-0.500J0.000
N11260G2X8.670Y31.440I0.000J0.500
N11270G2X9.170Y31.940I0.500J0.000
N11280G01Z-1.351F4.0
N11290G2X9.670Y31.440I0.000J-0.500F500.0
N11300G2X9.170Y30.940I-0.500J0.000
N11310G2X8.670Y31.440I0.000J0.500
N11320G2X9.170Y31.940I0.500J0.000
N11330G01Z-1.371F4.0
N11340G2X9.670Y31.440I0.000J-0.500F500.0
N11350G2X9.170Y30.940I-0.500J0.000
N11360G2X8.670Y31.440I0.000J0.500
N11370G2X9.170Y31.940I0.500J0.000
N11380G01Z-1.391F4.0
N11390G2X9.670Y31.440I0.000J-0.500F500.0
N11400G2X9.170Y30.940I-0.500J0.000
N11410G2X8.670Y31.440I0.000J0.500
N11420G2X9.170Y31.940I0.500J0.000
N11430G01Z-1.411F4.0
N11440G2X9.670Y31.440I0.000J-0.500F500.0
N11450G2X9.170Y30.940I-0.500J0.000
N11460G2X8.670Y31.440I0.000J0.500
N11470G2X9.170Y31.940I0.500J0.000
N11480G01Z-1.431F4.0
N11490G2X9.670Y31.440I0.000J-0.500F500.0
N11500G2X9.170Y30.940I-0.500J0.000
N11510G2X8.670Y31.440I0.000J0.500
N11520G2X9.170Y31.940I0.500J0.000
N11530G01Z-1.451F4.0
N11540G2X9.670Y31.440I0.000J-0.500F500.0
N11550G2X9.170Y30.940I-0.500J0.000
N11560G2X8.670Y31.440I0.000J0.500
N11570G2X9.170Y31.940I0.500J0.000
N11580G01Z-1.471F4.0
N11590G2X9.670Y31.440I0.000J-0.500F500.0
N11600G2X9.170Y30.940I-0.500J0.000
N11610G2X8.670Y31.440I0.000J0.500
N11620G2X9.170Y31.940I0.500J0.000
N11630G01Z-1.490F4.0
N11640G2X9.670Y31.440I0.000J-0.500F500.0
N11650G2X9.170Y30.940I-0.500J0.000
N11660G2X8.670Y31.440I0.000J0.500
N11670G2X9.170Y31.940I0.500J0.000
N11680G01Z-1.510F4.0
N11690G2X9.670Y31.440I0.000J-0.500F500.0
N11700G2X9.170Y30.940I-0.500J0.000
N11710G2X8.670Y31.440I0.000J0.500
N11720G2X9.170Y31.940I0.500J0.000
N11730G01Z-1.530F4.0
N11740G2X9.670Y31.440I0.000J-0.500F500.0
N11750G2X9.170Y30.940I-0.500J0.000
N11760G2X8.670Y31.440I0.000J0.500
N11770G2X9.170Y31.940I0.500J0.000
N11780G01Z-1.550F4.0
N11790G2X9.670Y31.440I0.000J-0.500F500.0
N11800G2X9.170Y30.940I-0.500J0.000
N11810G2X8.670Y31.440I0.000J0.500
N11820G2X9.170Y31.940I0.500J0.000
N11830G00Z6.000
N11840G00X23.970
N11850G01Z-0.020F4.0
N11860G2X24.470Y31.440I0.000J-0.500F500.0
N11870G2X23.970Y30.940I-0.500J0.000
N11880G2X23.470Y31.440I0.000J0.500
N11890G2X23.970Y31.940I0.500J0.000
N11900G01Z-0.040F4.0
N11910G2X24.470Y31.440I0.000J-0.500F500.0
N11920G2X23.970Y30.940I-0.500J0.000
N11930G2X23.470Y31.440I0.000J0.500
N11940G2X23.970Y31.940I0.500J0.000
N11950G01Z-0.060F4.0
N11960G2X24.470Y31.440I0.000J-0.500F500.0
N11970G2X23.970Y30.940I-0.500J0.000
N11980G2X23.470Y31.440I0.000J0.500
N11990G2X23.970Y31.940I0.500J0.000
N12000G01Z-0.079F4.0
N12010G2X24.470Y31.440I0.000J-0.500F500.0
N12020G2X23.970Y30.940I-0.500J0.000
N12030G2X23.470Y31.440I0.000J0.500
N12040G2X23.970Y31.940I0.500J0.000
N12050G01Z-0.099F4.0
N12060G2X24.470Y31.440I0.000J-0.500F500.0
N12070G2X23.970Y30.940I-0.500J0.000
N12080G2X23.470Y31.440I0.000J0.500
N12090G2X23.970Y31.940I0.500J0.000
N12100G01Z-0.119F4.0
N12110G2X24.470Y31.440I0.000J-0.500F500.0
N12120G2X23.970Y30.940I-0.500J0.000
N12130G2X23.470Y31.440I0.000J0.500
N12140G2X23.970Y31.940I0.500J0.000
N12150G01Z-0.139F4.0
N12160G2X24.470Y31.440I0.000J-0.500F500.0
N12170G2X23.970Y30.940I-0.500J0.000
N12180G2X23.470Y31.440I0.000J0.500
N12190G2X23.970Y31.940I0.500J0.000
N12200G01Z-0.159F4.0
N12210G2X24.470Y31.440I0.000J-0.500F500.0
N12220G2X23.970Y30.940I-0.500J0.000
N12230G2X23.470Y31.440I0.000J0.500
N12240G2X23.970Y31.940I0.500J0.000
N12250G01Z-0.179F4.0
N12260G2X24.470Y31.440I0.000J-0.500F500.0
N12270G2X23.970Y30.940I-0.500J0.000
N12280G2X23.470Y31.440I0.000J0.500
N12290G2X23.970Y31.940I0.500J0.000
N12300G01Z-0.199F4.0
N12310G2X24.470Y31.440I0.000J-0.500F500.0
N12320G2X23.970Y30.940I-0.500J0.000
N12330G2X23.470Y31.440I0.000J0.500
N12340G2X23.970Y31.940I0.500J0.000
N12350G01Z-0.219F4.0
N12360G2X24.470Y31.440I0.000J-0.500F500.0
N12370G2X23.970Y30.940I-0.500J0.000
N12380G2X23.470Y31.440I0.000J0.500
N12390G2X23.970Y31.940I0.500J0.000
N12400G01Z-0.238F4.0
N12410G2X24.470Y31.440I0.000J-0.500F500.0
N12420G2X23.970Y30.940I-0.500J0.000
N12430G2X23.470Y31.440I0.000J0.500
N12440G2X23.970Y31.940I0.500J0.000
N12450G01Z-0.258F4.0
N12460G2X24.470Y31.440I0.000J-0.500F500.0
N12470G2X23.970Y30.940I-0.500J0.000
N12480G2X23.470Y31.440I0.000J0.500
N12490G2X23.970Y31.940I0.500J0.000
N12500G01Z-0.278F4.0
N12510G2X24.470Y31.440I0.000J-0.500F500.0
N12520G2X23.970Y30.940I-0.500J0.000
N12530G2X23.470Y31.440I0.000J0.500
N12540G2X23.970Y31.940I0.500J0.000
N12550G01Z-0.298F4.0
N12560G2X24.470Y31.440I0.000J-0.500F500.0
N12570G2X23.970Y30.940I-0.500J0.000
N12580G2X23.470Y31.440I0.000J0.500
N12590G2X23.970Y31.940I0.500J0.000
N12600G01Z-0.318F4.0
N12610G2X24.470Y31.440I0.000J-0.500F500.0
N12620G2X23.970Y30.940I-0.500J0.000
N12630G2X23.470Y31.440I0.000J0.500
N12640G2X23.970Y31.940I0.500J0.000
N12650G01Z-0.338F4.0
N12660G2X24.470Y31.440I0.000J-0.500F500.0
N12670G2X23.970Y30.940I-0.500J0.000
N12680G2X23.470Y31.440I0.000J0.500
N12690G2X23.970Y31.940I0.500J0.000
N12700G01Z-0.358F4.0
N12710G2X24.470Y31.440I0.000J-0.500F500.0
N12720G2X23.970Y30.940I-0.500J0.000
N12730G2X23.470Y31.440I0.000J0.500
N12740G2X23.970Y31.940I0.500J0.000
N12750G01Z-0.378F4.0
N12760G2X24.470Y31.440I0.000J-0.500F500.0
N12770G2X23.970Y30.940I-0.500J0.000
N12780G2X23.470Y31.440I0.000J0.500
N12790G2X23.970Y31.940I0.500J0.000
N12800G01Z-0.397F4.0
N12810G2X24.470Y31.440I0.000J-0.500F500.0
N12820G2X23.970Y30.940I-0.500J0.000
N12830G2X23.470Y31.440I0.000J0.500
N12840G2X23.970Y31.940I0.500J0.000
N12850G01Z-0.417F4.0
N12860G2X24.470Y31.440I0.000J-0.500F500.0
N12870G2X23.970Y30.940I-0.500J0.000
N12880G2X23.470Y31.440I0.000J0.500
N12890G2X23.970Y31.940I0.500J0.000
N12900G01Z-0.437F4.0
N12910G2X24.470Y31.440I0.000J-0.500F500.0
N12920G2X23.970Y30.940I-0.500J0.000
N12930G2X23.470Y31.440I0.000J0.500
N12940G2X23.970Y31.940I0.500J0.000
N12950G01Z-0.457F4.0
N12960G2X24.470Y31.440I0.000J-0.500F500.0
N12970G2X23.970Y30.940I-0.500J0.000
N12980G2X23.470Y31.440I0.000J0.500
N12990G2X23.970Y31.940I0.500J0.000
N13000G01Z-0.477F4.0
N13010G2X24.470Y31.440I0.000J-0.500F500.0
N13020G2X23.970Y30.940I-0.500J0.000
N13030G2X23.470Y31.440I0.000J0.500
N13040G2X23.970Y31.940I0.500J0.000
N13050G01Z-0.497F4.0
N13060G2X24.470Y31.440I0.000J-0.500F500.0
N13070G2X23.970Y30.940I-0.500J0.000
N13080G2X23.470Y31.440I0.000J0.500
N13090G2X23.970Y31.940I0.500J0.000
N13100G01Z-0.517F4.0
N13110G2X24.470Y31.440I0.000J-0.500F500.0
N13120G2X23.970Y30.940I-0.500J0.000
N13130G2X23.470Y31.440I0.000J0.500
N13140G2X23.970Y31.940I0.500J0.000
N13150G01Z-0.537F4.0
N13160G2X24.470Y31.440I0.000J-0.500F500.0
N13170G2X23.970Y30.940I-0.500J0.000
N13180G2X23.470Y31.440I0.000J0.500
N13190G2X23.970Y31.940I0.500J0.000
N13200G01Z-0.556F4.0
N13210G2X24.470Y31.440I0.000J-0.500F500.0
N13220G2X23.970Y30.940I-0.500J0.000
N13230G2X23.470Y31.440I0.000J0.500
N13240G2X23.970Y31.940I0.500J0.000
N13250G01Z-0.576F4.0
N13260G2X24.470Y31.440I0.000J-0.500F500.0
N13270G2X23.970Y30.940I-0.500J0.000
N13280G2X23.470Y31.440I0.000J0.500
N13290G2X23.970Y31.940I0.500J0.000
N13300G01Z-0.596F4.0
N13310G2X24.470Y31.440I0.000J-0.500F500.0
N13320G2X23.970Y30.940I-0.500J0.000
N13330G2X23.470Y31.440I0.000J0.500
N13340G2X23.970Y31.940I0.500J0.000
N13350G01Z-0.616F4.0
N13360G2X24.470Y31.440I0.000J-0.500F500.0
N13370G2X23.970Y30.940I-0.500J0.000
N13380G2X23.470Y31.440I0.000J0.500
N13390G2X23.970Y31.940I0.500J0.000
N13400G01Z-0.636F4.0
N13410G2X24.470Y31.440I0.000J-0.500F500.0
N13420G2X23.970Y30.940I-0.500J0.000
N13430G2X23.470Y31.440I0.000J0.500
N13440G2X23.970Y31.940I0.500J0.000
N13450G01Z-0.656F4.0
N13460G2X24.470Y31.440I0.000J-0.500F500.0
N13470G2X23.970Y30.940I-0.500J0.000
N13480G2X23.470Y31.440I0.000J0.500
N13490G2X23.970Y31.940I0.500J0.000
N13500G01Z-0.676F4.0
N13510G2X24.470Y31.440I0.000J-0.500F500.0
N13520G2X23.970Y30.940I-0.500J0.000
N13530G2X23.470Y31.440I0.000J0.500
N13540G2X23.970Y31.940I0.500J0.000
N13550G01Z-0.696F4.0
N13560G2X24.470Y31.440I0.000J-0.500F500.0
N13570G2X23.970Y30.940I-0.500J0.000
N13580G2X23.470Y31.440I0.000J0.500
N13590G2X23.970Y31.940I0.500J0.000
N13600G01Z-0.715F4.0
N13610G2X24.470Y31.440I0.000J-0.500F500.0
N13620G2X23.970Y30.940I-0.500J0.000
N13630G2X23.470Y31.440I0.000J0.500
N13640G2X23.970Y31.940I0.500J0.000
N13650G01Z-0.735F4.0
N13660G2X24.470Y31.440I0.000J-0.500F500.0
N13670G2X23.970Y30.940I-0.500J0.000
N13680G2X23.470Y31.440I0.000J0.500
N13690G2X23.970Y31.940I0.500J0.000
N13700G01Z-0.755F4.0
N13710G2X24.470Y31.440I0.000J-0.500F500.0
N13720G2X23.970Y30.940I-0.500J0.000
N13730G2X23.470Y31.440I0.000J0.500
N13740G2X23.970Y31.940I0.500J0.000
N13750G01Z-0.775F4.0
N13760G2X24.470Y31.440I0.000J-0.500F500.0
N13770G2X23.970Y30.940I-0.500J0.000
N13780G2X23.470Y31.440I0.000J0.500
N13790G2X23.970Y31.940I0.500J0.000
N13800G01Z-0.795F4.0
N13810G2X24.470Y31.440I0.000J-0.500F500.0
N13820G2X23.970Y30.940I-0.500J0.000
N13830G2X23.470Y31.440I0.000J0.500
N13840G2X23.970Y31.940I0.500J0.000
N13850G01Z-0.815F4.0
N13860G2X24.470Y31.440I0.000J-0.500F500.0
N13870G2X23.970Y30.940I-0.500J0.000
N13880G2X23.470Y31.440I0.000J0.500
N13890G2X23.970Y31.940I0.500J0.000
N13900G01Z-0.835F4.0
N13910G2X24.470Y31.440I0.000J-0.500F500.0
N13920G2X23.970Y30.940I-0.500J0.000
N13930G2X23.470Y31.440I0.000J0.500
N13940G2X23.970Y31.940I0.500J0.000
N13950G01Z-0.854F4.0
N13960G2X24.470Y31.440I0.000J-0.500F500.0
N13970G2X23.970Y30.940I-0.500J0.000
N13980G2X23.470Y31.440I0.000J0.500
N13990G2X23.970Y31.940I0.500J0.000
N14000G01Z-0.874F4.0
N14010G2X24.470Y31.440I0.000J-0.500F500.0
N14020G2X23.970Y30.940I-0.500J0.000
N14030G2X23.470Y31.440I0.000J0.500
N14040G2X23.970Y31.940I0.500J0.000
N14050G01Z-0.894F4.0
N14060G2X24.470Y31.440I0.000J-0.500F500.0
N14070G2X23.970Y30.940I-0.500J0.000
N14080G2X23.470Y31.440I0.000J0.500
N14090G2X23.970Y31.940I0.500J0.000
N14100G01Z-0.914F4.0
N14110G2X24.470Y31.440I0.000J-0.500F500.0
N14120G2X23.970Y30.940I-0.500J0.000
N14130G2X23.470Y31.440I0.000J0.500
N14140G2X23.970Y31.940I0.500J0.000
N14150G01Z-0.934F4.0
N14160G2X24.470Y31.440I0.000J-0.500F500.0
N14170G2X23.970Y30.940I-0.500J0.000
N14180G2X23.470Y31.440I0.000J0.500
N14190G2X23.970Y31.940I0.500J0.000
N14200G01Z-0.954F4.0
N14210G2X24.470Y31.440I0.000J-0.500F500.0
N14220G2X23.970Y30.940I-0.500J0.000
N14230G2X23.470Y31.440I0.000J0.500
N14240G2X23.970Y31.940I0.500J0.000
N14250G01Z-0.974F4.0
N14260G2X24.470Y31.440I0.000J-0.500F500.0
N14270G2X23.970Y30.940I-0.500J0.000
N14280G2X23.470Y31.440I0.000J0.500
N14290G2X23.970Y31.940I0.500J0.000
N14300G01Z-0.994F4.0
N14310G2X24.470Y31.440I0.000J-0.500F500.0
N14320G2X23.970Y30.940I-0.500J0.000
N14330G2X23.470Y31.440I0.000J0.500
N14340G2X23.970Y31.940I0.500J0.000
N14350G01Z-1.013F4.0
N14360G2X24.470Y31.440I0.000J-0.500F500.0
N14370G2X23.970Y30.940I-0.500J0.000
N14380G2X23.470Y31.440I0.000J0.500
N14390G2X23.970Y31.940I0.500J0.000
N14400G01Z-1.033F4.0
N14410G2X24.470Y31.440I0.000J-0.500F500.0
N14420G2X23.970Y30.940I-0.500J0.000
N14430G2X23.470Y31.440I0.000J0.500
N14440G2X23.970Y31.940I0.500J0.000
N14450G01Z-1.053F4.0
N14460G2X24.470Y31.440I0.000J-0.500F500.0
N14470G2X23.970Y30.940I-0.500J0.000
N14480G2X23.470Y31.440I0.000J0.500
N14490G2X23.970Y31.940I0.500J0.000
N14500G01Z-1.073F4.0
N14510G2X24.470Y31.440I0.000J-0.500F500.0
N14520G2X23.970Y30.940I-0.500J0.000
N14530G2X23.470Y31.440I0.000J0.500
N14540G2X23.970Y31.940I0.500J0.000
N14550G01Z-1.093F4.0
N14560G2X24.470Y31.440I0.000J-0.500F500.0
N14570G2X23.970Y30.940I-0.500J0.000
N14580G2X23.470Y31.440I0.000J0.500
N14590G2X23.970Y31.940I0.500J0.000
N14600G01Z-1.113F4.0
N14610G2X24.470Y31.440I0.000J-0.500F500.0
N14620G2X23.970Y30.940I-0.500J0.000
N14630G2X23.470Y31.440I0.000J0.500
N14640G2X23.970Y31.940I0.500J0.000
N14650G01Z-1.133F4.0
N14660G2X24.470Y31.440I0.000J-0.500F500.0
N14670G2X23.970Y30.940I-0.500J0.000
N14680G2X23.470Y31.440I0.000J0.500
N14690G2X23.970Y31.940I0.500J0.000
N14700G01Z-1.153F4.0
N14710G2X24.470Y31.440I0.000J-0.500F500.0
N14720G2X23.970Y30.940I-0.500J0.000
N14730G2X23.470Y31.440I0.000J0.500
N14740G2X23.970Y31.940I0.500J0.000
N14750G01Z-1.172F4.0
N14760G2X24.470Y31.440I0.000J-0.500F500.0
N14770G2X23.970Y30.940I-0.500J0.000
N14780G2X23.470Y31.440I0.000J0.500
N14790G2X23.970Y31.940I0.500J0.000
N14800G01Z-1.192F4.0
N14810G2X24.470Y31.440I0.000J-0.500F500.0
N14820G2X23.970Y30.940I-0.500J0.000
N14830G2X23.470Y31.440I0.000J0.500
N14840G2X23.970Y31.940I0.500J0.000
N14850G01Z-1.212F4.0
N14860G2X24.470Y31.440I0.000J-0.500F500.0
N14870G2X23.970Y30.940I-0.500J0.000
N14880G2X23.470Y31.440I0.000J0.500
N14890G2X23.970Y31.940I0.500J0.000
N14900G01Z-1.232F4.0
N14910G2X24.470Y31.440I0.000J-0.500F500.0
N14920G2X23.970Y30.940I-0.500J0.000
N14930G2X23.470Y31.440I0.000J0.500
N14940G2X23.970Y31.940I0.500J0.000
N14950G01Z-1.252F4.0
N14960G2X24.470Y31.440I0.000J-0.500F500.0
N14970G2X23.970Y30.940I-0.500J0.000
N14980G2X23.470Y31.440I0.000J0.500
N14990G2X23.970Y31.940I0.500J0.000
N15000G01Z-1.272F4.0
N15010G2X24.470Y31.440I0.000J-0.500F500.0
N15020G2X23.970Y30.940I-0.500J0.000
N15030G2X23.470Y31.440I0.000J0.500
N15040G2X23.970Y31.940I0.500J0.000
N15050G01Z-1.292F4.0
N15060G2X24.470Y31.440I0.000J-0.500F500.0
N15070G2X23.970Y30.940I-0.500J0.000
N15080G2X23.470Y31.440I0.000J0.500
N15090G2X23.970Y31.940I0.500J0.000
N15100G01Z-1.312F4.0
N15110G2X24.470Y31.440I0.000J-0.500F500.0
N15120G2X23.970Y30.940I-0.500J0.000
N15130G2X23.470Y31.440I0.000J0.500
N15140G2X23.970Y31.940I0.500J0.000
N15150G01Z-1.331F4.0
N15160G2X24.470Y31.440I0.000J-0.500F500.0
N15170G2X23.970Y30.940I-0.500J0.000
N15180G2X23.470Y31.440I0.000J0.500
N15190G2X23.970Y31.940I0.500J0.000
N15200G01Z-1.351F4.0
N15210G2X24.470Y31.440I0.000J-0.500F500.0
N15220G2X23.970Y30.940I-0.500J0.000
N15230G2X23.470Y31.440I0.000J0.500
N15240G2X23.970Y31.940I0.500J0.000
N15250G01Z-1.371F4.0
N15260G2X24.470Y31.440I0.000J-0.500F500.0
N15270G2X23.970Y30.940I-0.500J0.000
N15280G2X23.470Y31.440I0.000J0.500
N15290G2X23.970Y31.940I0.500J0.000
N15300G01Z-1.391F4.0
N15310G2X24.470Y31.440I0.000J-0.500F500.0
N15320G2X23.970Y30.940I-0.500J0.000
N15330G2X23.470Y31.440I0.000J0.500
N15340G2X23.970Y31.940I0.500J0.000
N15350G01Z-1.411F4.0
N15360G2X24.470Y31.440I0.000J-0.500F500.0
N15370G2X23.970Y30.940I-0.500J0.000
N15380G2X23.470Y31.440I0.000J0.500
N15390G2X23.970Y31.940I0.500J0.000
N15400G01Z-1.431F4.0
N15410G2X24.470Y31.440I0.000J-0.500F500.0
N15420G2X23.970Y30.940I-0.500J0.000
N15430G2X23.470Y31.440I0.000J0.500
N15440G2X23.970Y31.940I0.500J0.000
N15450G01Z-1.451F4.0
N15460G2X24.470Y31.440I0.000J-0.500F500.0
N15470G2X23.970Y30.940I-0.500J0.000
N15480G2X23.470Y31.440I0.000J0.500
N15490G2X23.970Y31.940I0.500J0.000
N15500G01Z-1.471F4.0
N15510G2X24.470Y31.440I0.000J-0.500F500.0
N15520G2X23.970Y30.940I-0.500J0.000
N15530G2X23.470Y31.440I0.000J0.500
N15540G2X23.970Y31.940I0.500J0.000
N15550G01Z-1.490F4.0
N15560G2X24.470Y31.440I0.000J-0.500F500.0
N15570G2X23.970Y30.940I-0.500J0.000
N15580G2X23.470Y31.440I0.000J0.500
N15590G2X23.970Y31.940I0.500J0.000
N15600G01Z-1.510F4.0
N15610G2X24.470Y31.440I0.000J-0.500F500.0
N15620G2X23.970Y30.940I-0.500J0.000
N15630G2X23.470Y31.440I0.000J0.500
N15640G2X23.970Y31.940I0.500J0.000
N15650G01Z-1.530F4.0
N15660G2X24.470Y31.440I0.000J-0.500F500.0
N15670G2X23.970Y30.940I-0.500J0.000
N15680G2X23.470Y31.440I0.000J0.500
N15690G2X23.970Y31.940I0.500J0.000
N15700G01Z-1.550F4.0
N15710G2X24.470Y31.440I0.000J-0.500F500.0
N15720G2X23.970Y30.940I-0.500J0.000
N15730G2X23.470Y31.440I0.000J0.500
N15740G2X23.970Y31.940I0.500J0.000
N15750G00Z6.000
N15760G00Y19.619
N15770G01Z-0.020F4.0
N15780G2X24.470Y19.119I0.000J-0.500F500.0
N15790G2X23.970Y18.619I-0.500J0.000
N15800G2X23.470Y19.119I0.000J0.500
N15810G2X23.970Y19.619I0.500J0.000
N15820G01Z-0.040F4.0
N15830G2X24.470Y19.119I0.000J-0.500F500.0
N15840G2X23.970Y18.619I-0.500J0.000
N15850G2X23.470Y19.119I0.000J0.500
N15860G2X23.970Y19.619I0.500J0.000
N15870G01Z-0.060F4.0
N15880G2X24.470Y19.119I0.000J-0.500F500.0
N15890G2X23.970Y18.619I-0.500J0.000
N15900G2X23.470Y19.119I0.000J0.500
N15910G2X23.970Y19.619I0.500J0.000
N15920G01Z-0.079F4.0
N15930G2X24.470Y19.119I0.000J-0.500F500.0
N15940G2X23.970Y18.619I-0.500J0.000
N15950G2X23.470Y19.119I0.000J0.500
N15960G2X23.970Y19.619I0.500J0.000
N15970G01Z-0.099F4.0
N15980G2X24.470Y19.119I0.000J-0.500F500.0
N15990G2X23.970Y18.619I-0.500J0.000
N16000G2X23.470Y19.119I0.000J0.500
N16010G2X23.970Y19.619I0.500J0.000
N16020G01Z-0.119F4.0
N16030G2X24.470Y19.119I0.000J-0.500F500.0
N16040G2X23.970Y18.619I-0.500J0.000
N16050G2X23.470Y19.119I0.000J0.500
N16060G2X23.970Y19.619I0.500J0.000
N16070G01Z-0.139F4.0
N16080G2X24.470Y19.119I0.000J-0.500F500.0
N16090G2X23.970Y18.619I-0.500J0.000
N16100G2X23.470Y19.119I0.000J0.500
N16110G2X23.970Y19.619I0.500J0.000
N16120G01Z-0.159F4.0
N16130G2X24.470Y19.119I0.000J-0.500F500.0
N16140G2X23.970Y18.619I-0.500J0.000
N16150G2X23.470Y19.119I0.000J0.500
N16160G2X23.970Y19.619I0.500J0.000
N16170G01Z-0.179F4.0
N16180G2X24.470Y19.119I0.000J-0.500F500.0
N16190G2X23.970Y18.619I-0.500J0.000
N16200G2X23.470Y19.119I0.000J0.500
N16210G2X23.970Y19.619I0.500J0.000
N16220G01Z-0.199F4.0
N16230G2X24.470Y19.119I0.000J-0.500F500.0
N16240G2X23.970Y18.619I-0.500J0.000
N16250G2X23.470Y19.119I0.000J0.500
N16260G2X23.970Y19.619I0.500J0.000
N16270G01Z-0.219F4.0
N16280G2X24.470Y19.119I0.000J-0.500F500.0
N16290G2X23.970Y18.619I-0.500J0.000
N16300G2X23.470Y19.119I0.000J0.500
N16310G2X23.970Y19.619I0.500J0.000
N16320G01Z-0.238F4.0
N16330G2X24.470Y19.119I0.000J-0.500F500.0
N16340G2X23.970Y18.619I-0.500J0.000
N16350G2X23.470Y19.119I0.000J0.500
N16360G2X23.970Y19.619I0.500J0.000
N16370G01Z-0.258F4.0
N16380G2X24.470Y19.119I0.000J-0.500F500.0
N16390G2X23.970Y18.619I-0.500J0.000
N16400G2X23.470Y19.119I0.000J0.500
N16410G2X23.970Y19.619I0.500J0.000
N16420G01Z-0.278F4.0
N16430G2X24.470Y19.119I0.000J-0.500F500.0
N16440G2X23.970Y18.619I-0.500J0.000
N16450G2X23.470Y19.119I0.000J0.500
N16460G2X23.970Y19.619I0.500J0.000
N16470G01Z-0.298F4.0
N16480G2X24.470Y19.119I0.000J-0.500F500.0
N16490G2X23.970Y18.619I-0.500J0.000
N16500G2X23.470Y19.119I0.000J0.500
N16510G2X23.970Y19.619I0.500J0.000
N16520G01Z-0.318F4.0
N16530G2X24.470Y19.119I0.000J-0.500F500.0
N16540G2X23.970Y18.619I-0.500J0.000
N16550G2X23.470Y19.119I0.000J0.500
N16560G2X23.970Y19.619I0.500J0.000
N16570G01Z-0.338F4.0
N16580G2X24.470Y19.119I0.000J-0.500F500.0
N16590G2X23.970Y18.619I-0.500J0.000
N16600G2X23.470Y19.119I0.000J0.500
N16610G2X23.970Y19.619I0.500J0.000
N16620G01Z-0.358F4.0
N16630G2X24.470Y19.119I0.000J-0.500F500.0
N16640G2X23.970Y18.619I-0.500J0.000
N16650G2X23.470Y19.119I0.000J0.500
N16660G2X23.970Y19.619I0.500J0.000
N16670G01Z-0.378F4.0
N16680G2X24.470Y19.119I0.000J-0.500F500.0
N16690G2X23.970Y18.619I-0.500J0.000
N16700G2X23.470Y19.119I0.000J0.500
N16710G2X23.970Y19.619I0.500J0.000
N16720G01Z-0.397F4.0
N16730G2X24.470Y19.119I0.000J-0.500F500.0
N16740G2X23.970Y18.619I-0.500J0.000
N16750G2X23.470Y19.119I0.000J0.500
N16760G2X23.970Y19.619I0.500J0.000
N16770G01Z-0.417F4.0
N16780G2X24.470Y19.119I0.000J-0.500F500.0
N16790G2X23.970Y18.619I-0.500J0.000
N16800G2X23.470Y19.119I0.000J0.500
N16810G2X23.970Y19.619I0.500J0.000
N16820G01Z-0.437F4.0
N16830G2X24.470Y19.119I0.000J-0.500F500.0
N16840G2X23.970Y18.619I-0.500J0.000
N16850G2X23.470Y19.119I0.000J0.500
N16860G2X23.970Y19.619I0.500J0.000
N16870G01Z-0.457F4.0
N16880G2X24.470Y19.119I0.000J-0.500F500.0
N16890G2X23.970Y18.619I-0.500J0.000
N16900G2X23.470Y19.119I0.000J0.500
N16910G2X23.970Y19.619I0.500J0.000
N16920G01Z-0.477F4.0
N16930G2X24.470Y19.119I0.000J-0.500F500.0
N16940G2X23.970Y18.619I-0.500J0.000
N16950G2X23.470Y19.119I0.000J0.500
N16960G2X23.970Y19.619I0.500J0.000
N16970G01Z-0.497F4.0
N16980G2X24.470Y19.119I0.000J-0.500F500.0
N16990G2X23.970Y18.619I-0.500J0.000
N17000G2X23.470Y19.119I0.000J0.500
N17010G2X23.970Y19.619I0.500J0.000
N17020G01Z-0.517F4.0
N17030G2X24.470Y19.119I0.000J-0.500F500.0
N17040G2X23.970Y18.619I-0.500J0.000
N17050G2X23.470Y19.119I0.000J0.500
N17060G2X23.970Y19.619I0.500J0.000
N17070G01Z-0.537F4.0
N17080G2X24.470Y19.119I0.000J-0.500F500.0
N17090G2X23.970Y18.619I-0.500J0.000
N17100G2X23.470Y19.119I0.000J0.500
N17110G2X23.970Y19.619I0.500J0.000
N17120G01Z-0.556F4.0
N17130G2X24.470Y19.119I0.000J-0.500F500.0
N17140G2X23.970Y18.619I-0.500J0.000
N17150G2X23.470Y19.119I0.000J0.500
N17160G2X23.970Y19.619I0.500J0.000
N17170G01Z-0.576F4.0
N17180G2X24.470Y19.119I0.000J-0.500F500.0
N17190G2X23.970Y18.619I-0.500J0.000
N17200G2X23.470Y19.119I0.000J0.500
N17210G2X23.970Y19.619I0.500J0.000
N17220G01Z-0.596F4.0
N17230G2X24.470Y19.119I0.000J-0.500F500.0
N17240G2X23.970Y18.619I-0.500J0.000
N17250G2X23.470Y19.119I0.000J0.500
N17260G2X23.970Y19.619I0.500J0.000
N17270G01Z-0.616F4.0
N17280G2X24.470Y19.119I0.000J-0.500F500.0
N17290G2X23.970Y18.619I-0.500J0.000
N17300G2X23.470Y19.119I0.000J0.500
N17310G2X23.970Y19.619I0.500J0.000
N17320G01Z-0.636F4.0
N17330G2X24.470Y19.119I0.000J-0.500F500.0
N17340G2X23.970Y18.619I-0.500J0.000
N17350G2X23.470Y19.119I0.000J0.500
N17360G2X23.970Y19.619I0.500J0.000
N17370G01Z-0.656F4.0
N17380G2X24.470Y19.119I0.000J-0.500F500.0
N17390G2X23.970Y18.619I-0.500J0.000
N17400G2X23.470Y19.119I0.000J0.500
N17410G2X23.970Y19.619I0.500J0.000
N17420G01Z-0.676F4.0
N17430G2X24.470Y19.119I0.000J-0.500F500.0
N17440G2X23.970Y18.619I-0.500J0.000
N17450G2X23.470Y19.119I0.000J0.500
N17460G2X23.970Y19.619I0.500J0.000
N17470G01Z-0.696F4.0
N17480G2X24.470Y19.119I0.000J-0.500F500.0
N17490G2X23.970Y18.619I-0.500J0.000
N17500G2X23.470Y19.119I0.000J0.500
N17510G2X23.970Y19.619I0.500J0.000
N17520G01Z-0.715F4.0
N17530G2X24.470Y19.119I0.000J-0.500F500.0
N17540G2X23.970Y18.619I-0.500J0.000
N17550G2X23.470Y19.119I0.000J0.500
N17560G2X23.970Y19.619I0.500J0.000
N17570G01Z-0.735F4.0
N17580G2X24.470Y19.119I0.000J-0.500F500.0
N17590G2X23.970Y18.619I-0.500J0.000
N17600G2X23.470Y19.119I0.000J0.500
N17610G2X23.970Y19.619I0.500J0.000
N17620G01Z-0.755F4.0
N17630G2X24.470Y19.119I0.000J-0.500F500.0
N17640G2X23.970Y18.619I-0.500J0.000
N17650G2X23.470Y19.119I0.000J0.500
N17660G2X23.970Y19.619I0.500J0.000
N17670G01Z-0.775F4.0
N17680G2X24.470Y19.119I0.000J-0.500F500.0
N17690G2X23.970Y18.619I-0.500J0.000
N17700G2X23.470Y19.119I0.000J0.500
N17710G2X23.970Y19.619I0.500J0.000
N17720G01Z-0.795F4.0
N17730G2X24.470Y19.119I0.000J-0.500F500.0
N17740G2X23.970Y18.619I-0.500J0.000
N17750G2X23.470Y19.119I0.000J0.500
N17760G2X23.970Y19.619I0.500J0.000
N17770G01Z-0.815F4.0
N17780G2X24.470Y19.119I0.000J-0.500F500.0
N17790G2X23.970Y18.619I-0.500J0.000
N17800G2X23.470Y19.119I0.000J0.500
N17810G2X23.970Y19.619I0.500J0.000
N17820G01Z-0.835F4.0
N17830G2X24.470Y19.119I0.000J-0.500F500.0
N17840G2X23.970Y18.619I-0.500J0.000
N17850G2X23.470Y19.119I0.000J0.500
N17860G2X23.970Y19.619I0.500J0.000
N17870G01Z-0.854F4.0
N17880G2X24.470Y19.119I0.000J-0.500F500.0
N17890G2X23.970Y18.619I-0.500J0.000
N17900G2X23.470Y19.119I0.000J0.500
N17910G2X23.970Y19.619I0.500J0.000
N17920G01Z-0.874F4.0
N17930G2X24.470Y19.119I0.000J-0.500F500.0
N17940G2X23.970Y18.619I-0.500J0.000
N17950G2X23.470Y19.119I0.000J0.500
N17960G2X23.970Y19.619I0.500J0.000
N17970G01Z-0.894F4.0
N17980G2X24.470Y19.119I0.000J-0.500F500.0
N17990G2X23.970Y18.619I-0.500J0.000
N18000G2X23.470Y19.119I0.000J0.500
N18010G2X23.970Y19.619I0.500J0.000
N18020G01Z-0.914F4.0
N18030G2X24.470Y19.119I0.000J-0.500F500.0
N18040G2X23.970Y18.619I-0.500J0.000
N18050G2X23.470Y19.119I0.000J0.500
N18060G2X23.970Y19.619I0.500J0.000
N18070G01Z-0.934F4.0
N18080G2X24.470Y19.119I0.000J-0.500F500.0
N18090G2X23.970Y18.619I-0.500J0.000
N18100G2X23.470Y19.119I0.000J0.500
N18110G2X23.970Y19.619I0.500J0.000
N18120G01Z-0.954F4.0
N18130G2X24.470Y19.119I0.000J-0.500F500.0
N18140G2X23.970Y18.619I-0.500J0.000
N18150G2X23.470Y19.119I0.000J0.500
N18160G2X23.970Y19.619I0.500J0.000
N18170G01Z-0.974F4.0
N18180G2X24.470Y19.119I0.000J-0.500F500.0
N18190G2X23.970Y18.619I-0.500J0.000
N18200G2X23.470Y19.119I0.000J0.500
N18210G2X23.970Y19.619I0.500J0.000
N18220G01Z-0.994F4.0
N18230G2X24.470Y19.119I0.000J-0.500F500.0
N18240G2X23.970Y18.619I-0.500J0.000
N18250G2X23.470Y19.119I0.000J0.500
N18260G2X23.970Y19.619I0.500J0.000
N18270G01Z-1.013F4.0
N18280G2X24.470Y19.119I0.000J-0.500F500.0
N18290G2X23.970Y18.619I-0.500J0.000
N18300G2X23.470Y19.119I0.000J0.500
N18310G2X23.970Y19.619I0.500J0.000
N18320G01Z-1.033F4.0
N18330G2X24.470Y19.119I0.000J-0.500F500.0
N18340G2X23.970Y18.619I-0.500J0.000
N18350G2X23.470Y19.119I0.000J0.500
N18360G2X23.970Y19.619I0.500J0.000
N18370G01Z-1.053F4.0
N18380G2X24.470Y19.119I0.000J-0.500F500.0
N18390G2X23.970Y18.619I-0.500J0.000
N18400G2X23.470Y19.119I0.000J0.500
N18410G2X23.970Y19.619I0.500J0.000
N18420G01Z-1.073F4.0
N18430G2X24.470Y19.119I0.000J-0.500F500.0
N18440G2X23.970Y18.619I-0.500J0.000
N18450G2X23.470Y19.119I0.000J0.500
N18460G2X23.970Y19.619I0.500J0.000
N18470G01Z-1.093F4.0
N18480G2X24.470Y19.119I0.000J-0.500F500.0
N18490G2X23.970Y18.619I-0.500J0.000
N18500G2X23.470Y19.119I0.000J0.500
N18510G2X23.970Y19.619I0.500J0.000
N18520G01Z-1.113F4.0
N18530G2X24.470Y19.119I0.000J-0.500F500.0
N18540G2X23.970Y18.619I-0.500J0.000
N18550G2X23.470Y19.119I0.000J0.500
N18560G2X23.970Y19.619I0.500J0.000
N18570G01Z-1.133F4.0
N18580G2X24.470Y19.119I0.000J-0.500F500.0
N18590G2X23.970Y18.619I-0.500J0.000
N18600G2X23.470Y19.119I0.000J0.500
N18610G2X23.970Y19.619I0.500J0.000
N18620G01Z-1.153F4.0
N18630G2X24.470Y19.119I0.000J-0.500F500.0
N18640G2X23.970Y18.619I-0.500J0.000
N18650G2X23.470Y19.119I0.000J0.500
N18660G2X23.970Y19.619I0.500J0.000
N18670G01Z-1.172F4.0
N18680G2X24.470Y19.119I0.000J-0.500F500.0
N18690G2X23.970Y18.619I-0.500J0.000
N18700G2X23.470Y19.119I0.000J0.500
N18710G2X23.970Y19.619I0.500J0.000
N18720G01Z-1.192F4.0
N18730G2X24.470Y19.119I0.000J-0.500F500.0
N18740G2X23.970Y18.619I-0.500J0.000
N18750G2X23.470Y19.119I0.000J0.500
N18760G2X23.970Y19.619I0.500J0.000
N18770G01Z-1.212F4.0
N18780G2X24.470Y19.119I0.000J-0.500F500.0
N18790G2X23.970Y18.619I-0.500J0.000
N18800G2X23.470Y19.119I0.000J0.500
N18810G2X23.970Y19.619I0.500J0.000
N18820G01Z-1.232F4.0
N18830G2X24.470Y19.119I0.000J-0.500F500.0
N18840G2X23.970Y18.619I-0.500J0.000
N18850G2X23.470Y19.119I0.000J0.500
N18860G2X23.970Y19.619I0.500J0.000
N18870G01Z-1.252F4.0
N18880G2X24.470Y19.119I0.000J-0.500F500.0
N18890G2X23.970Y18.619I-0.500J0.000
N18900G2X23.470Y19.119I0.000J0.500
N18910G2X23.970Y19.619I0.500J0.000
N18920G01Z-1.272F4.0
N18930G2X24.470Y19.119I0.000J-0.500F500.0
N18940G2X23.970Y18.619I-0.500J0.000
N18950G2X23.470Y19.119I0.000J0.500
N18960G2X23.970Y19.619I0.500J0.000
N18970G01Z-1.292F4.0
N18980G2X24.470Y19.119I0.000J-0.500F500.0
N18990G2X23.970Y18.619I-0.500J0.000
N19000G2X23.470Y19.119I0.000J0.500
N19010G2X23.970Y19.619I0.500J0.000
N19020G01Z-1.312F4.0
N19030G2X24.470Y19.119I0.000J-0.500F500.0
N19040G2X23.970Y18.619I-0.500J0.000
N19050G2X23.470Y19.119I0.000J0.500
N19060G2X23.970Y19.619I0.500J0.000
N19070G01Z-1.331F4.0
N19080G2X24.470Y19.119I0.000J-0.500F500.0
N19090G2X23.970Y18.619I-0.500J0.000
N19100G2X23.470Y19.119I0.000J0.500
N19110G2X23.970Y19.619I0.500J0.000
N19120G01Z-1.351F4.0
N19130G2X24.470Y19.119I0.000J-0.500F500.0
N19140G2X23.970Y18.619I-0.500J0.000
N19150G2X23.470Y19.119I0.000J0.500
N19160G2X23.970Y19.619I0.500J0.000
N19170G01Z-1.371F4.0
N19180G2X24.470Y19.119I0.000J-0.500F500.0
N19190G2X23.970Y18.619I-0.500J0.000
N19200G2X23.470Y19.119I0.000J0.500
N19210G2X23.970Y19.619I0.500J0.000
N19220G01Z-1.391F4.0
N19230G2X24.470Y19.119I0.000J-0.500F500.0
N19240G2X23.970Y18.619I-0.500J0.000
N19250G2X23.470Y19.119I0.000J0.500
N19260G2X23.970Y19.619I0.500J0.000
N19270G01Z-1.411F4.0
N19280G2X24.470Y19.119I0.000J-0.500F500.0
N19290G2X23.970Y18.619I-0.500J0.000
N19300G2X23.470Y19.119I0.000J0.500
N19310G2X23.970Y19.619I0.500J0.000
N19320G01Z-1.431F4.0
N19330G2X24.470Y19.119I0.000J-0.500F500.0
N19340G2X23.970Y18.619I-0.500J0.000
N19350G2X23.470Y19.119I0.000J0.500
N19360G2X23.970Y19.619I0.500J0.000
N19370G01Z-1.451F4.0
N19380G2X24.470Y19.119I0.000J-0.500F500.0
N19390G2X23.970Y18.619I-0.500J0.000
N19400G2X23.470Y19.119I0.000J0.500
N19410G2X23.970Y19.619I0.500J0.000
N19420G01Z-1.471F4.0
N19430G2X24.470Y19.119I0.000J-0.500F500.0
N19440G2X23.970Y18.619I-0.500J0.000
N19450G2X23.470Y19.119I0.000J0.500
N19460G2X23.970Y19.619I0.500J0.000
N19470G01Z-1.490F4.0
N19480G2X24.470Y19.119I0.000J-0.500F500.0
N19490G2X23.970Y18.619I-0.500J0.000
N19500G2X23.470Y19.119I0.000J0.500
N19510G2X23.970Y19.619I0.500J0.000
N19520G01Z-1.510F4.0
N19530G2X24.470Y19.119I0.000J-0.500F500.0
N19540G2X23.970Y18.619I-0.500J0.000
N19550G2X23.470Y19.119I0.000J0.500
N19560G2X23.970Y19.619I0.500J0.000
N19570G01Z-1.530F4.0
N19580G2X24.470Y19.119I0.000J-0.500F500.0
N19590G2X23.970Y18.619I-0.500J0.000
N19600G2X23.470Y19.119I0.000J0.500
N19610G2X23.970Y19.619I0.500J0.000
N19620G01Z-1.550F4.0
N19630G2X24.470Y19.119I0.000J-0.500F500.0
N19640G2X23.970Y18.619I-0.500J0.000
N19650G2X23.470Y19.119I0.000J0.500
N19660G2X23.970Y19.619I0.500J0.000
N19670G00Z6.000
N19680G00X23.451Y7.097
N19690G01Z-0.020F4.0
N19700G2X23.951Y6.597I0.000J-0.500F500.0
N19710G2X23.451Y6.097I-0.500J0.000
N19720G2X22.951Y6.597I0.000J0.500
N19730G2X23.451Y7.097I0.500J0.000
N19740G01Z-0.040F4.0
N19750G2X23.951Y6.597I0.000J-0.500F500.0
N19760G2X23.451Y6.097I-0.500J0.000
N19770G2X22.951Y6.597I0.000J0.500
N19780G2X23.451Y7.097I0.500J0.000
N19790G01Z-0.060F4.0
N19800G2X23.951Y6.597I0.000J-0.500F500.0
N19810G2X23.451Y6.097I-0.500J0.000
N19820G2X22.951Y6.597I0.000J0.500
N19830G2X23.451Y7.097I0.500J0.000
N19840G01Z-0.079F4.0
N19850G2X23.951Y6.597I0.000J-0.500F500.0
N19860G2X23.451Y6.097I-0.500J0.000
N19870G2X22.951Y6.597I0.000J0.500
N19880G2X23.451Y7.097I0.500J0.000
N19890G01Z-0.099F4.0
N19900G2X23.951Y6.597I0.000J-0.500F500.0
N19910G2X23.451Y6.097I-0.500J0.000
N19920G2X22.951Y6.597I0.000J0.500
N19930G2X23.451Y7.097I0.500J0.000
N19940G01Z-0.119F4.0
N19950G2X23.951Y6.597I0.000J-0.500F500.0
N19960G2X23.451Y6.097I-0.500J0.000
N19970G2X22.951Y6.597I0.000J0.500
N19980G2X23.451Y7.097I0.500J0.000
N19990G01Z-0.139F4.0
N20000G2X23.951Y6.597I0.000J-0.500F500.0
N20010G2X23.451Y6.097I-0.500J0.000
N20020G2X22.951Y6.597I0.000J0.500
N20030G2X23.451Y7.097I0.500J0.000
N20040G01Z-0.159F4.0
N20050G2X23.951Y6.597I0.000J-0.500F500.0
N20060G2X23.451Y6.097I-0.500J0.000
N20070G2X22.951Y6.597I0.000J0.500
N20080G2X23.451Y7.097I0.500J0.000
N20090G01Z-0.179F4.0
N20100G2X23.951Y6.597I0.000J-0.500F500.0
N20110G2X23.451Y6.097I-0.500J0.000
N20120G2X22.951Y6.597I0.000J0.500
N20130G2X23.451Y7.097I0.500J0.000
N20140G01Z-0.199F4.0
N20150G2X23.951Y6.597I0.000J-0.500F500.0
N20160G2X23.451Y6.097I-0.500J0.000
N20170G2X22.951Y6.597I0.000J0.500
N20180G2X23.451Y7.097I0.500J0.000
N20190G01Z-0.219F4.0
N20200G2X23.951Y6.597I0.000J-0.500F500.0
N20210G2X23.451Y6.097I-0.500J0.000
N20220G2X22.951Y6.597I0.000J0.500
N20230G2X23.451Y7.097I0.500J0.000
N20240G01Z-0.238F4.0
N20250G2X23.951Y6.597I0.000J-0.500F500.0
N20260G2X23.451Y6.097I-0.500J0.000
N20270G2X22.951Y6.597I0.000J0.500
N20280G2X23.451Y7.097I0.500J0.000
N20290G01Z-0.258F4.0
N20300G2X23.951Y6.597I0.000J-0.500F500.0
N20310G2X23.451Y6.097I-0.500J0.000
N20320G2X22.951Y6.597I0.000J0.500
N20330G2X23.451Y7.097I0.500J0.000
N20340G01Z-0.278F4.0
N20350G2X23.951Y6.597I0.000J-0.500F500.0
N20360G2X23.451Y6.097I-0.500J0.000
N20370G2X22.951Y6.597I0.000J0.500
N20380G2X23.451Y7.097I0.500J0.000
N20390G01Z-0.298F4.0
N20400G2X23.951Y6.597I0.000J-0.500F500.0
N20410G2X23.451Y6.097I-0.500J0.000
N20420G2X22.951Y6.597I0.000J0.500
N20430G2X23.451Y7.097I0.500J0.000
N20440G01Z-0.318F4.0
N20450G2X23.951Y6.597I0.000J-0.500F500.0
N20460G2X23.451Y6.097I-0.500J0.000
N20470G2X22.951Y6.597I0.000J0.500
N20480G2X23.451Y7.097I0.500J0.000
N20490G01Z-0.338F4.0
N20500G2X23.951Y6.597I0.000J-0.500F500.0
N20510G2X23.451Y6.097I-0.500J0.000
N20520G2X22.951Y6.597I0.000J0.500
N20530G2X23.451Y7.097I0.500J0.000
N20540G01Z-0.358F4.0
N20550G2X23.951Y6.597I0.000J-0.500F500.0
N20560G2X23.451Y6.097I-0.500J0.000
N20570G2X22.951Y6.597I0.000J0.500
N20580G2X23.451Y7.097I0.500J0.000
N20590G01Z-0.378F4.0
N20600G2X23.951Y6.597I0.000J-0.500F500.0
N20610G2X23.451Y6.097I-0.500J0.000
N20620G2X22.951Y6.597I0.000J0.500
N20630G2X23.451Y7.097I0.500J0.000
N20640G01Z-0.397F4.0
N20650G2X23.951Y6.597I0.000J-0.500F500.0
N20660G2X23.451Y6.097I-0.500J0.000
N20670G2X22.951Y6.597I0.000J0.500
N20680G2X23.451Y7.097I0.500J0.000
N20690G01Z-0.417F4.0
N20700G2X23.951Y6.597I0.000J-0.500F500.0
N20710G2X23.451Y6.097I-0.500J0.000
N20720G2X22.951Y6.597I0.000J0.500
N20730G2X23.451Y7.097I0.500J0.000
N20740G01Z-0.437F4.0
N20750G2X23.951Y6.597I0.000J-0.500F500.0
N20760G2X23.451Y6.097I-0.500J0.000
N20770G2X22.951Y6.597I0.000J0.500
N20780G2X23.451Y7.097I0.500J0.000
N20790G01Z-0.457F4.0
N20800G2X23.951Y6.597I0.000J-0.500F500.0
N20810G2X23.451Y6.097I-0.500J0.000
N20820G2X22.951Y6.597I0.000J0.500
N20830G2X23.451Y7.097I0.500J0.000
N20840G01Z-0.477F4.0
N20850G2X23.951Y6.597I0.000J-0.500F500.0
N20860G2X23.451Y6.097I-0.500J0.000
N20870G2X22.951Y6.597I0.000J0.500
N20880G2X23.451Y7.097I0.500J0.000
N20890G01Z-0.497F4.0
N20900G2X23.951Y6.597I0.000J-0.500F500.0
N20910G2X23.451Y6.097I-0.500J0.000
N20920G2X22.951Y6.597I0.000J0.500
N20930G2X23.451Y7.097I0.500J0.000
N20940G01Z-0.517F4.0
N20950G2X23.951Y6.597I0.000J-0.500F500.0
N20960G2X23.451Y6.097I-0.500J0.000
N20970G2X22.951Y6.597I0.000J0.500
N20980G2X23.451Y7.097I0.500J0.000
N20990G01Z-0.537F4.0
N21000G2X23.951Y6.597I0.000J-0.500F500.0
N21010G2X23.451Y6.097I-0.500J0.000
N21020G2X22.951Y6.597I0.000J0.500
N21030G2X23.451Y7.097I0.500J0.000
N21040G01Z-0.556F4.0
N21050G2X23.951Y6.597I0.000J-0.500F500.0
N21060G2X23.451Y6.097I-0.500J0.000
N21070G2X22.951Y6.597I0.000J0.500
N21080G2X23.451Y7.097I0.500J0.000
N21090G01Z-0.576F4.0
N21100G2X23.951Y6.597I0.000J-0.500F500.0
N21110G2X23.451Y6.097I-0.500J0.000
N21120G2X22.951Y6.597I0.000J0.500
N21130G2X23.451Y7.097I0.500J0.000
N21140G01Z-0.596F4.0
N21150G2X23.951Y6.597I0.000J-0.500F500.0
N21160G2X23.451Y6.097I-0.500J0.000
N21170G2X22.951Y6.597I0.000J0.500
N21180G2X23.451Y7.097I0.500J0.000
N21190G01Z-0.616F4.0
N21200G2X23.951Y6.597I0.000J-0.500F500.0
N21210G2X23.451Y6.097I-0.500J0.000
N21220G2X22.951Y6.597I0.000J0.500
N21230G2X23.451Y7.097I0.500J0.000
N21240G01Z-0.636F4.0
N21250G2X23.951Y6.597I0.000J-0.500F500.0
N21260G2X23.451Y6.097I-0.500J0.000
N21270G2X22.951Y6.597I0.000J0.500
N21280G2X23.451Y7.097I0.500J0.000
N21290G01Z-0.656F4.0
N21300G2X23.951Y6.597I0.000J-0.500F500.0
N21310G2X23.451Y6.097I-0.500J0.000
N21320G2X22.951Y6.597I0.000J0.500
N21330G2X23.451Y7.097I0.500J0.000
N21340G01Z-0.676F4.0
N21350G2X23.951Y6.597I0.000J-0.500F500.0
N21360G2X23.451Y6.097I-0.500J0.000
N21370G2X22.951Y6.597I0.000J0.500
N21380G2X23.451Y7.097I0.500J0.000
N21390G01Z-0.696F4.0
N21400G2X23.951Y6.597I0.000J-0.500F500.0
N21410G2X23.451Y6.097I-0.500J0.000
N21420G2X22.951Y6.597I0.000J0.500
N21430G2X23.451Y7.097I0.500J0.000
N21440G01Z-0.715F4.0
N21450G2X23.951Y6.597I0.000J-0.500F500.0
N21460G2X23.451Y6.097I-0.500J0.000
N21470G2X22.951Y6.597I0.000J0.500
N21480G2X23.451Y7.097I0.500J0.000
N21490G01Z-0.735F4.0
N21500G2X23.951Y6.597I0.000J-0.500F500.0
N21510G2X23.451Y6.097I-0.500J0.000
N21520G2X22.951Y6.597I0.000J0.500
N21530G2X23.451Y7.097I0.500J0.000
N21540G01Z-0.755F4.0
N21550G2X23.951Y6.597I0.000J-0.500F500.0
N21560G2X23.451Y6.097I-0.500J0.000
N21570G2X22.951Y6.597I0.000J0.500
N21580G2X23.451Y7.097I0.500J0.000
N21590G01Z-0.775F4.0
N21600G2X23.951Y6.597I0.000J-0.500F500.0
N21610G2X23.451Y6.097I-0.500J0.000
N21620G2X22.951Y6.597I0.000J0.500
N21630G2X23.451Y7.097I0.500J0.000
N21640G01Z-0.795F4.0
N21650G2X23.951Y6.597I0.000J-0.500F500.0
N21660G2X23.451Y6.097I-0.500J0.000
N21670G2X22.951Y6.597I0.000J0.500
N21680G2X23.451Y7.097I0.500J0.000
N21690G01Z-0.815F4.0
N21700G2X23.951Y6.597I0.000J-0.500F500.0
N21710G2X23.451Y6.097I-0.500J0.000
N21720G2X22.951Y6.597I0.000J0.500
N21730G2X23.451Y7.097I0.500J0.000
N21740G01Z-0.835F4.0
N21750G2X23.951Y6.597I0.000J-0.500F500.0
N21760G2X23.451Y6.097I-0.500J0.000
N21770G2X22.951Y6.597I0.000J0.500
N21780G2X23.451Y7.097I0.500J0.000
N21790G01Z-0.854F4.0
N21800G2X23.951Y6.597I0.000J-0.500F500.0
N21810G2X23.451Y6.097I-0.500J0.000
N21820G2X22.951Y6.597I0.000J0.500
N21830G2X23.451Y7.097I0.500J0.000
N21840G01Z-0.874F4.0
N21850G2X23.951Y6.597I0.000J-0.500F500.0
N21860G2X23.451Y6.097I-0.500J0.000
N21870G2X22.951Y6.597I0.000J0.500
N21880G2X23.451Y7.097I0.500J0.000
N21890G01Z-0.894F4.0
N21900G2X23.951Y6.597I0.000J-0.500F500.0
N21910G2X23.451Y6.097I-0.500J0.000
N21920G2X22.951Y6.597I0.000J0.500
N21930G2X23.451Y7.097I0.500J0.000
N21940G01Z-0.914F4.0
N21950G2X23.951Y6.597I0.000J-0.500F500.0
N21960G2X23.451Y6.097I-0.500J0.000
N21970G2X22.951Y6.597I0.000J0.500
N21980G2X23.451Y7.097I0.500J0.000
N21990G01Z-0.934F4.0
N22000G2X23.951Y6.597I0.000J-0.500F500.0
N22010G2X23.451Y6.097I-0.500J0.000
N22020G2X22.951Y6.597I0.000J0.500
N22030G2X23.451Y7.097I0.500J0.000
N22040G01Z-0.954F4.0
N22050G2X23.951Y6.597I0.000J-0.500F500.0
N22060G2X23.451Y6.097I-0.500J0.000
N22070G2X22.951Y6.597I0.000J0.500
N22080G2X23.451Y7.097I0.500J0.000
N22090G01Z-0.974F4.0
N22100G2X23.951Y6.597I0.000J-0.500F500.0
N22110G2X23.451Y6.097I-0.500J0.000
N22120G2X22.951Y6.597I0.000J0.500
N22130G2X23.451Y7.097I0.500J0.000
N22140G01Z-0.994F4.0
N22150G2X23.951Y6.597I0.000J-0.500F500.0
N22160G2X23.451Y6.097I-0.500J0.000
N22170G2X22.951Y6.597I0.000J0.500
N22180G2X23.451Y7.097I0.500J0.000
N22190G01Z-1.013F4.0
N22200G2X23.951Y6.597I0.000J-0.500F500.0
N22210G2X23.451Y6.097I-0.500J0.000
N22220G2X22.951Y6.597I0.000J0.500
N22230G2X23.451Y7.097I0.500J0.000
N22240G01Z-1.033F4.0
N22250G2X23.951Y6.597I0.000J-0.500F500.0
N22260G2X23.451Y6.097I-0.500J0.000
N22270G2X22.951Y6.597I0.000J0.500
N22280G2X23.451Y7.097I0.500J0.000
N22290G01Z-1.053F4.0
N22300G2X23.951Y6.597I0.000J-0.500F500.0
N22310G2X23.451Y6.097I-0.500J0.000
N22320G2X22.951Y6.597I0.000J0.500
N22330G2X23.451Y7.097I0.500J0.000
N22340G01Z-1.073F4.0
N22350G2X23.951Y6.597I0.000J-0.500F500.0
N22360G2X23.451Y6.097I-0.500J0.000
N22370G2X22.951Y6.597I0.000J0.500
N22380G2X23.451Y7.097I0.500J0.000
N22390G01Z-1.093F4.0
N22400G2X23.951Y6.597I0.000J-0.500F500.0
N22410G2X23.451Y6.097I-0.500J0.000
N22420G2X22.951Y6.597I0.000J0.500
N22430G2X23.451Y7.097I0.500J0.000
N22440G01Z-1.113F4.0
N22450G2X23.951Y6.597I0.000J-0.500F500.0
N22460G2X23.451Y6.097I-0.500J0.000
N22470G2X22.951Y6.597I0.000J0.500
N22480G2X23.451Y7.097I0.500J0.000
N22490G01Z-1.133F4.0
N22500G2X23.951Y6.597I0.000J-0.500F500.0
N22510G2X23.451Y6.097I-0.500J0.000
N22520G2X22.951Y6.597I0.000J0.500
N22530G2X23.451Y7.097I0.500J0.000
N22540G01Z-1.153F4.0
N22550G2X23.951Y6.597I0.000J-0.500F500.0
N22560G2X23.451Y6.097I-0.500J0.000
N22570G2X22.951Y6.597I0.000J0.500
N22580G2X23.451Y7.097I0.500J0.000
N22590G01Z-1.172F4.0
N22600G2X23.951Y6.597I0.000J-0.500F500.0
N22610G2X23.451Y6.097I-0.500J0.000
N22620G2X22.951Y6.597I0.000J0.500
N22630G2X23.451Y7.097I0.500J0.000
N22640G01Z-1.192F4.0
N22650G2X23.951Y6.597I0.000J-0.500F500.0
N22660G2X23.451Y6.097I-0.500J0.000
N22670G2X22.951Y6.597I0.000J0.500
N22680G2X23.451Y7.097I0.500J0.000
N22690G01Z-1.212F4.0
N22700G2X23.951Y6.597I0.000J-0.500F500.0
N22710G2X23.451Y6.097I-0.500J0.000
N22720G2X22.951Y6.597I0.000J0.500
N22730G2X23.451Y7.097I0.500J0.000
N22740G01Z-1.232F4.0
N22750G2X23.951Y6.597I0.000J-0.500F500.0
N22760G2X23.451Y6.097I-0.500J0.000
N22770G2X22.951Y6.597I0.000J0.500
N22780G2X23.451Y7.097I0.500J0.000
N22790G01Z-1.252F4.0
N22800G2X23.951Y6.597I0.000J-0.500F500.0
N22810G2X23.451Y6.097I-0.500J0.000
N22820G2X22.951Y6.597I0.000J0.500
N22830G2X23.451Y7.097I0.500J0.000
N22840G01Z-1.272F4.0
N22850G2X23.951Y6.597I0.000J-0.500F500.0
N22860G2X23.451Y6.097I-0.500J0.000
N22870G2X22.951Y6.597I0.000J0.500
N22880G2X23.451Y7.097I0.500J0.000
N22890G01Z-1.292F4.0
N22900G2X23.951Y6.597I0.000J-0.500F500.0
N22910G2X23.451Y6.097I-0.500J0.000
N22920G2X22.951Y6.597I0.000J0.500
N22930G2X23.451Y7.097I0.500J0.000
N22940G01Z-1.312F4.0
N22950G2X23.951Y6.597I0.000J-0.500F500.0
N22960G2X23.451Y6.097I-0.500J0.000
N22970G2X22.951Y6.597I0.000J0.500
N22980G2X23.451Y7.097I0.500J0.000
N22990G01Z-1.331F4.0
N23000G2X23.951Y6.597I0.000J-0.500F500.0
N23010G2X23.451Y6.097I-0.500J0.000
N23020G2X22.951Y6.597I0.000J0.500
N23030G2X23.451Y7.097I0.500J0.000
N23040G01Z-1.351F4.0
N23050G2X23.951Y6.597I0.000J-0.500F500.0
N23060G2X23.451Y6.097I-0.500J0.000
N23070G2X22.951Y6.597I0.000J0.500
N23080G2X23.451Y7.097I0.500J0.000
N23090G01Z-1.371F4.0
N23100G2X23.951Y6.597I0.000J-0.500F500.0
N23110G2X23.451Y6.097I-0.500J0.000
N23120G2X22.951Y6.597I0.000J0.500
N23130G2X23.451Y7.097I0.500J0.000
N23140G01Z-1.391F4.0
N23150G2X23.951Y6.597I0.000J-0.500F500.0
N23160G2X23.451Y6.097I-0.500J0.000
N23170G2X22.951Y6.597I0.000J0.500
N23180G2X23.451Y7.097I0.500J0.000
N23190G01Z-1.411F4.0
N23200G2X23.951Y6.597I0.000J-0.500F500.0
N23210G2X23.451Y6.097I-0.500J0.000
N23220G2X22.951Y6.597I0.000J0.500
N23230G2X23.451Y7.097I0.500J0.000
N23240G01Z-1.431F4.0
N23250G2X23.951Y6.597I0.000J-0.500F500.0
N23260G2X23.451Y6.097I-0.500J0.000
N23270G2X22.951Y6.597I0.000J0.500
N23280G2X23.451Y7.097I0.500J0.000
N23290G01Z-1.451F4.0
N23300G2X23.951Y6.597I0.000J-0.500F500.0
N23310G2X23.451Y6.097I-0.500J0.000
N23320G2X22.951Y6.597I0.000J0.500
N23330G2X23.451Y7.097I0.500J0.000
N23340G01Z-1.471F4.0
N23350G2X23.951Y6.597I0.000J-0.500F500.0
N23360G2X23.451Y6.097I-0.500J0.000
N23370G2X22.951Y6.597I0.000J0.500
N23380G2X23.451Y7.097I0.500J0.000
N23390G01Z-1.490F4.0
N23400G2X23.951Y6.597I0.000J-0.500F500.0
N23410G2X23.451Y6.097I-0.500J0.000
N23420G2X22.951Y6.597I0.000J0.500
N23430G2X23.451Y7.097I0.500J0.000
N23440G01Z-1.510F4.0
N23450G2X23.951Y6.597I0.000J-0.500F500.0
N23460G2X23.451Y6.097I-0.500J0.000
N23470G2X22.951Y6.597I0.000J0.500
N23480G2X23.451Y7.097I0.500J0.000
N23490G01Z-1.530F4.0
N23500G2X23.951Y6.597I0.000J-0.500F500.0
N23510G2X23.451Y6.097I-0.500J0.000
N23520G2X22.951Y6.597I0.000J0.500
N23530G2X23.451Y7.097I0.500J0.000
N23540G01Z-1.550F4.0
N23550G2X23.951Y6.597I0.000J-0.500F500.0
N23560G2X23.451Y6.097I-0.500J0.000
N23570G2X22.951Y6.597I0.000J0.500
N23580G2X23.451Y7.097I0.500J0.000
N23590G00Z6.000
N23600G00X36.785Y6.873
N23610G01Z-0.020F4.0
N23620G2X37.285Y6.373I0.000J-0.500F500.0
N23630G2X36.785Y5.873I-0.500J0.000
N23640G2X36.285Y6.373I0.000J0.500
N23650G2X36.785Y6.873I0.500J0.000
N23660G01Z-0.040F4.0
N23670G2X37.285Y6.373I0.000J-0.500F500.0
N23680G2X36.785Y5.873I-0.500J0.000
N23690G2X36.285Y6.373I0.000J0.500
N23700G2X36.785Y6.873I0.500J0.000
N23710G01Z-0.060F4.0
N23720G2X37.285Y6.373I0.000J-0.500F500.0
N23730G2X36.785Y5.873I-0.500J0.000
N23740G2X36.285Y6.373I0.000J0.500
N23750G2X36.785Y6.873I0.500J0.000
N23760G01Z-0.079F4.0
N23770G2X37.285Y6.373I0.000J-0.500F500.0
N23780G2X36.785Y5.873I-0.500J0.000
N23790G2X36.285Y6.373I0.000J0.500
N23800G2X36.785Y6.873I0.500J0.000
N23810G01Z-0.099F4.0
N23820G2X37.285Y6.373I0.000J-0.500F500.0
N23830G2X36.785Y5.873I-0.500J0.000
N23840G2X36.285Y6.373I0.000J0.500
N23850G2X36.785Y6.873I0.500J0.000
N23860G01Z-0.119F4.0
N23870G2X37.285Y6.373I0.000J-0.500F500.0
N23880G2X36.785Y5.873I-0.500J0.000
N23890G2X36.285Y6.373I0.000J0.500
N23900G2X36.785Y6.873I0.500J0.000
N23910G01Z-0.139F4.0
N23920G2X37.285Y6.373I0.000J-0.500F500.0
N23930G2X36.785Y5.873I-0.500J0.000
N23940G2X36.285Y6.373I0.000J0.500
N23950G2X36.785Y6.873I0.500J0.000
N23960G01Z-0.159F4.0
N23970G2X37.285Y6.373I0.000J-0.500F500.0
N23980G2X36.785Y5.873I-0.500J0.000
N23990G2X36.285Y6.373I0.000J0.500
N24000G2X36.785Y6.873I0.500J0.000
N24010G01Z-0.179F4.0
N24020G2X37.285Y6.373I0.000J-0.500F500.0
N24030G2X36.785Y5.873I-0.500J0.000
N24040G2X36.285Y6.373I0.000J0.500
N24050G2X36.785Y6.873I0.500J0.000
N24060G01Z-0.199F4.0
N24070G2X37.285Y6.373I0.000J-0.500F500.0
N24080G2X36.785Y5.873I-0.500J0.000
N24090G2X36.285Y6.373I0.000J0.500
N24100G2X36.785Y6.873I0.500J0.000
N24110G01Z-0.219F4.0
N24120G2X37.285Y6.373I0.000J-0.500F500.0
N24130G2X36.785Y5.873I-0.500J0.000
N24140G2X36.285Y6.373I0.000J0.500
N24150G2X36.785Y6.873I0.500J0.000
N24160G01Z-0.238F4.0
N24170G2X37.285Y6.373I0.000J-0.500F500.0
N24180G2X36.785Y5.873I-0.500J0.000
N24190G2X36.285Y6.373I0.000J0.500
N24200G2X36.785Y6.873I0.500J0.000
N24210G01Z-0.258F4.0
N24220G2X37.285Y6.373I0.000J-0.500F500.0
N24230G2X36.785Y5.873I-0.500J0.000
N24240G2X36.285Y6.373I0.000J0.500
N24250G2X36.785Y6.873I0.500J0.000
N24260G01Z-0.278F4.0
N24270G2X37.285Y6.373I0.000J-0.500F500.0
N24280G2X36.785Y5.873I-0.500J0.000
N24290G2X36.285Y6.373I0.000J0.500
N24300G2X36.785Y6.873I0.500J0.000
N24310G01Z-0.298F4.0
N24320G2X37.285Y6.373I0.000J-0.500F500.0
N24330G2X36.785Y5.873I-0.500J0.000
N24340G2X36.285Y6.373I0.000J0.500
N24350G2X36.785Y6.873I0.500J0.000
N24360G01Z-0.318F4.0
N24370G2X37.285Y6.373I0.000J-0.500F500.0
N24380G2X36.785Y5.873I-0.500J0.000
N24390G2X36.285Y6.373I0.000J0.500
N24400G2X36.785Y6.873I0.500J0.000
N24410G01Z-0.338F4.0
N24420G2X37.285Y6.373I0.000J-0.500F500.0
N24430G2X36.785Y5.873I-0.500J0.000
N24440G2X36.285Y6.373I0.000J0.500
N24450G2X36.785Y6.873I0.500J0.000
N24460G01Z-0.358F4.0
N24470G2X37.285Y6.373I0.000J-0.500F500.0
N24480G2X36.785Y5.873I-0.500J0.000
N24490G2X36.285Y6.373I0.000J0.500
N24500G2X36.785Y6.873I0.500J0.000
N24510G01Z-0.378F4.0
N24520G2X37.285Y6.373I0.000J-0.500F500.0
N24530G2X36.785Y5.873I-0.500J0.000
N24540G2X36.285Y6.373I0.000J0.500
N24550G2X36.785Y6.873I0.500J0.000
N24560G01Z-0.397F4.0
N24570G2X37.285Y6.373I0.000J-0.500F500.0
N24580G2X36.785Y5.873I-0.500J0.000
N24590G2X36.285Y6.373I0.000J0.500
N24600G2X36.785Y6.873I0.500J0.000
N24610G01Z-0.417F4.0
N24620G2X37.285Y6.373I0.000J-0.500F500.0
N24630G2X36.785Y5.873I-0.500J0.000
N24640G2X36.285Y6.373I0.000J0.500
N24650G2X36.785Y6.873I0.500J0.000
N24660G01Z-0.437F4.0
N24670G2X37.285Y6.373I0.000J-0.500F500.0
N24680G2X36.785Y5.873I-0.500J0.000
N24690G2X36.285Y6.373I0.000J0.500
N24700G2X36.785Y6.873I0.500J0.000
N24710G01Z-0.457F4.0
N24720G2X37.285Y6.373I0.000J-0.500F500.0
N24730G2X36.785Y5.873I-0.500J0.000
N24740G2X36.285Y6.373I0.000J0.500
N24750G2X36.785Y6.873I0.500J0.000
N24760G01Z-0.477F4.0
N24770G2X37.285Y6.373I0.000J-0.500F500.0
N24780G2X36.785Y5.873I-0.500J0.000
N24790G2X36.285Y6.373I0.000J0.500
N24800G2X36.785Y6.873I0.500J0.000
N24810G01Z-0.497F4.0
N24820G2X37.285Y6.373I0.000J-0.500F500.0
N24830G2X36.785Y5.873I-0.500J0.000
N24840G2X36.285Y6.373I0.000J0.500
N24850G2X36.785Y6.873I0.500J0.000
N24860G01Z-0.517F4.0
N24870G2X37.285Y6.373I0.000J-0.500F500.0
N24880G2X36.785Y5.873I-0.500J0.000
N24890G2X36.285Y6.373I0.000J0.500
N24900G2X36.785Y6.873I0.500J0.000
N24910G01Z-0.537F4.0
N24920G2X37.285Y6.373I0.000J-0.500F500.0
N24930G2X36.785Y5.873I-0.500J0.000
N24940G2X36.285Y6.373I0.000J0.500
N24950G2X36.785Y6.873I0.500J0.000
N24960G01Z-0.556F4.0
N24970G2X37.285Y6.373I0.000J-0.500F500.0
N24980G2X36.785Y5.873I-0.500J0.000
N24990G2X36.285Y6.373I0.000J0.500
N25000G2X36.785Y6.873I0.500J0.000
N25010G01Z-0.576F4.0
N25020G2X37.285Y6.373I0.000J-0.500F500.0
N25030G2X36.785Y5.873I-0.500J0.000
N25040G2X36.285Y6.373I0.000J0.500
N25050G2X36.785Y6.873I0.500J0.000
N25060G01Z-0.596F4.0
N25070G2X37.285Y6.373I0.000J-0.500F500.0
N25080G2X36.785Y5.873I-0.500J0.000
N25090G2X36.285Y6.373I0.000J0.500
N25100G2X36.785Y6.873I0.500J0.000
N25110G01Z-0.616F4.0
N25120G2X37.285Y6.373I0.000J-0.500F500.0
N25130G2X36.785Y5.873I-0.500J0.000
N25140G2X36.285Y6.373I0.000J0.500
N25150G2X36.785Y6.873I0.500J0.000
N25160G01Z-0.636F4.0
N25170G2X37.285Y6.373I0.000J-0.500F500.0
N25180G2X36.785Y5.873I-0.500J0.000
N25190G2X36.285Y6.373I0.000J0.500
N25200G2X36.785Y6.873I0.500J0.000
N25210G01Z-0.656F4.0
N25220G2X37.285Y6.373I0.000J-0.500F500.0
N25230G2X36.785Y5.873I-0.500J0.000
N25240G2X36.285Y6.373I0.000J0.500
N25250G2X36.785Y6.873I0.500J0.000
N25260G01Z-0.676F4.0
N25270G2X37.285Y6.373I0.000J-0.500F500.0
N25280G2X36.785Y5.873I-0.500J0.000
N25290G2X36.285Y6.373I0.000J0.500
N25300G2X36.785Y6.873I0.500J0.000
N25310G01Z-0.696F4.0
N25320G2X37.285Y6.373I0.000J-0.500F500.0
N25330G2X36.785Y5.873I-0.500J0.000
N25340G2X36.285Y6.373I0.000J0.500
N25350G2X36.785Y6.873I0.500J0.000
N25360G01Z-0.715F4.0
N25370G2X37.285Y6.373I0.000J-0.500F500.0
N25380G2X36.785Y5.873I-0.500J0.000
N25390G2X36.285Y6.373I0.000J0.500
N25400G2X36.785Y6.873I0.500J0.000
N25410G01Z-0.735F4.0
N25420G2X37.285Y6.373I0.000J-0.500F500.0
N25430G2X36.785Y5.873I-0.500J0.000
N25440G2X36.285Y6.373I0.000J0.500
N25450G2X36.785Y6.873I0.500J0.000
N25460G01Z-0.755F4.0
N25470G2X37.285Y6.373I0.000J-0.500F500.0
N25480G2X36.785Y5.873I-0.500J0.000
N25490G2X36.285Y6.373I0.000J0.500
N25500G2X36.785Y6.873I0.500J0.000
N25510G01Z-0.775F4.0
N25520G2X37.285Y6.373I0.000J-0.500F500.0
N25530G2X36.785Y5.873I-0.500J0.000
N25540G2X36.285Y6.373I0.000J0.500
N25550G2X36.785Y6.873I0.500J0.000
N25560G01Z-0.795F4.0
N25570G2X37.285Y6.373I0.000J-0.500F500.0
N25580G2X36.785Y5.873I-0.500J0.000
N25590G2X36.285Y6.373I0.000J0.500
N25600G2X36.785Y6.873I0.500J0.000
N25610G01Z-0.815F4.0
N25620G2X37.285Y6.373I0.000J-0.500F500.0
N25630G2X36.785Y5.873I-0.500J0.000
N25640G2X36.285Y6.373I0.000J0.500
N25650G2X36.785Y6.873I0.500J0.000
N25660G01Z-0.835F4.0
N25670G2X37.285Y6.373I0.000J-0.500F500.0
N25680G2X36.785Y5.873I-0.500J0.000
N25690G2X36.285Y6.373I0.000J0.500
N25700G2X36.785Y6.873I0.500J0.000
N25710G01Z-0.854F4.0
N25720G2X37.285Y6.373I0.000J-0.500F500.0
N25730G2X36.785Y5.873I-0.500J0.000
N25740G2X36.285Y6.373I0.000J0.500
N25750G2X36.785Y6.873I0.500J0.000
N25760G01Z-0.874F4.0
N25770G2X37.285Y6.373I0.000J-0.500F500.0
N25780G2X36.785Y5.873I-0.500J0.000
N25790G2X36.285Y6.373I0.000J0.500
N25800G2X36.785Y6.873I0.500J0.000
N25810G01Z-0.894F4.0
N25820G2X37.285Y6.373I0.000J-0.500F500.0
N25830G2X36.785Y5.873I-0.500J0.000
N25840G2X36.285Y6.373I0.000J0.500
N25850G2X36.785Y6.873I0.500J0.000
N25860G01Z-0.914F4.0
N25870G2X37.285Y6.373I0.000J-0.500F500.0
N25880G2X36.785Y5.873I-0.500J0.000
N25890G2X36.285Y6.373I0.000J0.500
N25900G2X36.785Y6.873I0.500J0.000
N25910G01Z-0.934F4.0
N25920G2X37.285Y6.373I0.000J-0.500F500.0
N25930G2X36.785Y5.873I-0.500J0.000
N25940G2X36.285Y6.373I0.000J0.500
N25950G2X36.785Y6.873I0.500J0.000
N25960G01Z-0.954F4.0
N25970G2X37.285Y6.373I0.000J-0.500F500.0
N25980G2X36.785Y5.873I-0.500J0.000
N25990G2X36.285Y6.373I0.000J0.500
N26000G2X36.785Y6.873I0.500J0.000
N26010G01Z-0.974F4.0
N26020G2X37.285Y6.373I0.000J-0.500F500.0
N26030G2X36.785Y5.873I-0.500J0.000
N26040G2X36.285Y6.373I0.000J0.500
N26050G2X36.785Y6.873I0.500J0.000
N26060G01Z-0.994F4.0
N26070G2X37.285Y6.373I0.000J-0.500F500.0
N26080G2X36.785Y5.873I-0.500J0.000
N26090G2X36.285Y6.373I0.000J0.500
N26100G2X36.785Y6.873I0.500J0.000
N26110G01Z-1.013F4.0
N26120G2X37.285Y6.373I0.000J-0.500F500.0
N26130G2X36.785Y5.873I-0.500J0.000
N26140G2X36.285Y6.373I0.000J0.500
N26150G2X36.785Y6.873I0.500J0.000
N26160G01Z-1.033F4.0
N26170G2X37.285Y6.373I0.000J-0.500F500.0
N26180G2X36.785Y5.873I-0.500J0.000
N26190G2X36.285Y6.373I0.000J0.500
N26200G2X36.785Y6.873I0.500J0.000
N26210G01Z-1.053F4.0
N26220G2X37.285Y6.373I0.000J-0.500F500.0
N26230G2X36.785Y5.873I-0.500J0.000
N26240G2X36.285Y6.373I0.000J0.500
N26250G2X36.785Y6.873I0.500J0.000
N26260G01Z-1.073F4.0
N26270G2X37.285Y6.373I0.000J-0.500F500.0
N26280G2X36.785Y5.873I-0.500J0.000
N26290G2X36.285Y6.373I0.000J0.500
N26300G2X36.785Y6.873I0.500J0.000
N26310G01Z-1.093F4.0
N26320G2X37.285Y6.373I0.000J-0.500F500.0
N26330G2X36.785Y5.873I-0.500J0.000
N26340G2X36.285Y6.373I0.000J0.500
N26350G2X36.785Y6.873I0.500J0.000
N26360G01Z-1.113F4.0
N26370G2X37.285Y6.373I0.000J-0.500F500.0
N26380G2X36.785Y5.873I-0.500J0.000
N26390G2X36.285Y6.373I0.000J0.500
N26400G2X36.785Y6.873I0.500J0.000
N26410G01Z-1.133F4.0
N26420G2X37.285Y6.373I0.000J-0.500F500.0
N26430G2X36.785Y5.873I-0.500J0.000
N26440G2X36.285Y6.373I0.000J0.500
N26450G2X36.785Y6.873I0.500J0.000
N26460G01Z-1.153F4.0
N26470G2X37.285Y6.373I0.000J-0.500F500.0
N26480G2X36.785Y5.873I-0.500J0.000
N26490G2X36.285Y6.373I0.000J0.500
N26500G2X36.785Y6.873I0.500J0.000
N26510G01Z-1.172F4.0
N26520G2X37.285Y6.373I0.000J-0.500F500.0
N26530G2X36.785Y5.873I-0.500J0.000
N26540G2X36.285Y6.373I0.000J0.500
N26550G2X36.785Y6.873I0.500J0.000
N26560G01Z-1.192F4.0
N26570G2X37.285Y6.373I0.000J-0.500F500.0
N26580G2X36.785Y5.873I-0.500J0.000
N26590G2X36.285Y6.373I0.000J0.500
N26600G2X36.785Y6.873I0.500J0.000
N26610G01Z-1.212F4.0
N26620G2X37.285Y6.373I0.000J-0.500F500.0
N26630G2X36.785Y5.873I-0.500J0.000
N26640G2X36.285Y6.373I0.000J0.500
N26650G2X36.785Y6.873I0.500J0.000
N26660G01Z-1.232F4.0
N26670G2X37.285Y6.373I0.000J-0.500F500.0
N26680G2X36.785Y5.873I-0.500J0.000
N26690G2X36.285Y6.373I0.000J0.500
N26700G2X36.785Y6.873I0.500J0.000
N26710G01Z-1.252F4.0
N26720G2X37.285Y6.373I0.000J-0.500F500.0
N26730G2X36.785Y5.873I-0.500J0.000
N26740G2X36.285Y6.373I0.000J0.500
N26750G2X36.785Y6.873I0.500J0.000
N26760G01Z-1.272F4.0
N26770G2X37.285Y6.373I0.000J-0.500F500.0
N26780G2X36.785Y5.873I-0.500J0.000
N26790G2X36.285Y6.373I0.000J0.500
N26800G2X36.785Y6.873I0.500J0.000
N26810G01Z-1.292F4.0
N26820G2X37.285Y6.373I0.000J-0.500F500.0
N26830G2X36.785Y5.873I-0.500J0.000
N26840G2X36.285Y6.373I0.000J0.500
N26850G2X36.785Y6.873I0.500J0.000
N26860G01Z-1.312F4.0
N26870G2X37.285Y6.373I0.000J-0.500F500.0
N26880G2X36.785Y5.873I-0.500J0.000
N26890G2X36.285Y6.373I0.000J0.500
N26900G2X36.785Y6.873I0.500J0.000
N26910G01Z-1.331F4.0
N26920G2X37.285Y6.373I0.000J-0.500F500.0
N26930G2X36.785Y5.873I-0.500J0.000
N26940G2X36.285Y6.373I0.000J0.500
N26950G2X36.785Y6.873I0.500J0.000
N26960G01Z-1.351F4.0
N26970G2X37.285Y6.373I0.000J-0.500F500.0
N26980G2X36.785Y5.873I-0.500J0.000
N26990G2X36.285Y6.373I0.000J0.500
N27000G2X36.785Y6.873I0.500J0.000
N27010G01Z-1.371F4.0
N27020G2X37.285Y6.373I0.000J-0.500F500.0
N27030G2X36.785Y5.873I-0.500J0.000
N27040G2X36.285Y6.373I0.000J0.500
N27050G2X36.785Y6.873I0.500J0.000
N27060G01Z-1.391F4.0
N27070G2X37.285Y6.373I0.000J-0.500F500.0
N27080G2X36.785Y5.873I-0.500J0.000
N27090G2X36.285Y6.373I0.000J0.500
N27100G2X36.785Y6.873I0.500J0.000
N27110G01Z-1.411F4.0
N27120G2X37.285Y6.373I0.000J-0.500F500.0
N27130G2X36.785Y5.873I-0.500J0.000
N27140G2X36.285Y6.373I0.000J0.500
N27150G2X36.785Y6.873I0.500J0.000
N27160G01Z-1.431F4.0
N27170G2X37.285Y6.373I0.000J-0.500F500.0
N27180G2X36.785Y5.873I-0.500J0.000
N27190G2X36.285Y6.373I0.000J0.500
N27200G2X36.785Y6.873I0.500J0.000
N27210G01Z-1.451F4.0
N27220G2X37.285Y6.373I0.000J-0.500F500.0
N27230G2X36.785Y5.873I-0.500J0.000
N27240G2X36.285Y6.373I0.000J0.500
N27250G2X36.785Y6.873I0.500J0.000
N27260G01Z-1.471F4.0
N27270G2X37.285Y6.373I0.000J-0.500F500.0
N27280G2X36.785Y5.873I-0.500J0.000
N27290G2X36.285Y6.373I0.000J0.500
N27300G2X36.785Y6.873I0.500J0.000
N27310G01Z-1.490F4.0
N27320G2X37.285Y6.373I0.000J-0.500F500.0
N27330G2X36.785Y5.873I-0.500J0.000
N27340G2X36.285Y6.373I0.000J0.500
N27350G2X36.785Y6.873I0.500J0.000
N27360G01Z-1.510F4.0
N27370G2X37.285Y6.373I0.000J-0.500F500.0
N27380G2X36.785Y5.873I-0.500J0.000
N27390G2X36.285Y6.373I0.000J0.500
N27400G2X36.785Y6.873I0.500J0.000
N27410G01Z-1.530F4.0
N27420G2X37.285Y6.373I0.000J-0.500F500.0
N27430G2X36.785Y5.873I-0.500J0.000
N27440G2X36.285Y6.373I0.000J0.500
N27450G2X36.785Y6.873I0.500J0.000
N27460G01Z-1.550F4.0
N27470G2X37.285Y6.373I0.000J-0.500F500.0
N27480G2X36.785Y5.873I-0.500J0.000
N27490G2X36.285Y6.373I0.000J0.500
N27500G2X36.785Y6.873I0.500J0.000
N27510G00Z6.000
N27520G00X38.060Y18.769
N27530G01Z-0.020F4.0
N27540G2X38.560Y18.269I0.000J-0.500F500.0
N27550G2X38.060Y17.769I-0.500J0.000
N27560G2X37.560Y18.269I0.000J0.500
N27570G2X38.060Y18.769I0.500J0.000
N27580G01Z-0.040F4.0
N27590G2X38.560Y18.269I0.000J-0.500F500.0
N27600G2X38.060Y17.769I-0.500J0.000
N27610G2X37.560Y18.269I0.000J0.500
N27620G2X38.060Y18.769I0.500J0.000
N27630G01Z-0.060F4.0
N27640G2X38.560Y18.269I0.000J-0.500F500.0
N27650G2X38.060Y17.769I-0.500J0.000
N27660G2X37.560Y18.269I0.000J0.500
N27670G2X38.060Y18.769I0.500J0.000
N27680G01Z-0.079F4.0
N27690G2X38.560Y18.269I0.000J-0.500F500.0
N27700G2X38.060Y17.769I-0.500J0.000
N27710G2X37.560Y18.269I0.000J0.500
N27720G2X38.060Y18.769I0.500J0.000
N27730G01Z-0.099F4.0
N27740G2X38.560Y18.269I0.000J-0.500F500.0
N27750G2X38.060Y17.769I-0.500J0.000
N27760G2X37.560Y18.269I0.000J0.500
N27770G2X38.060Y18.769I0.500J0.000
N27780G01Z-0.119F4.0
N27790G2X38.560Y18.269I0.000J-0.500F500.0
N27800G2X38.060Y17.769I-0.500J0.000
N27810G2X37.560Y18.269I0.000J0.500
N27820G2X38.060Y18.769I0.500J0.000
N27830G01Z-0.139F4.0
N27840G2X38.560Y18.269I0.000J-0.500F500.0
N27850G2X38.060Y17.769I-0.500J0.000
N27860G2X37.560Y18.269I0.000J0.500
N27870G2X38.060Y18.769I0.500J0.000
N27880G01Z-0.159F4.0
N27890G2X38.560Y18.269I0.000J-0.500F500.0
N27900G2X38.060Y17.769I-0.500J0.000
N27910G2X37.560Y18.269I0.000J0.500
N27920G2X38.060Y18.769I0.500J0.000
N27930G01Z-0.179F4.0
N27940G2X38.560Y18.269I0.000J-0.500F500.0
N27950G2X38.060Y17.769I-0.500J0.000
N27960G2X37.560Y18.269I0.000J0.500
N27970G2X38.060Y18.769I0.500J0.000
N27980G01Z-0.199F4.0
N27990G2X38.560Y18.269I0.000J-0.500F500.0
N28000G2X38.060Y17.769I-0.500J0.000
N28010G2X37.560Y18.269I0.000J0.500
N28020G2X38.060Y18.769I0.500J0.000
N28030G01Z-0.219F4.0
N28040G2X38.560Y18.269I0.000J-0.500F500.0
N28050G2X38.060Y17.769I-0.500J0.000
N28060G2X37.560Y18.269I0.000J0.500
N28070G2X38.060Y18.769I0.500J0.000
N28080G01Z-0.238F4.0
N28090G2X38.560Y18.269I0.000J-0.500F500.0
N28100G2X38.060Y17.769I-0.500J0.000
N28110G2X37.560Y18.269I0.000J0.500
N28120G2X38.060Y18.769I0.500J0.000
N28130G01Z-0.258F4.0
N28140G2X38.560Y18.269I0.000J-0.500F500.0
N28150G2X38.060Y17.769I-0.500J0.000
N28160G2X37.560Y18.269I0.000J0.500
N28170G2X38.060Y18.769I0.500J0.000
N28180G01Z-0.278F4.0
N28190G2X38.560Y18.269I0.000J-0.500F500.0
N28200G2X38.060Y17.769I-0.500J0.000
N28210G2X37.560Y18.269I0.000J0.500
N28220G2X38.060Y18.769I0.500J0.000
N28230G01Z-0.298F4.0
N28240G2X38.560Y18.269I0.000J-0.500F500.0
N28250G2X38.060Y17.769I-0.500J0.000
N28260G2X37.560Y18.269I0.000J0.500
N28270G2X38.060Y18.769I0.500J0.000
N28280G01Z-0.318F4.0
N28290G2X38.560Y18.269I0.000J-0.500F500.0
N28300G2X38.060Y17.769I-0.500J0.000
N28310G2X37.560Y18.269I0.000J0.500
N28320G2X38.060Y18.769I0.500J0.000
N28330G01Z-0.338F4.0
N28340G2X38.560Y18.269I0.000J-0.500F500.0
N28350G2X38.060Y17.769I-0.500J0.000
N28360G2X37.560Y18.269I0.000J0.500
N28370G2X38.060Y18.769I0.500J0.000
N28380G01Z-0.358F4.0
N28390G2X38.560Y18.269I0.000J-0.500F500.0
N28400G2X38.060Y17.769I-0.500J0.000
N28410G2X37.560Y18.269I0.000J0.500
N28420G2X38.060Y18.769I0.500J0.000
N28430G01Z-0.378F4.0
N28440G2X38.560Y18.269I0.000J-0.500F500.0
N28450G2X38.060Y17.769I-0.500J0.000
N28460G2X37.560Y18.269I0.000J0.500
N28470G2X38.060Y18.769I0.500J0.000
N28480G01Z-0.397F4.0
N28490G2X38.560Y18.269I0.000J-0.500F500.0
N28500G2X38.060Y17.769I-0.500J0.000
N28510G2X37.560Y18.269I0.000J0.500
N28520G2X38.060Y18.769I0.500J0.000
N28530G01Z-0.417F4.0
N28540G2X38.560Y18.269I0.000J-0.500F500.0
N28550G2X38.060Y17.769I-0.500J0.000
N28560G2X37.560Y18.269I0.000J0.500
N28570G2X38.060Y18.769I0.500J0.000
N28580G01Z-0.437F4.0
N28590G2X38.560Y18.269I0.000J-0.500F500.0
N28600G2X38.060Y17.769I-0.500J0.000
N28610G2X37.560Y18.269I0.000J0.500
N28620G2X38.060Y18.769I0.500J0.000
N28630G01Z-0.457F4.0
N28640G2X38.560Y18.269I0.000J-0.500F500.0
N28650G2X38.060Y17.769I-0.500J0.000
N28660G2X37.560Y18.269I0.000J0.500
N28670G2X38.060Y18.769I0.500J0.000
N28680G01Z-0.477F4.0
N28690G2X38.560Y18.269I0.000J-0.500F500.0
N28700G2X38.060Y17.769I-0.500J0.000
N28710G2X37.560Y18.269I0.000J0.500
N28720G2X38.060Y18.769I0.500J0.000
N28730G01Z-0.497F4.0
N28740G2X38.560Y18.269I0.000J-0.500F500.0
N28750G2X38.060Y17.769I-0.500J0.000
N28760G2X37.560Y18.269I0.000J0.500
N28770G2X38.060Y18.769I0.500J0.000
N28780G01Z-0.517F4.0
N28790G2X38.560Y18.269I0.000J-0.500F500.0
N28800G2X38.060Y17.769I-0.500J0.000
N28810G2X37.560Y18.269I0.000J0.500
N28820G2X38.060Y18.769I0.500J0.000
N28830G01Z-0.537F4.0
N28840G2X38.560Y18.269I0.000J-0.500F500.0
N28850G2X38.060Y17.769I-0.500J0.000
N28860G2X37.560Y18.269I0.000J0.500
N28870G2X38.060Y18.769I0.500J0.000
N28880G01Z-0.556F4.0
N28890G2X38.560Y18.269I0.000J-0.500F500.0
N28900G2X38.060Y17.769I-0.500J0.000
N28910G2X37.560Y18.269I0.000J0.500
N28920G2X38.060Y18.769I0.500J0.000
N28930G01Z-0.576F4.0
N28940G2X38.560Y18.269I0.000J-0.500F500.0
N28950G2X38.060Y17.769I-0.500J0.000
N28960G2X37.560Y18.269I0.000J0.500
N28970G2X38.060Y18.769I0.500J0.000
N28980G01Z-0.596F4.0
N28990G2X38.560Y18.269I0.000J-0.500F500.0
N29000G2X38.060Y17.769I-0.500J0.000
N29010G2X37.560Y18.269I0.000J0.500
N29020G2X38.060Y18.769I0.500J0.000
N29030G01Z-0.616F4.0
N29040G2X38.560Y18.269I0.000J-0.500F500.0
N29050G2X38.060Y17.769I-0.500J0.000
N29060G2X37.560Y18.269I0.000J0.500
N29070G2X38.060Y18.769I0.500J0.000
N29080G01Z-0.636F4.0
N29090G2X38.560Y18.269I0.000J-0.500F500.0
N29100G2X38.060Y17.769I-0.500J0.000
N29110G2X37.560Y18.269I0.000J0.500
N29120G2X38.060Y18.769I0.500J0.000
N29130G01Z-0.656F4.0
N29140G2X38.560Y18.269I0.000J-0.500F500.0
N29150G2X38.060Y17.769I-0.500J0.000
N29160G2X37.560Y18.269I0.000J0.500
N29170G2X38.060Y18.769I0.500J0.000
N29180G01Z-0.676F4.0
N29190G2X38.560Y18.269I0.000J-0.500F500.0
N29200G2X38.060Y17.769I-0.500J0.000
N29210G2X37.560Y18.269I0.000J0.500
N29220G2X38.060Y18.769I0.500J0.000
N29230G01Z-0.696F4.0
N29240G2X38.560Y18.269I0.000J-0.500F500.0
N29250G2X38.060Y17.769I-0.500J0.000
N29260G2X37.560Y18.269I0.000J0.500
N29270G2X38.060Y18.769I0.500J0.000
N29280G01Z-0.715F4.0
N29290G2X38.560Y18.269I0.000J-0.500F500.0
N29300G2X38.060Y17.769I-0.500J0.000
N29310G2X37.560Y18.269I0.000J0.500
N29320G2X38.060Y18.769I0.500J0.000
N29330G01Z-0.735F4.0
N29340G2X38.560Y18.269I0.000J-0.500F500.0
N29350G2X38.060Y17.769I-0.500J0.000
N29360G2X37.560Y18.269I0.000J0.500
N29370G2X38.060Y18.769I0.500J0.000
N29380G01Z-0.755F4.0
N29390G2X38.560Y18.269I0.000J-0.500F500.0
N29400G2X38.060Y17.769I-0.500J0.000
N29410G2X37.560Y18.269I0.000J0.500
N29420G2X38.060Y18.769I0.500J0.000
N29430G01Z-0.775F4.0
N29440G2X38.560Y18.269I0.000J-0.500F500.0
N29450G2X38.060Y17.769I-0.500J0.000
N29460G2X37.560Y18.269I0.000J0.500
N29470G2X38.060Y18.769I0.500J0.000
N29480G01Z-0.795F4.0
N29490G2X38.560Y18.269I0.000J-0.500F500.0
N29500G2X38.060Y17.769I-0.500J0.000
N29510G2X37.560Y18.269I0.000J0.500
N29520G2X38.060Y18.769I0.500J0.000
N29530G01Z-0.815F4.0
N29540G2X38.560Y18.269I0.000J-0.500F500.0
N29550G2X38.060Y17.769I-0.500J0.000
N29560G2X37.560Y18.269I0.000J0.500
N29570G2X38.060Y18.769I0.500J0.000
N29580G01Z-0.835F4.0
N29590G2X38.560Y18.269I0.000J-0.500F500.0
N29600G2X38.060Y17.769I-0.500J0.000
N29610G2X37.560Y18.269I0.000J0.500
N29620G2X38.060Y18.769I0.500J0.000
N29630G01Z-0.854F4.0
N29640G2X38.560Y18.269I0.000J-0.500F500.0
N29650G2X38.060Y17.769I-0.500J0.000
N29660G2X37.560Y18.269I0.000J0.500
N29670G2X38.060Y18.769I0.500J0.000
N29680G01Z-0.874F4.0
N29690G2X38.560Y18.269I0.000J-0.500F500.0
N29700G2X38.060Y17.769I-0.500J0.000
N29710G2X37.560Y18.269I0.000J0.500
N29720G2X38.060Y18.769I0.500J0.000
N29730G01Z-0.894F4.0
N29740G2X38.560Y18.269I0.000J-0.500F500.0
N29750G2X38.060Y17.769I-0.500J0.000
N29760G2X37.560Y18.269I0.000J0.500
N29770G2X38.060Y18.769I0.500J0.000
N29780G01Z-0.914F4.0
N29790G2X38.560Y18.269I0.000J-0.500F500.0
N29800G2X38.060Y17.769I-0.500J0.000
N29810G2X37.560Y18.269I0.000J0.500
N29820G2X38.060Y18.769I0.500J0.000
N29830G01Z-0.934F4.0
N29840G2X38.560Y18.269I0.000J-0.500F500.0
N29850G2X38.060Y17.769I-0.500J0.000
N29860G2X37.560Y18.269I0.000J0.500
N29870G2X38.060Y18.769I0.500J0.000
N29880G01Z-0.954F4.0
N29890G2X38.560Y18.269I0.000J-0.500F500.0
N29900G2X38.060Y17.769I-0.500J0.000
N29910G2X37.560Y18.269I0.000J0.500
N29920G2X38.060Y18.769I0.500J0.000
N29930G01Z-0.974F4.0
N29940G2X38.560Y18.269I0.000J-0.500F500.0
N29950G2X38.060Y17.769I-0.500J0.000
N29960G2X37.560Y18.269I0.000J0.500
N29970G2X38.060Y18.769I0.500J0.000
N29980G01Z-0.994F4.0
N29990G2X38.560Y18.269I0.000J-0.500F500.0
N30000G2X38.060Y17.769I-0.500J0.000
N30010G2X37.560Y18.269I0.000J0.500
N30020G2X38.060Y18.769I0.500J0.000
N30030G01Z-1.013F4.0
N30040G2X38.560Y18.269I0.000J-0.500F500.0
N30050G2X38.060Y17.769I-0.500J0.000
N30060G2X37.560Y18.269I0.000J0.500
N30070G2X38.060Y18.769I0.500J0.000
N30080G01Z-1.033F4.0
N30090G2X38.560Y18.269I0.000J-0.500F500.0
N30100G2X38.060Y17.769I-0.500J0.000
N30110G2X37.560Y18.269I0.000J0.500
N30120G2X38.060Y18.769I0.500J0.000
N30130G01Z-1.053F4.0
N30140G2X38.560Y18.269I0.000J-0.500F500.0
N30150G2X38.060Y17.769I-0.500J0.000
N30160G2X37.560Y18.269I0.000J0.500
N30170G2X38.060Y18.769I0.500J0.000
N30180G01Z-1.073F4.0
N30190G2X38.560Y18.269I0.000J-0.500F500.0
N30200G2X38.060Y17.769I-0.500J0.000
N30210G2X37.560Y18.269I0.000J0.500
N30220G2X38.060Y18.769I0.500J0.000
N30230G01Z-1.093F4.0
N30240G2X38.560Y18.269I0.000J-0.500F500.0
N30250G2X38.060Y17.769I-0.500J0.000
N30260G2X37.560Y18.269I0.000J0.500
N30270G2X38.060Y18.769I0.500J0.000
N30280G01Z-1.113F4.0
N30290G2X38.560Y18.269I0.000J-0.500F500.0
N30300G2X38.060Y17.769I-0.500J0.000
N30310G2X37.560Y18.269I0.000J0.500
N30320G2X38.060Y18.769I0.500J0.000
N30330G01Z-1.133F4.0
N30340G2X38.560Y18.269I0.000J-0.500F500.0
N30350G2X38.060Y17.769I-0.500J0.000
N30360G2X37.560Y18.269I0.000J0.500
N30370G2X38.060Y18.769I0.500J0.000
N30380G01Z-1.153F4.0
N30390G2X38.560Y18.269I0.000J-0.500F500.0
N30400G2X38.060Y17.769I-0.500J0.000
N30410G2X37.560Y18.269I0.000J0.500
N30420G2X38.060Y18.769I0.500J0.000
N30430G01Z-1.172F4.0
N30440G2X38.560Y18.269I0.000J-0.500F500.0
N30450G2X38.060Y17.769I-0.500J0.000
N30460G2X37.560Y18.269I0.000J0.500
N30470G2X38.060Y18.769I0.500J0.000
N30480G01Z-1.192F4.0
N30490G2X38.560Y18.269I0.000J-0.500F500.0
N30500G2X38.060Y17.769I-0.500J0.000
N30510G2X37.560Y18.269I0.000J0.500
N30520G2X38.060Y18.769I0.500J0.000
N30530G01Z-1.212F4.0
N30540G2X38.560Y18.269I0.000J-0.500F500.0
N30550G2X38.060Y17.769I-0.500J0.000
N30560G2X37.560Y18.269I0.000J0.500
