( —ÖŠs 3 )
( USBCNC Postprocessor )
N20G00G21G17G90G40G49
N30G80
N40G00G43Z20.000H1
N50S8000M03
N60G94
N70X0.000Y0.000F500.0
N80G00X60.013Y51.197Z6.000
N90G01Z-0.030F6.0
N100G2X60.513Y50.697I0.000J-0.500F500.0
N110G2X60.013Y50.197I-0.500J0.000
N120G2X59.513Y50.697I0.000J0.500
N130G2X60.013Y51.197I0.500J0.000
N140G01Z-0.060F6.0
N150G2X60.513Y50.697I0.000J-0.500F500.0
N160G2X60.013Y50.197I-0.500J0.000
N170G2X59.513Y50.697I0.000J0.500
N180G2X60.013Y51.197I0.500J0.000
N190G01Z-0.090F6.0
N200G2X60.513Y50.697I0.000J-0.500F500.0
N210G2X60.013Y50.197I-0.500J0.000
N220G2X59.513Y50.697I0.000J0.500
N230G2X60.013Y51.197I0.500J0.000
N240G01Z-0.120F6.0
N250G2X60.513Y50.697I0.000J-0.500F500.0
N260G2X60.013Y50.197I-0.500J0.000
N270G2X59.513Y50.697I0.000J0.500
N280G2X60.013Y51.197I0.500J0.000
N290G01Z-0.150F6.0
N300G2X60.513Y50.697I0.000J-0.500F500.0
N310G2X60.013Y50.197I-0.500J0.000
N320G2X59.513Y50.697I0.000J0.500
N330G2X60.013Y51.197I0.500J0.000
N340G01Z-0.179F6.0
N350G2X60.513Y50.697I0.000J-0.500F500.0
N360G2X60.013Y50.197I-0.500J0.000
N370G2X59.513Y50.697I0.000J0.500
N380G2X60.013Y51.197I0.500J0.000
N390G01Z-0.209F6.0
N400G2X60.513Y50.697I0.000J-0.500F500.0
N410G2X60.013Y50.197I-0.500J0.000
N420G2X59.513Y50.697I0.000J0.500
N430G2X60.013Y51.197I0.500J0.000
N440G01Z-0.239F6.0
N450G2X60.513Y50.697I0.000J-0.500F500.0
N460G2X60.013Y50.197I-0.500J0.000
N470G2X59.513Y50.697I0.000J0.500
N480G2X60.013Y51.197I0.500J0.000
N490G01Z-0.269F6.0
N500G2X60.513Y50.697I0.000J-0.500F500.0
N510G2X60.013Y50.197I-0.500J0.000
N520G2X59.513Y50.697I0.000J0.500
N530G2X60.013Y51.197I0.500J0.000
N540G01Z-0.299F6.0
N550G2X60.513Y50.697I0.000J-0.500F500.0
N560G2X60.013Y50.197I-0.500J0.000
N570G2X59.513Y50.697I0.000J0.500
N580G2X60.013Y51.197I0.500J0.000
N590G01Z-0.329F6.0
N600G2X60.513Y50.697I0.000J-0.500F500.0
N610G2X60.013Y50.197I-0.500J0.000
N620G2X59.513Y50.697I0.000J0.500
N630G2X60.013Y51.197I0.500J0.000
N640G01Z-0.359F6.0
N650G2X60.513Y50.697I0.000J-0.500F500.0
N660G2X60.013Y50.197I-0.500J0.000
N670G2X59.513Y50.697I0.000J0.500
N680G2X60.013Y51.197I0.500J0.000
N690G01Z-0.389F6.0
N700G2X60.513Y50.697I0.000J-0.500F500.0
N710G2X60.013Y50.197I-0.500J0.000
N720G2X59.513Y50.697I0.000J0.500
N730G2X60.013Y51.197I0.500J0.000
N740G01Z-0.419F6.0
N750G2X60.513Y50.697I0.000J-0.500F500.0
N760G2X60.013Y50.197I-0.500J0.000
N770G2X59.513Y50.697I0.000J0.500
N780G2X60.013Y51.197I0.500J0.000
N790G01Z-0.449F6.0
N800G2X60.513Y50.697I0.000J-0.500F500.0
N810G2X60.013Y50.197I-0.500J0.000
N820G2X59.513Y50.697I0.000J0.500
N830G2X60.013Y51.197I0.500J0.000
N840G01Z-0.478F6.0
N850G2X60.513Y50.697I0.000J-0.500F500.0
N860G2X60.013Y50.197I-0.500J0.000
N870G2X59.513Y50.697I0.000J0.500
N880G2X60.013Y51.197I0.500J0.000
N890G01Z-0.508F6.0
N900G2X60.513Y50.697I0.000J-0.500F500.0
N910G2X60.013Y50.197I-0.500J0.000
N920G2X59.513Y50.697I0.000J0.500
N930G2X60.013Y51.197I0.500J0.000
N940G01Z-0.538F6.0
N950G2X60.513Y50.697I0.000J-0.500F500.0
N960G2X60.013Y50.197I-0.500J0.000
N970G2X59.513Y50.697I0.000J0.500
N980G2X60.013Y51.197I0.500J0.000
N990G01Z-0.568F6.0
N1000G2X60.513Y50.697I0.000J-0.500F500.0
N1010G2X60.013Y50.197I-0.500J0.000
N1020G2X59.513Y50.697I0.000J0.500
N1030G2X60.013Y51.197I0.500J0.000
N1040G01Z-0.598F6.0
N1050G2X60.513Y50.697I0.000J-0.500F500.0
N1060G2X60.013Y50.197I-0.500J0.000
N1070G2X59.513Y50.697I0.000J0.500
N1080G2X60.013Y51.197I0.500J0.000
N1090G01Z-0.628F6.0
N1100G2X60.513Y50.697I0.000J-0.500F500.0
N1110G2X60.013Y50.197I-0.500J0.000
N1120G2X59.513Y50.697I0.000J0.500
N1130G2X60.013Y51.197I0.500J0.000
N1140G01Z-0.658F6.0
N1150G2X60.513Y50.697I0.000J-0.500F500.0
N1160G2X60.013Y50.197I-0.500J0.000
N1170G2X59.513Y50.697I0.000J0.500
N1180G2X60.013Y51.197I0.500J0.000
N1190G01Z-0.688F6.0
N1200G2X60.513Y50.697I0.000J-0.500F500.0
N1210G2X60.013Y50.197I-0.500J0.000
N1220G2X59.513Y50.697I0.000J0.500
N1230G2X60.013Y51.197I0.500J0.000
N1240G01Z-0.718F6.0
N1250G2X60.513Y50.697I0.000J-0.500F500.0
N1260G2X60.013Y50.197I-0.500J0.000
N1270G2X59.513Y50.697I0.000J0.500
N1280G2X60.013Y51.197I0.500J0.000
N1290G01Z-0.748F6.0
N1300G2X60.513Y50.697I0.000J-0.500F500.0
N1310G2X60.013Y50.197I-0.500J0.000
N1320G2X59.513Y50.697I0.000J0.500
N1330G2X60.013Y51.197I0.500J0.000
N1340G01Z-0.777F6.0
N1350G2X60.513Y50.697I0.000J-0.500F500.0
N1360G2X60.013Y50.197I-0.500J0.000
N1370G2X59.513Y50.697I0.000J0.500
N1380G2X60.013Y51.197I0.500J0.000
N1390G01Z-0.807F6.0
N1400G2X60.513Y50.697I0.000J-0.500F500.0
N1410G2X60.013Y50.197I-0.500J0.000
N1420G2X59.513Y50.697I0.000J0.500
N1430G2X60.013Y51.197I0.500J0.000
N1440G01Z-0.837F6.0
N1450G2X60.513Y50.697I0.000J-0.500F500.0
N1460G2X60.013Y50.197I-0.500J0.000
N1470G2X59.513Y50.697I0.000J0.500
N1480G2X60.013Y51.197I0.500J0.000
N1490G01Z-0.867F6.0
N1500G2X60.513Y50.697I0.000J-0.500F500.0
N1510G2X60.013Y50.197I-0.500J0.000
N1520G2X59.513Y50.697I0.000J0.500
N1530G2X60.013Y51.197I0.500J0.000
N1540G01Z-0.897F6.0
N1550G2X60.513Y50.697I0.000J-0.500F500.0
N1560G2X60.013Y50.197I-0.500J0.000
N1570G2X59.513Y50.697I0.000J0.500
N1580G2X60.013Y51.197I0.500J0.000
N1590G01Z-0.927F6.0
N1600G2X60.513Y50.697I0.000J-0.500F500.0
N1610G2X60.013Y50.197I-0.500J0.000
N1620G2X59.513Y50.697I0.000J0.500
N1630G2X60.013Y51.197I0.500J0.000
N1640G01Z-0.957F6.0
N1650G2X60.513Y50.697I0.000J-0.500F500.0
N1660G2X60.013Y50.197I-0.500J0.000
N1670G2X59.513Y50.697I0.000J0.500
N1680G2X60.013Y51.197I0.500J0.000
N1690G01Z-0.987F6.0
N1700G2X60.513Y50.697I0.000J-0.500F500.0
N1710G2X60.013Y50.197I-0.500J0.000
N1720G2X59.513Y50.697I0.000J0.500
N1730G2X60.013Y51.197I0.500J0.000
N1740G01Z-1.017F6.0
N1750G2X60.513Y50.697I0.000J-0.500F500.0
N1760G2X60.013Y50.197I-0.500J0.000
N1770G2X59.513Y50.697I0.000J0.500
N1780G2X60.013Y51.197I0.500J0.000
N1790G01Z-1.047F6.0
N1800G2X60.513Y50.697I0.000J-0.500F500.0
N1810G2X60.013Y50.197I-0.500J0.000
N1820G2X59.513Y50.697I0.000J0.500
N1830G2X60.013Y51.197I0.500J0.000
N1840G01Z-1.076F6.0
N1850G2X60.513Y50.697I0.000J-0.500F500.0
N1860G2X60.013Y50.197I-0.500J0.000
N1870G2X59.513Y50.697I0.000J0.500
N1880G2X60.013Y51.197I0.500J0.000
N1890G01Z-1.106F6.0
N1900G2X60.513Y50.697I0.000J-0.500F500.0
N1910G2X60.013Y50.197I-0.500J0.000
N1920G2X59.513Y50.697I0.000J0.500
N1930G2X60.013Y51.197I0.500J0.000
N1940G01Z-1.136F6.0
N1950G2X60.513Y50.697I0.000J-0.500F500.0
N1960G2X60.013Y50.197I-0.500J0.000
N1970G2X59.513Y50.697I0.000J0.500
N1980G2X60.013Y51.197I0.500J0.000
N1990G01Z-1.166F6.0
N2000G2X60.513Y50.697I0.000J-0.500F500.0
N2010G2X60.013Y50.197I-0.500J0.000
N2020G2X59.513Y50.697I0.000J0.500
N2030G2X60.013Y51.197I0.500J0.000
N2040G01Z-1.196F6.0
N2050G2X60.513Y50.697I0.000J-0.500F500.0
N2060G2X60.013Y50.197I-0.500J0.000
N2070G2X59.513Y50.697I0.000J0.500
N2080G2X60.013Y51.197I0.500J0.000
N2090G01Z-1.226F6.0
N2100G2X60.513Y50.697I0.000J-0.500F500.0
N2110G2X60.013Y50.197I-0.500J0.000
N2120G2X59.513Y50.697I0.000J0.500
N2130G2X60.013Y51.197I0.500J0.000
N2140G01Z-1.256F6.0
N2150G2X60.513Y50.697I0.000J-0.500F500.0
N2160G2X60.013Y50.197I-0.500J0.000
N2170G2X59.513Y50.697I0.000J0.500
N2180G2X60.013Y51.197I0.500J0.000
N2190G01Z-1.286F6.0
N2200G2X60.513Y50.697I0.000J-0.500F500.0
N2210G2X60.013Y50.197I-0.500J0.000
N2220G2X59.513Y50.697I0.000J0.500
N2230G2X60.013Y51.197I0.500J0.000
N2240G01Z-1.316F6.0
N2250G2X60.513Y50.697I0.000J-0.500F500.0
N2260G2X60.013Y50.197I-0.500J0.000
N2270G2X59.513Y50.697I0.000J0.500
N2280G2X60.013Y51.197I0.500J0.000
N2290G01Z-1.346F6.0
N2300G2X60.513Y50.697I0.000J-0.500F500.0
N2310G2X60.013Y50.197I-0.500J0.000
N2320G2X59.513Y50.697I0.000J0.500
N2330G2X60.013Y51.197I0.500J0.000
N2340G01Z-1.375F6.0
N2350G2X60.513Y50.697I0.000J-0.500F500.0
N2360G2X60.013Y50.197I-0.500J0.000
N2370G2X59.513Y50.697I0.000J0.500
N2380G2X60.013Y51.197I0.500J0.000
N2390G01Z-1.405F6.0
N2400G2X60.513Y50.697I0.000J-0.500F500.0
N2410G2X60.013Y50.197I-0.500J0.000
N2420G2X59.513Y50.697I0.000J0.500
N2430G2X60.013Y51.197I0.500J0.000
N2440G01Z-1.435F6.0
N2450G2X60.513Y50.697I0.000J-0.500F500.0
N2460G2X60.013Y50.197I-0.500J0.000
N2470G2X59.513Y50.697I0.000J0.500
N2480G2X60.013Y51.197I0.500J0.000
N2490G01Z-1.465F6.0
N2500G2X60.513Y50.697I0.000J-0.500F500.0
N2510G2X60.013Y50.197I-0.500J0.000
N2520G2X59.513Y50.697I0.000J0.500
N2530G2X60.013Y51.197I0.500J0.000
N2540G01Z-1.495F6.0
N2550G2X60.513Y50.697I0.000J-0.500F500.0
N2560G2X60.013Y50.197I-0.500J0.000
N2570G2X59.513Y50.697I0.000J0.500
N2580G2X60.013Y51.197I0.500J0.000
N2590G01Z-1.525F6.0
N2600G2X60.513Y50.697I0.000J-0.500F500.0
N2610G2X60.013Y50.197I-0.500J0.000
N2620G2X59.513Y50.697I0.000J0.500
N2630G2X60.013Y51.197I0.500J0.000
N2640G01Z-1.555F6.0
N2650G2X60.513Y50.697I0.000J-0.500F500.0
N2660G2X60.013Y50.197I-0.500J0.000
N2670G2X59.513Y50.697I0.000J0.500
N2680G2X60.013Y51.197I0.500J0.000
N2690G01Z-1.585F6.0
N2700G2X60.513Y50.697I0.000J-0.500F500.0
N2710G2X60.013Y50.197I-0.500J0.000
N2720G2X59.513Y50.697I0.000J0.500
N2730G2X60.013Y51.197I0.500J0.000
N2740G01Z-1.615F6.0
N2750G2X60.513Y50.697I0.000J-0.500F500.0
N2760G2X60.013Y50.197I-0.500J0.000
N2770G2X59.513Y50.697I0.000J0.500
N2780G2X60.013Y51.197I0.500J0.000
N2790G01Z-1.645F6.0
N2800G2X60.513Y50.697I0.000J-0.500F500.0
N2810G2X60.013Y50.197I-0.500J0.000
N2820G2X59.513Y50.697I0.000J0.500
N2830G2X60.013Y51.197I0.500J0.000
N2840G01Z-1.675F6.0
N2850G2X60.513Y50.697I0.000J-0.500F500.0
N2860G2X60.013Y50.197I-0.500J0.000
N2870G2X59.513Y50.697I0.000J0.500
N2880G2X60.013Y51.197I0.500J0.000
N2890G01Z-1.704F6.0
N2900G2X60.513Y50.697I0.000J-0.500F500.0
N2910G2X60.013Y50.197I-0.500J0.000
N2920G2X59.513Y50.697I0.000J0.500
N2930G2X60.013Y51.197I0.500J0.000
N2940G01Z-1.734F6.0
N2950G2X60.513Y50.697I0.000J-0.500F500.0
N2960G2X60.013Y50.197I-0.500J0.000
N2970G2X59.513Y50.697I0.000J0.500
N2980G2X60.013Y51.197I0.500J0.000
N2990G01Z-1.764F6.0
N3000G2X60.513Y50.697I0.000J-0.500F500.0
N3010G2X60.013Y50.197I-0.500J0.000
N3020G2X59.513Y50.697I0.000J0.500
N3030G2X60.013Y51.197I0.500J0.000
N3040G01Z-1.794F6.0
N3050G2X60.513Y50.697I0.000J-0.500F500.0
N3060G2X60.013Y50.197I-0.500J0.000
N3070G2X59.513Y50.697I0.000J0.500
N3080G2X60.013Y51.197I0.500J0.000
N3090G01Z-1.824F6.0
N3100G2X60.513Y50.697I0.000J-0.500F500.0
N3110G2X60.013Y50.197I-0.500J0.000
N3120G2X59.513Y50.697I0.000J0.500
N3130G2X60.013Y51.197I0.500J0.000
N3140G01Z-1.854F6.0
N3150G2X60.513Y50.697I0.000J-0.500F500.0
N3160G2X60.013Y50.197I-0.500J0.000
N3170G2X59.513Y50.697I0.000J0.500
N3180G2X60.013Y51.197I0.500J0.000
N3190G01Z-1.884F6.0
N3200G2X60.513Y50.697I0.000J-0.500F500.0
N3210G2X60.013Y50.197I-0.500J0.000
N3220G2X59.513Y50.697I0.000J0.500
N3230G2X60.013Y51.197I0.500J0.000
N3240G01Z-1.914F6.0
N3250G2X60.513Y50.697I0.000J-0.500F500.0
N3260G2X60.013Y50.197I-0.500J0.000
N3270G2X59.513Y50.697I0.000J0.500
N3280G2X60.013Y51.197I0.500J0.000
N3290G01Z-1.944F6.0
N3300G2X60.513Y50.697I0.000J-0.500F500.0
N3310G2X60.013Y50.197I-0.500J0.000
N3320G2X59.513Y50.697I0.000J0.500
N3330G2X60.013Y51.197I0.500J0.000
N3340G01Z-1.974F6.0
N3350G2X60.513Y50.697I0.000J-0.500F500.0
N3360G2X60.013Y50.197I-0.500J0.000
N3370G2X59.513Y50.697I0.000J0.500
N3380G2X60.013Y51.197I0.500J0.000
N3390G01Z-2.003F6.0
N3400G2X60.513Y50.697I0.000J-0.500F500.0
N3410G2X60.013Y50.197I-0.500J0.000
N3420G2X59.513Y50.697I0.000J0.500
N3430G2X60.013Y51.197I0.500J0.000
N3440G01Z-2.033F6.0
N3450G2X60.513Y50.697I0.000J-0.500F500.0
N3460G2X60.013Y50.197I-0.500J0.000
N3470G2X59.513Y50.697I0.000J0.500
N3480G2X60.013Y51.197I0.500J0.000
N3490G01Z-2.063F6.0
N3500G2X60.513Y50.697I0.000J-0.500F500.0
N3510G2X60.013Y50.197I-0.500J0.000
N3520G2X59.513Y50.697I0.000J0.500
N3530G2X60.013Y51.197I0.500J0.000
N3540G01Z-2.093F6.0
N3550G2X60.513Y50.697I0.000J-0.500F500.0
N3560G2X60.013Y50.197I-0.500J0.000
N3570G2X59.513Y50.697I0.000J0.500
N3580G2X60.013Y51.197I0.500J0.000
N3590G01Z-2.123F6.0
N3600G2X60.513Y50.697I0.000J-0.500F500.0
N3610G2X60.013Y50.197I-0.500J0.000
N3620G2X59.513Y50.697I0.000J0.500
N3630G2X60.013Y51.197I0.500J0.000
N3640G01Z-2.153F6.0
N3650G2X60.513Y50.697I0.000J-0.500F500.0
N3660G2X60.013Y50.197I-0.500J0.000
N3670G2X59.513Y50.697I0.000J0.500
N3680G2X60.013Y51.197I0.500J0.000
N3690G01Z-2.183F6.0
N3700G2X60.513Y50.697I0.000J-0.500F500.0
N3710G2X60.013Y50.197I-0.500J0.000
N3720G2X59.513Y50.697I0.000J0.500
N3730G2X60.013Y51.197I0.500J0.000
N3740G01Z-2.213F6.0
N3750G2X60.513Y50.697I0.000J-0.500F500.0
N3760G2X60.013Y50.197I-0.500J0.000
N3770G2X59.513Y50.697I0.000J0.500
N3780G2X60.013Y51.197I0.500J0.000
N3790G01Z-2.243F6.0
N3800G2X60.513Y50.697I0.000J-0.500F500.0
N3810G2X60.013Y50.197I-0.500J0.000
N3820G2X59.513Y50.697I0.000J0.500
N3830G2X60.013Y51.197I0.500J0.000
N3840G01Z-2.273F6.0
N3850G2X60.513Y50.697I0.000J-0.500F500.0
N3860G2X60.013Y50.197I-0.500J0.000
N3870G2X59.513Y50.697I0.000J0.500
N3880G2X60.013Y51.197I0.500J0.000
N3890G01Z-2.302F6.0
N3900G2X60.513Y50.697I0.000J-0.500F500.0
N3910G2X60.013Y50.197I-0.500J0.000
N3920G2X59.513Y50.697I0.000J0.500
N3930G2X60.013Y51.197I0.500J0.000
N3940G01Z-2.332F6.0
N3950G2X60.513Y50.697I0.000J-0.500F500.0
N3960G2X60.013Y50.197I-0.500J0.000
N3970G2X59.513Y50.697I0.000J0.500
N3980G2X60.013Y51.197I0.500J0.000
N3990G01Z-2.362F6.0
N4000G2X60.513Y50.697I0.000J-0.500F500.0
N4010G2X60.013Y50.197I-0.500J0.000
N4020G2X59.513Y50.697I0.000J0.500
N4030G2X60.013Y51.197I0.500J0.000
N4040G01Z-2.392F6.0
N4050G2X60.513Y50.697I0.000J-0.500F500.0
N4060G2X60.013Y50.197I-0.500J0.000
N4070G2X59.513Y50.697I0.000J0.500
N4080G2X60.013Y51.197I0.500J0.000
N4090G01Z-2.422F6.0
N4100G2X60.513Y50.697I0.000J-0.500F500.0
N4110G2X60.013Y50.197I-0.500J0.000
N4120G2X59.513Y50.697I0.000J0.500
N4130G2X60.013Y51.197I0.500J0.000
N4140G01Z-2.452F6.0
N4150G2X60.513Y50.697I0.000J-0.500F500.0
N4160G2X60.013Y50.197I-0.500J0.000
N4170G2X59.513Y50.697I0.000J0.500
N4180G2X60.013Y51.197I0.500J0.000
N4190G01Z-2.482F6.0
N4200G2X60.513Y50.697I0.000J-0.500F500.0
N4210G2X60.013Y50.197I-0.500J0.000
N4220G2X59.513Y50.697I0.000J0.500
N4230G2X60.013Y51.197I0.500J0.000
N4240G01Z-2.512F6.0
N4250G2X60.513Y50.697I0.000J-0.500F500.0
N4260G2X60.013Y50.197I-0.500J0.000
N4270G2X59.513Y50.697I0.000J0.500
N4280G2X60.013Y51.197I0.500J0.000
N4290G01Z-2.542F6.0
N4300G2X60.513Y50.697I0.000J-0.500F500.0
N4310G2X60.013Y50.197I-0.500J0.000
N4320G2X59.513Y50.697I0.000J0.500
N4330G2X60.013Y51.197I0.500J0.000
N4340G01Z-2.572F6.0
N4350G2X60.513Y50.697I0.000J-0.500F500.0
N4360G2X60.013Y50.197I-0.500J0.000
N4370G2X59.513Y50.697I0.000J0.500
N4380G2X60.013Y51.197I0.500J0.000
N4390G01Z-2.601F6.0
N4400G2X60.513Y50.697I0.000J-0.500F500.0
N4410G2X60.013Y50.197I-0.500J0.000
N4420G2X59.513Y50.697I0.000J0.500
N4430G2X60.013Y51.197I0.500J0.000
N4440G01Z-2.631F6.0
N4450G2X60.513Y50.697I0.000J-0.500F500.0
N4460G2X60.013Y50.197I-0.500J0.000
N4470G2X59.513Y50.697I0.000J0.500
N4480G2X60.013Y51.197I0.500J0.000
N4490G01Z-2.661F6.0
N4500G2X60.513Y50.697I0.000J-0.500F500.0
N4510G2X60.013Y50.197I-0.500J0.000
N4520G2X59.513Y50.697I0.000J0.500
N4530G2X60.013Y51.197I0.500J0.000
N4540G01Z-2.691F6.0
N4550G2X60.513Y50.697I0.000J-0.500F500.0
N4560G2X60.013Y50.197I-0.500J0.000
N4570G2X59.513Y50.697I0.000J0.500
N4580G2X60.013Y51.197I0.500J0.000
N4590G01Z-2.721F6.0
N4600G2X60.513Y50.697I0.000J-0.500F500.0
N4610G2X60.013Y50.197I-0.500J0.000
N4620G2X59.513Y50.697I0.000J0.500
N4630G2X60.013Y51.197I0.500J0.000
N4640G01Z-2.751F6.0
N4650G2X60.513Y50.697I0.000J-0.500F500.0
N4660G2X60.013Y50.197I-0.500J0.000
N4670G2X59.513Y50.697I0.000J0.500
N4680G2X60.013Y51.197I0.500J0.000
N4690G01Z-2.781F6.0
N4700G2X60.513Y50.697I0.000J-0.500F500.0
N4710G2X60.013Y50.197I-0.500J0.000
N4720G2X59.513Y50.697I0.000J0.500
N4730G2X60.013Y51.197I0.500J0.000
N4740G01Z-2.811F6.0
N4750G2X60.513Y50.697I0.000J-0.500F500.0
N4760G2X60.013Y50.197I-0.500J0.000
N4770G2X59.513Y50.697I0.000J0.500
N4780G2X60.013Y51.197I0.500J0.000
N4790G01Z-2.841F6.0
N4800G2X60.513Y50.697I0.000J-0.500F500.0
N4810G2X60.013Y50.197I-0.500J0.000
N4820G2X59.513Y50.697I0.000J0.500
N4830G2X60.013Y51.197I0.500J0.000
N4840G01Z-2.871F6.0
N4850G2X60.513Y50.697I0.000J-0.500F500.0
N4860G2X60.013Y50.197I-0.500J0.000
N4870G2X59.513Y50.697I0.000J0.500
N4880G2X60.013Y51.197I0.500J0.000
N4890G01Z-2.900F6.0
N4900G2X60.513Y50.697I0.000J-0.500F500.0
N4910G2X60.013Y50.197I-0.500J0.000
N4920G2X59.513Y50.697I0.000J0.500
N4930G2X60.013Y51.197I0.500J0.000
N4940G01Z-2.930F6.0
N4950G2X60.513Y50.697I0.000J-0.500F500.0
N4960G2X60.013Y50.197I-0.500J0.000
N4970G2X59.513Y50.697I0.000J0.500
N4980G2X60.013Y51.197I0.500J0.000
N4990G01Z-2.960F6.0
N5000G2X60.513Y50.697I0.000J-0.500F500.0
N5010G2X60.013Y50.197I-0.500J0.000
N5020G2X59.513Y50.697I0.000J0.500
N5030G2X60.013Y51.197I0.500J0.000
N5040G01Z-2.990F6.0
N5050G2X60.513Y50.697I0.000J-0.500F500.0
N5060G2X60.013Y50.197I-0.500J0.000
N5070G2X59.513Y50.697I0.000J0.500
N5080G2X60.013Y51.197I0.500J0.000
N5090G01Z-3.020F6.0
N5100G2X60.513Y50.697I0.000J-0.500F500.0
N5110G2X60.013Y50.197I-0.500J0.000
N5120G2X59.513Y50.697I0.000J0.500
N5130G2X60.013Y51.197I0.500J0.000
N5140G01Z-3.050F6.0
N5150G2X60.513Y50.697I0.000J-0.500F500.0
N5160G2X60.013Y50.197I-0.500J0.000
N5170G2X59.513Y50.697I0.000J0.500
N5180G2X60.013Y51.197I0.500J0.000
N5190G00Z6.000
N5200G00X70.013
N5210G01Z-0.030F6.0
N5220G2X70.513Y50.697I0.000J-0.500F500.0
N5230G2X70.013Y50.197I-0.500J0.000
N5240G2X69.513Y50.697I0.000J0.500
N5250G2X70.013Y51.197I0.500J0.000
N5260G01Z-0.060F6.0
N5270G2X70.513Y50.697I0.000J-0.500F500.0
N5280G2X70.013Y50.197I-0.500J0.000
N5290G2X69.513Y50.697I0.000J0.500
N5300G2X70.013Y51.197I0.500J0.000
N5310G01Z-0.090F6.0
N5320G2X70.513Y50.697I0.000J-0.500F500.0
N5330G2X70.013Y50.197I-0.500J0.000
N5340G2X69.513Y50.697I0.000J0.500
N5350G2X70.013Y51.197I0.500J0.000
N5360G01Z-0.120F6.0
N5370G2X70.513Y50.697I0.000J-0.500F500.0
N5380G2X70.013Y50.197I-0.500J0.000
N5390G2X69.513Y50.697I0.000J0.500
N5400G2X70.013Y51.197I0.500J0.000
N5410G01Z-0.150F6.0
N5420G2X70.513Y50.697I0.000J-0.500F500.0
N5430G2X70.013Y50.197I-0.500J0.000
N5440G2X69.513Y50.697I0.000J0.500
N5450G2X70.013Y51.197I0.500J0.000
N5460G01Z-0.179F6.0
N5470G2X70.513Y50.697I0.000J-0.500F500.0
N5480G2X70.013Y50.197I-0.500J0.000
N5490G2X69.513Y50.697I0.000J0.500
N5500G2X70.013Y51.197I0.500J0.000
N5510G01Z-0.209F6.0
N5520G2X70.513Y50.697I0.000J-0.500F500.0
N5530G2X70.013Y50.197I-0.500J0.000
N5540G2X69.513Y50.697I0.000J0.500
N5550G2X70.013Y51.197I0.500J0.000
N5560G01Z-0.239F6.0
N5570G2X70.513Y50.697I0.000J-0.500F500.0
N5580G2X70.013Y50.197I-0.500J0.000
N5590G2X69.513Y50.697I0.000J0.500
N5600G2X70.013Y51.197I0.500J0.000
N5610G01Z-0.269F6.0
N5620G2X70.513Y50.697I0.000J-0.500F500.0
N5630G2X70.013Y50.197I-0.500J0.000
N5640G2X69.513Y50.697I0.000J0.500
N5650G2X70.013Y51.197I0.500J0.000
N5660G01Z-0.299F6.0
N5670G2X70.513Y50.697I0.000J-0.500F500.0
N5680G2X70.013Y50.197I-0.500J0.000
N5690G2X69.513Y50.697I0.000J0.500
N5700G2X70.013Y51.197I0.500J0.000
N5710G01Z-0.329F6.0
N5720G2X70.513Y50.697I0.000J-0.500F500.0
N5730G2X70.013Y50.197I-0.500J0.000
N5740G2X69.513Y50.697I0.000J0.500
N5750G2X70.013Y51.197I0.500J0.000
N5760G01Z-0.359F6.0
N5770G2X70.513Y50.697I0.000J-0.500F500.0
N5780G2X70.013Y50.197I-0.500J0.000
N5790G2X69.513Y50.697I0.000J0.500
N5800G2X70.013Y51.197I0.500J0.000
N5810G01Z-0.389F6.0
N5820G2X70.513Y50.697I0.000J-0.500F500.0
N5830G2X70.013Y50.197I-0.500J0.000
N5840G2X69.513Y50.697I0.000J0.500
N5850G2X70.013Y51.197I0.500J0.000
N5860G01Z-0.419F6.0
N5870G2X70.513Y50.697I0.000J-0.500F500.0
N5880G2X70.013Y50.197I-0.500J0.000
N5890G2X69.513Y50.697I0.000J0.500
N5900G2X70.013Y51.197I0.500J0.000
N5910G01Z-0.449F6.0
N5920G2X70.513Y50.697I0.000J-0.500F500.0
N5930G2X70.013Y50.197I-0.500J0.000
N5940G2X69.513Y50.697I0.000J0.500
N5950G2X70.013Y51.197I0.500J0.000
N5960G01Z-0.478F6.0
N5970G2X70.513Y50.697I0.000J-0.500F500.0
N5980G2X70.013Y50.197I-0.500J0.000
N5990G2X69.513Y50.697I0.000J0.500
N6000G2X70.013Y51.197I0.500J0.000
N6010G01Z-0.508F6.0
N6020G2X70.513Y50.697I0.000J-0.500F500.0
N6030G2X70.013Y50.197I-0.500J0.000
N6040G2X69.513Y50.697I0.000J0.500
N6050G2X70.013Y51.197I0.500J0.000
N6060G01Z-0.538F6.0
N6070G2X70.513Y50.697I0.000J-0.500F500.0
N6080G2X70.013Y50.197I-0.500J0.000
N6090G2X69.513Y50.697I0.000J0.500
N6100G2X70.013Y51.197I0.500J0.000
N6110G01Z-0.568F6.0
N6120G2X70.513Y50.697I0.000J-0.500F500.0
N6130G2X70.013Y50.197I-0.500J0.000
N6140G2X69.513Y50.697I0.000J0.500
N6150G2X70.013Y51.197I0.500J0.000
N6160G01Z-0.598F6.0
N6170G2X70.513Y50.697I0.000J-0.500F500.0
N6180G2X70.013Y50.197I-0.500J0.000
N6190G2X69.513Y50.697I0.000J0.500
N6200G2X70.013Y51.197I0.500J0.000
N6210G01Z-0.628F6.0
N6220G2X70.513Y50.697I0.000J-0.500F500.0
N6230G2X70.013Y50.197I-0.500J0.000
N6240G2X69.513Y50.697I0.000J0.500
N6250G2X70.013Y51.197I0.500J0.000
N6260G01Z-0.658F6.0
N6270G2X70.513Y50.697I0.000J-0.500F500.0
N6280G2X70.013Y50.197I-0.500J0.000
N6290G2X69.513Y50.697I0.000J0.500
N6300G2X70.013Y51.197I0.500J0.000
N6310G01Z-0.688F6.0
N6320G2X70.513Y50.697I0.000J-0.500F500.0
N6330G2X70.013Y50.197I-0.500J0.000
N6340G2X69.513Y50.697I0.000J0.500
N6350G2X70.013Y51.197I0.500J0.000
N6360G01Z-0.718F6.0
N6370G2X70.513Y50.697I0.000J-0.500F500.0
N6380G2X70.013Y50.197I-0.500J0.000
N6390G2X69.513Y50.697I0.000J0.500
N6400G2X70.013Y51.197I0.500J0.000
N6410G01Z-0.748F6.0
N6420G2X70.513Y50.697I0.000J-0.500F500.0
N6430G2X70.013Y50.197I-0.500J0.000
N6440G2X69.513Y50.697I0.000J0.500
N6450G2X70.013Y51.197I0.500J0.000
N6460G01Z-0.777F6.0
N6470G2X70.513Y50.697I0.000J-0.500F500.0
N6480G2X70.013Y50.197I-0.500J0.000
N6490G2X69.513Y50.697I0.000J0.500
N6500G2X70.013Y51.197I0.500J0.000
N6510G01Z-0.807F6.0
N6520G2X70.513Y50.697I0.000J-0.500F500.0
N6530G2X70.013Y50.197I-0.500J0.000
N6540G2X69.513Y50.697I0.000J0.500
N6550G2X70.013Y51.197I0.500J0.000
N6560G01Z-0.837F6.0
N6570G2X70.513Y50.697I0.000J-0.500F500.0
N6580G2X70.013Y50.197I-0.500J0.000
N6590G2X69.513Y50.697I0.000J0.500
N6600G2X70.013Y51.197I0.500J0.000
N6610G01Z-0.867F6.0
N6620G2X70.513Y50.697I0.000J-0.500F500.0
N6630G2X70.013Y50.197I-0.500J0.000
N6640G2X69.513Y50.697I0.000J0.500
N6650G2X70.013Y51.197I0.500J0.000
N6660G01Z-0.897F6.0
N6670G2X70.513Y50.697I0.000J-0.500F500.0
N6680G2X70.013Y50.197I-0.500J0.000
N6690G2X69.513Y50.697I0.000J0.500
N6700G2X70.013Y51.197I0.500J0.000
N6710G01Z-0.927F6.0
N6720G2X70.513Y50.697I0.000J-0.500F500.0
N6730G2X70.013Y50.197I-0.500J0.000
N6740G2X69.513Y50.697I0.000J0.500
N6750G2X70.013Y51.197I0.500J0.000
N6760G01Z-0.957F6.0
N6770G2X70.513Y50.697I0.000J-0.500F500.0
N6780G2X70.013Y50.197I-0.500J0.000
N6790G2X69.513Y50.697I0.000J0.500
N6800G2X70.013Y51.197I0.500J0.000
N6810G01Z-0.987F6.0
N6820G2X70.513Y50.697I0.000J-0.500F500.0
N6830G2X70.013Y50.197I-0.500J0.000
N6840G2X69.513Y50.697I0.000J0.500
N6850G2X70.013Y51.197I0.500J0.000
N6860G01Z-1.017F6.0
N6870G2X70.513Y50.697I0.000J-0.500F500.0
N6880G2X70.013Y50.197I-0.500J0.000
N6890G2X69.513Y50.697I0.000J0.500
N6900G2X70.013Y51.197I0.500J0.000
N6910G01Z-1.047F6.0
N6920G2X70.513Y50.697I0.000J-0.500F500.0
N6930G2X70.013Y50.197I-0.500J0.000
N6940G2X69.513Y50.697I0.000J0.500
N6950G2X70.013Y51.197I0.500J0.000
N6960G01Z-1.076F6.0
N6970G2X70.513Y50.697I0.000J-0.500F500.0
N6980G2X70.013Y50.197I-0.500J0.000
N6990G2X69.513Y50.697I0.000J0.500
N7000G2X70.013Y51.197I0.500J0.000
N7010G01Z-1.106F6.0
N7020G2X70.513Y50.697I0.000J-0.500F500.0
N7030G2X70.013Y50.197I-0.500J0.000
N7040G2X69.513Y50.697I0.000J0.500
N7050G2X70.013Y51.197I0.500J0.000
N7060G01Z-1.136F6.0
N7070G2X70.513Y50.697I0.000J-0.500F500.0
N7080G2X70.013Y50.197I-0.500J0.000
N7090G2X69.513Y50.697I0.000J0.500
N7100G2X70.013Y51.197I0.500J0.000
N7110G01Z-1.166F6.0
N7120G2X70.513Y50.697I0.000J-0.500F500.0
N7130G2X70.013Y50.197I-0.500J0.000
N7140G2X69.513Y50.697I0.000J0.500
N7150G2X70.013Y51.197I0.500J0.000
N7160G01Z-1.196F6.0
N7170G2X70.513Y50.697I0.000J-0.500F500.0
N7180G2X70.013Y50.197I-0.500J0.000
N7190G2X69.513Y50.697I0.000J0.500
N7200G2X70.013Y51.197I0.500J0.000
N7210G01Z-1.226F6.0
N7220G2X70.513Y50.697I0.000J-0.500F500.0
N7230G2X70.013Y50.197I-0.500J0.000
N7240G2X69.513Y50.697I0.000J0.500
N7250G2X70.013Y51.197I0.500J0.000
N7260G01Z-1.256F6.0
N7270G2X70.513Y50.697I0.000J-0.500F500.0
N7280G2X70.013Y50.197I-0.500J0.000
N7290G2X69.513Y50.697I0.000J0.500
N7300G2X70.013Y51.197I0.500J0.000
N7310G01Z-1.286F6.0
N7320G2X70.513Y50.697I0.000J-0.500F500.0
N7330G2X70.013Y50.197I-0.500J0.000
N7340G2X69.513Y50.697I0.000J0.500
N7350G2X70.013Y51.197I0.500J0.000
N7360G01Z-1.316F6.0
N7370G2X70.513Y50.697I0.000J-0.500F500.0
N7380G2X70.013Y50.197I-0.500J0.000
N7390G2X69.513Y50.697I0.000J0.500
N7400G2X70.013Y51.197I0.500J0.000
N7410G01Z-1.346F6.0
N7420G2X70.513Y50.697I0.000J-0.500F500.0
N7430G2X70.013Y50.197I-0.500J0.000
N7440G2X69.513Y50.697I0.000J0.500
N7450G2X70.013Y51.197I0.500J0.000
N7460G01Z-1.375F6.0
N7470G2X70.513Y50.697I0.000J-0.500F500.0
N7480G2X70.013Y50.197I-0.500J0.000
N7490G2X69.513Y50.697I0.000J0.500
N7500G2X70.013Y51.197I0.500J0.000
N7510G01Z-1.405F6.0
N7520G2X70.513Y50.697I0.000J-0.500F500.0
N7530G2X70.013Y50.197I-0.500J0.000
N7540G2X69.513Y50.697I0.000J0.500
N7550G2X70.013Y51.197I0.500J0.000
N7560G01Z-1.435F6.0
N7570G2X70.513Y50.697I0.000J-0.500F500.0
N7580G2X70.013Y50.197I-0.500J0.000
N7590G2X69.513Y50.697I0.000J0.500
N7600G2X70.013Y51.197I0.500J0.000
N7610G01Z-1.465F6.0
N7620G2X70.513Y50.697I0.000J-0.500F500.0
N7630G2X70.013Y50.197I-0.500J0.000
N7640G2X69.513Y50.697I0.000J0.500
N7650G2X70.013Y51.197I0.500J0.000
N7660G01Z-1.495F6.0
N7670G2X70.513Y50.697I0.000J-0.500F500.0
N7680G2X70.013Y50.197I-0.500J0.000
N7690G2X69.513Y50.697I0.000J0.500
N7700G2X70.013Y51.197I0.500J0.000
N7710G01Z-1.525F6.0
N7720G2X70.513Y50.697I0.000J-0.500F500.0
N7730G2X70.013Y50.197I-0.500J0.000
N7740G2X69.513Y50.697I0.000J0.500
N7750G2X70.013Y51.197I0.500J0.000
N7760G01Z-1.555F6.0
N7770G2X70.513Y50.697I0.000J-0.500F500.0
N7780G2X70.013Y50.197I-0.500J0.000
N7790G2X69.513Y50.697I0.000J0.500
N7800G2X70.013Y51.197I0.500J0.000
N7810G01Z-1.585F6.0
N7820G2X70.513Y50.697I0.000J-0.500F500.0
N7830G2X70.013Y50.197I-0.500J0.000
N7840G2X69.513Y50.697I0.000J0.500
N7850G2X70.013Y51.197I0.500J0.000
N7860G01Z-1.615F6.0
N7870G2X70.513Y50.697I0.000J-0.500F500.0
N7880G2X70.013Y50.197I-0.500J0.000
N7890G2X69.513Y50.697I0.000J0.500
N7900G2X70.013Y51.197I0.500J0.000
N7910G01Z-1.645F6.0
N7920G2X70.513Y50.697I0.000J-0.500F500.0
N7930G2X70.013Y50.197I-0.500J0.000
N7940G2X69.513Y50.697I0.000J0.500
N7950G2X70.013Y51.197I0.500J0.000
N7960G01Z-1.675F6.0
N7970G2X70.513Y50.697I0.000J-0.500F500.0
N7980G2X70.013Y50.197I-0.500J0.000
N7990G2X69.513Y50.697I0.000J0.500
N8000G2X70.013Y51.197I0.500J0.000
N8010G01Z-1.704F6.0
N8020G2X70.513Y50.697I0.000J-0.500F500.0
N8030G2X70.013Y50.197I-0.500J0.000
N8040G2X69.513Y50.697I0.000J0.500
N8050G2X70.013Y51.197I0.500J0.000
N8060G01Z-1.734F6.0
N8070G2X70.513Y50.697I0.000J-0.500F500.0
N8080G2X70.013Y50.197I-0.500J0.000
N8090G2X69.513Y50.697I0.000J0.500
N8100G2X70.013Y51.197I0.500J0.000
N8110G01Z-1.764F6.0
N8120G2X70.513Y50.697I0.000J-0.500F500.0
N8130G2X70.013Y50.197I-0.500J0.000
N8140G2X69.513Y50.697I0.000J0.500
N8150G2X70.013Y51.197I0.500J0.000
N8160G01Z-1.794F6.0
N8170G2X70.513Y50.697I0.000J-0.500F500.0
N8180G2X70.013Y50.197I-0.500J0.000
N8190G2X69.513Y50.697I0.000J0.500
N8200G2X70.013Y51.197I0.500J0.000
N8210G01Z-1.824F6.0
N8220G2X70.513Y50.697I0.000J-0.500F500.0
N8230G2X70.013Y50.197I-0.500J0.000
N8240G2X69.513Y50.697I0.000J0.500
N8250G2X70.013Y51.197I0.500J0.000
N8260G01Z-1.854F6.0
N8270G2X70.513Y50.697I0.000J-0.500F500.0
N8280G2X70.013Y50.197I-0.500J0.000
N8290G2X69.513Y50.697I0.000J0.500
N8300G2X70.013Y51.197I0.500J0.000
N8310G01Z-1.884F6.0
N8320G2X70.513Y50.697I0.000J-0.500F500.0
N8330G2X70.013Y50.197I-0.500J0.000
N8340G2X69.513Y50.697I0.000J0.500
N8350G2X70.013Y51.197I0.500J0.000
N8360G01Z-1.914F6.0
N8370G2X70.513Y50.697I0.000J-0.500F500.0
N8380G2X70.013Y50.197I-0.500J0.000
N8390G2X69.513Y50.697I0.000J0.500
N8400G2X70.013Y51.197I0.500J0.000
N8410G01Z-1.944F6.0
N8420G2X70.513Y50.697I0.000J-0.500F500.0
N8430G2X70.013Y50.197I-0.500J0.000
N8440G2X69.513Y50.697I0.000J0.500
N8450G2X70.013Y51.197I0.500J0.000
N8460G01Z-1.974F6.0
N8470G2X70.513Y50.697I0.000J-0.500F500.0
N8480G2X70.013Y50.197I-0.500J0.000
N8490G2X69.513Y50.697I0.000J0.500
N8500G2X70.013Y51.197I0.500J0.000
N8510G01Z-2.003F6.0
N8520G2X70.513Y50.697I0.000J-0.500F500.0
N8530G2X70.013Y50.197I-0.500J0.000
N8540G2X69.513Y50.697I0.000J0.500
N8550G2X70.013Y51.197I0.500J0.000
N8560G01Z-2.033F6.0
N8570G2X70.513Y50.697I0.000J-0.500F500.0
N8580G2X70.013Y50.197I-0.500J0.000
N8590G2X69.513Y50.697I0.000J0.500
N8600G2X70.013Y51.197I0.500J0.000
N8610G01Z-2.063F6.0
N8620G2X70.513Y50.697I0.000J-0.500F500.0
N8630G2X70.013Y50.197I-0.500J0.000
N8640G2X69.513Y50.697I0.000J0.500
N8650G2X70.013Y51.197I0.500J0.000
N8660G01Z-2.093F6.0
N8670G2X70.513Y50.697I0.000J-0.500F500.0
N8680G2X70.013Y50.197I-0.500J0.000
N8690G2X69.513Y50.697I0.000J0.500
N8700G2X70.013Y51.197I0.500J0.000
N8710G01Z-2.123F6.0
N8720G2X70.513Y50.697I0.000J-0.500F500.0
N8730G2X70.013Y50.197I-0.500J0.000
N8740G2X69.513Y50.697I0.000J0.500
N8750G2X70.013Y51.197I0.500J0.000
N8760G01Z-2.153F6.0
N8770G2X70.513Y50.697I0.000J-0.500F500.0
N8780G2X70.013Y50.197I-0.500J0.000
N8790G2X69.513Y50.697I0.000J0.500
N8800G2X70.013Y51.197I0.500J0.000
N8810G01Z-2.183F6.0
N8820G2X70.513Y50.697I0.000J-0.500F500.0
N8830G2X70.013Y50.197I-0.500J0.000
N8840G2X69.513Y50.697I0.000J0.500
N8850G2X70.013Y51.197I0.500J0.000
N8860G01Z-2.213F6.0
N8870G2X70.513Y50.697I0.000J-0.500F500.0
N8880G2X70.013Y50.197I-0.500J0.000
N8890G2X69.513Y50.697I0.000J0.500
N8900G2X70.013Y51.197I0.500J0.000
N8910G01Z-2.243F6.0
N8920G2X70.513Y50.697I0.000J-0.500F500.0
N8930G2X70.013Y50.197I-0.500J0.000
N8940G2X69.513Y50.697I0.000J0.500
N8950G2X70.013Y51.197I0.500J0.000
N8960G01Z-2.273F6.0
N8970G2X70.513Y50.697I0.000J-0.500F500.0
N8980G2X70.013Y50.197I-0.500J0.000
N8990G2X69.513Y50.697I0.000J0.500
N9000G2X70.013Y51.197I0.500J0.000
N9010G01Z-2.302F6.0
N9020G2X70.513Y50.697I0.000J-0.500F500.0
N9030G2X70.013Y50.197I-0.500J0.000
N9040G2X69.513Y50.697I0.000J0.500
N9050G2X70.013Y51.197I0.500J0.000
N9060G01Z-2.332F6.0
N9070G2X70.513Y50.697I0.000J-0.500F500.0
N9080G2X70.013Y50.197I-0.500J0.000
N9090G2X69.513Y50.697I0.000J0.500
N9100G2X70.013Y51.197I0.500J0.000
N9110G01Z-2.362F6.0
N9120G2X70.513Y50.697I0.000J-0.500F500.0
N9130G2X70.013Y50.197I-0.500J0.000
N9140G2X69.513Y50.697I0.000J0.500
N9150G2X70.013Y51.197I0.500J0.000
N9160G01Z-2.392F6.0
N9170G2X70.513Y50.697I0.000J-0.500F500.0
N9180G2X70.013Y50.197I-0.500J0.000
N9190G2X69.513Y50.697I0.000J0.500
N9200G2X70.013Y51.197I0.500J0.000
N9210G01Z-2.422F6.0
N9220G2X70.513Y50.697I0.000J-0.500F500.0
N9230G2X70.013Y50.197I-0.500J0.000
N9240G2X69.513Y50.697I0.000J0.500
N9250G2X70.013Y51.197I0.500J0.000
N9260G01Z-2.452F6.0
N9270G2X70.513Y50.697I0.000J-0.500F500.0
N9280G2X70.013Y50.197I-0.500J0.000
N9290G2X69.513Y50.697I0.000J0.500
N9300G2X70.013Y51.197I0.500J0.000
N9310G01Z-2.482F6.0
N9320G2X70.513Y50.697I0.000J-0.500F500.0
N9330G2X70.013Y50.197I-0.500J0.000
N9340G2X69.513Y50.697I0.000J0.500
N9350G2X70.013Y51.197I0.500J0.000
N9360G01Z-2.512F6.0
N9370G2X70.513Y50.697I0.000J-0.500F500.0
N9380G2X70.013Y50.197I-0.500J0.000
N9390G2X69.513Y50.697I0.000J0.500
N9400G2X70.013Y51.197I0.500J0.000
N9410G01Z-2.542F6.0
N9420G2X70.513Y50.697I0.000J-0.500F500.0
N9430G2X70.013Y50.197I-0.500J0.000
N9440G2X69.513Y50.697I0.000J0.500
N9450G2X70.013Y51.197I0.500J0.000
N9460G01Z-2.572F6.0
N9470G2X70.513Y50.697I0.000J-0.500F500.0
N9480G2X70.013Y50.197I-0.500J0.000
N9490G2X69.513Y50.697I0.000J0.500
N9500G2X70.013Y51.197I0.500J0.000
N9510G01Z-2.601F6.0
N9520G2X70.513Y50.697I0.000J-0.500F500.0
N9530G2X70.013Y50.197I-0.500J0.000
N9540G2X69.513Y50.697I0.000J0.500
N9550G2X70.013Y51.197I0.500J0.000
N9560G01Z-2.631F6.0
N9570G2X70.513Y50.697I0.000J-0.500F500.0
N9580G2X70.013Y50.197I-0.500J0.000
N9590G2X69.513Y50.697I0.000J0.500
N9600G2X70.013Y51.197I0.500J0.000
N9610G01Z-2.661F6.0
N9620G2X70.513Y50.697I0.000J-0.500F500.0
N9630G2X70.013Y50.197I-0.500J0.000
N9640G2X69.513Y50.697I0.000J0.500
N9650G2X70.013Y51.197I0.500J0.000
N9660G01Z-2.691F6.0
N9670G2X70.513Y50.697I0.000J-0.500F500.0
N9680G2X70.013Y50.197I-0.500J0.000
N9690G2X69.513Y50.697I0.000J0.500
N9700G2X70.013Y51.197I0.500J0.000
N9710G01Z-2.721F6.0
N9720G2X70.513Y50.697I0.000J-0.500F500.0
N9730G2X70.013Y50.197I-0.500J0.000
N9740G2X69.513Y50.697I0.000J0.500
N9750G2X70.013Y51.197I0.500J0.000
N9760G01Z-2.751F6.0
N9770G2X70.513Y50.697I0.000J-0.500F500.0
N9780G2X70.013Y50.197I-0.500J0.000
N9790G2X69.513Y50.697I0.000J0.500
N9800G2X70.013Y51.197I0.500J0.000
N9810G01Z-2.781F6.0
N9820G2X70.513Y50.697I0.000J-0.500F500.0
N9830G2X70.013Y50.197I-0.500J0.000
N9840G2X69.513Y50.697I0.000J0.500
N9850G2X70.013Y51.197I0.500J0.000
N9860G01Z-2.811F6.0
N9870G2X70.513Y50.697I0.000J-0.500F500.0
N9880G2X70.013Y50.197I-0.500J0.000
N9890G2X69.513Y50.697I0.000J0.500
N9900G2X70.013Y51.197I0.500J0.000
N9910G01Z-2.841F6.0
N9920G2X70.513Y50.697I0.000J-0.500F500.0
N9930G2X70.013Y50.197I-0.500J0.000
N9940G2X69.513Y50.697I0.000J0.500
N9950G2X70.013Y51.197I0.500J0.000
N9960G01Z-2.871F6.0
N9970G2X70.513Y50.697I0.000J-0.500F500.0
N9980G2X70.013Y50.197I-0.500J0.000
N9990G2X69.513Y50.697I0.000J0.500
N10000G2X70.013Y51.197I0.500J0.000
N10010G01Z-2.900F6.0
N10020G2X70.513Y50.697I0.000J-0.500F500.0
N10030G2X70.013Y50.197I-0.500J0.000
N10040G2X69.513Y50.697I0.000J0.500
N10050G2X70.013Y51.197I0.500J0.000
N10060G01Z-2.930F6.0
N10070G2X70.513Y50.697I0.000J-0.500F500.0
N10080G2X70.013Y50.197I-0.500J0.000
N10090G2X69.513Y50.697I0.000J0.500
N10100G2X70.013Y51.197I0.500J0.000
N10110G01Z-2.960F6.0
N10120G2X70.513Y50.697I0.000J-0.500F500.0
N10130G2X70.013Y50.197I-0.500J0.000
N10140G2X69.513Y50.697I0.000J0.500
N10150G2X70.013Y51.197I0.500J0.000
N10160G01Z-2.990F6.0
N10170G2X70.513Y50.697I0.000J-0.500F500.0
N10180G2X70.013Y50.197I-0.500J0.000
N10190G2X69.513Y50.697I0.000J0.500
N10200G2X70.013Y51.197I0.500J0.000
N10210G01Z-3.020F6.0
N10220G2X70.513Y50.697I0.000J-0.500F500.0
N10230G2X70.013Y50.197I-0.500J0.000
N10240G2X69.513Y50.697I0.000J0.500
N10250G2X70.013Y51.197I0.500J0.000
N10260G01Z-3.050F6.0
N10270G2X70.513Y50.697I0.000J-0.500F500.0
N10280G2X70.013Y50.197I-0.500J0.000
N10290G2X69.513Y50.697I0.000J0.500
N10300G2X70.013Y51.197I0.500J0.000
N10310G00Z6.000
N10320G00X80.013
N10330G01Z-0.030F6.0
N10340G2X80.513Y50.697I0.000J-0.500F500.0
N10350G2X80.013Y50.197I-0.500J0.000
N10360G2X79.513Y50.697I0.000J0.500
N10370G2X80.013Y51.197I0.500J0.000
N10380G01Z-0.060F6.0
N10390G2X80.513Y50.697I0.000J-0.500F500.0
N10400G2X80.013Y50.197I-0.500J0.000
N10410G2X79.513Y50.697I0.000J0.500
N10420G2X80.013Y51.197I0.500J0.000
N10430G01Z-0.090F6.0
N10440G2X80.513Y50.697I0.000J-0.500F500.0
N10450G2X80.013Y50.197I-0.500J0.000
N10460G2X79.513Y50.697I0.000J0.500
N10470G2X80.013Y51.197I0.500J0.000
N10480G01Z-0.120F6.0
N10490G2X80.513Y50.697I0.000J-0.500F500.0
N10500G2X80.013Y50.197I-0.500J0.000
N10510G2X79.513Y50.697I0.000J0.500
N10520G2X80.013Y51.197I0.500J0.000
N10530G01Z-0.150F6.0
N10540G2X80.513Y50.697I0.000J-0.500F500.0
N10550G2X80.013Y50.197I-0.500J0.000
N10560G2X79.513Y50.697I0.000J0.500
N10570G2X80.013Y51.197I0.500J0.000
N10580G01Z-0.179F6.0
N10590G2X80.513Y50.697I0.000J-0.500F500.0
N10600G2X80.013Y50.197I-0.500J0.000
N10610G2X79.513Y50.697I0.000J0.500
N10620G2X80.013Y51.197I0.500J0.000
N10630G01Z-0.209F6.0
N10640G2X80.513Y50.697I0.000J-0.500F500.0
N10650G2X80.013Y50.197I-0.500J0.000
N10660G2X79.513Y50.697I0.000J0.500
N10670G2X80.013Y51.197I0.500J0.000
N10680G01Z-0.239F6.0
N10690G2X80.513Y50.697I0.000J-0.500F500.0
N10700G2X80.013Y50.197I-0.500J0.000
N10710G2X79.513Y50.697I0.000J0.500
N10720G2X80.013Y51.197I0.500J0.000
N10730G01Z-0.269F6.0
N10740G2X80.513Y50.697I0.000J-0.500F500.0
N10750G2X80.013Y50.197I-0.500J0.000
N10760G2X79.513Y50.697I0.000J0.500
N10770G2X80.013Y51.197I0.500J0.000
N10780G01Z-0.299F6.0
N10790G2X80.513Y50.697I0.000J-0.500F500.0
N10800G2X80.013Y50.197I-0.500J0.000
N10810G2X79.513Y50.697I0.000J0.500
N10820G2X80.013Y51.197I0.500J0.000
N10830G01Z-0.329F6.0
N10840G2X80.513Y50.697I0.000J-0.500F500.0
N10850G2X80.013Y50.197I-0.500J0.000
N10860G2X79.513Y50.697I0.000J0.500
N10870G2X80.013Y51.197I0.500J0.000
N10880G01Z-0.359F6.0
N10890G2X80.513Y50.697I0.000J-0.500F500.0
N10900G2X80.013Y50.197I-0.500J0.000
N10910G2X79.513Y50.697I0.000J0.500
N10920G2X80.013Y51.197I0.500J0.000
N10930G01Z-0.389F6.0
N10940G2X80.513Y50.697I0.000J-0.500F500.0
N10950G2X80.013Y50.197I-0.500J0.000
N10960G2X79.513Y50.697I0.000J0.500
N10970G2X80.013Y51.197I0.500J0.000
N10980G01Z-0.419F6.0
N10990G2X80.513Y50.697I0.000J-0.500F500.0
N11000G2X80.013Y50.197I-0.500J0.000
N11010G2X79.513Y50.697I0.000J0.500
N11020G2X80.013Y51.197I0.500J0.000
N11030G01Z-0.449F6.0
N11040G2X80.513Y50.697I0.000J-0.500F500.0
N11050G2X80.013Y50.197I-0.500J0.000
N11060G2X79.513Y50.697I0.000J0.500
N11070G2X80.013Y51.197I0.500J0.000
N11080G01Z-0.478F6.0
N11090G2X80.513Y50.697I0.000J-0.500F500.0
N11100G2X80.013Y50.197I-0.500J0.000
N11110G2X79.513Y50.697I0.000J0.500
N11120G2X80.013Y51.197I0.500J0.000
N11130G01Z-0.508F6.0
N11140G2X80.513Y50.697I0.000J-0.500F500.0
N11150G2X80.013Y50.197I-0.500J0.000
N11160G2X79.513Y50.697I0.000J0.500
N11170G2X80.013Y51.197I0.500J0.000
N11180G01Z-0.538F6.0
N11190G2X80.513Y50.697I0.000J-0.500F500.0
N11200G2X80.013Y50.197I-0.500J0.000
N11210G2X79.513Y50.697I0.000J0.500
N11220G2X80.013Y51.197I0.500J0.000
N11230G01Z-0.568F6.0
N11240G2X80.513Y50.697I0.000J-0.500F500.0
N11250G2X80.013Y50.197I-0.500J0.000
N11260G2X79.513Y50.697I0.000J0.500
N11270G2X80.013Y51.197I0.500J0.000
N11280G01Z-0.598F6.0
N11290G2X80.513Y50.697I0.000J-0.500F500.0
N11300G2X80.013Y50.197I-0.500J0.000
N11310G2X79.513Y50.697I0.000J0.500
N11320G2X80.013Y51.197I0.500J0.000
N11330G01Z-0.628F6.0
N11340G2X80.513Y50.697I0.000J-0.500F500.0
N11350G2X80.013Y50.197I-0.500J0.000
N11360G2X79.513Y50.697I0.000J0.500
N11370G2X80.013Y51.197I0.500J0.000
N11380G01Z-0.658F6.0
N11390G2X80.513Y50.697I0.000J-0.500F500.0
N11400G2X80.013Y50.197I-0.500J0.000
N11410G2X79.513Y50.697I0.000J0.500
N11420G2X80.013Y51.197I0.500J0.000
N11430G01Z-0.688F6.0
N11440G2X80.513Y50.697I0.000J-0.500F500.0
N11450G2X80.013Y50.197I-0.500J0.000
N11460G2X79.513Y50.697I0.000J0.500
N11470G2X80.013Y51.197I0.500J0.000
N11480G01Z-0.718F6.0
N11490G2X80.513Y50.697I0.000J-0.500F500.0
N11500G2X80.013Y50.197I-0.500J0.000
N11510G2X79.513Y50.697I0.000J0.500
N11520G2X80.013Y51.197I0.500J0.000
N11530G01Z-0.748F6.0
N11540G2X80.513Y50.697I0.000J-0.500F500.0
N11550G2X80.013Y50.197I-0.500J0.000
N11560G2X79.513Y50.697I0.000J0.500
N11570G2X80.013Y51.197I0.500J0.000
N11580G01Z-0.777F6.0
N11590G2X80.513Y50.697I0.000J-0.500F500.0
N11600G2X80.013Y50.197I-0.500J0.000
N11610G2X79.513Y50.697I0.000J0.500
N11620G2X80.013Y51.197I0.500J0.000
N11630G01Z-0.807F6.0
N11640G2X80.513Y50.697I0.000J-0.500F500.0
N11650G2X80.013Y50.197I-0.500J0.000
N11660G2X79.513Y50.697I0.000J0.500
N11670G2X80.013Y51.197I0.500J0.000
N11680G01Z-0.837F6.0
N11690G2X80.513Y50.697I0.000J-0.500F500.0
N11700G2X80.013Y50.197I-0.500J0.000
N11710G2X79.513Y50.697I0.000J0.500
N11720G2X80.013Y51.197I0.500J0.000
N11730G01Z-0.867F6.0
N11740G2X80.513Y50.697I0.000J-0.500F500.0
N11750G2X80.013Y50.197I-0.500J0.000
N11760G2X79.513Y50.697I0.000J0.500
N11770G2X80.013Y51.197I0.500J0.000
N11780G01Z-0.897F6.0
N11790G2X80.513Y50.697I0.000J-0.500F500.0
N11800G2X80.013Y50.197I-0.500J0.000
N11810G2X79.513Y50.697I0.000J0.500
N11820G2X80.013Y51.197I0.500J0.000
N11830G01Z-0.927F6.0
N11840G2X80.513Y50.697I0.000J-0.500F500.0
N11850G2X80.013Y50.197I-0.500J0.000
N11860G2X79.513Y50.697I0.000J0.500
N11870G2X80.013Y51.197I0.500J0.000
N11880G01Z-0.957F6.0
N11890G2X80.513Y50.697I0.000J-0.500F500.0
N11900G2X80.013Y50.197I-0.500J0.000
N11910G2X79.513Y50.697I0.000J0.500
N11920G2X80.013Y51.197I0.500J0.000
N11930G01Z-0.987F6.0
N11940G2X80.513Y50.697I0.000J-0.500F500.0
N11950G2X80.013Y50.197I-0.500J0.000
N11960G2X79.513Y50.697I0.000J0.500
N11970G2X80.013Y51.197I0.500J0.000
N11980G01Z-1.017F6.0
N11990G2X80.513Y50.697I0.000J-0.500F500.0
N12000G2X80.013Y50.197I-0.500J0.000
N12010G2X79.513Y50.697I0.000J0.500
N12020G2X80.013Y51.197I0.500J0.000
N12030G01Z-1.047F6.0
N12040G2X80.513Y50.697I0.000J-0.500F500.0
N12050G2X80.013Y50.197I-0.500J0.000
N12060G2X79.513Y50.697I0.000J0.500
N12070G2X80.013Y51.197I0.500J0.000
N12080G01Z-1.076F6.0
N12090G2X80.513Y50.697I0.000J-0.500F500.0
N12100G2X80.013Y50.197I-0.500J0.000
N12110G2X79.513Y50.697I0.000J0.500
N12120G2X80.013Y51.197I0.500J0.000
N12130G01Z-1.106F6.0
N12140G2X80.513Y50.697I0.000J-0.500F500.0
N12150G2X80.013Y50.197I-0.500J0.000
N12160G2X79.513Y50.697I0.000J0.500
N12170G2X80.013Y51.197I0.500J0.000
N12180G01Z-1.136F6.0
N12190G2X80.513Y50.697I0.000J-0.500F500.0
N12200G2X80.013Y50.197I-0.500J0.000
N12210G2X79.513Y50.697I0.000J0.500
N12220G2X80.013Y51.197I0.500J0.000
N12230G01Z-1.166F6.0
N12240G2X80.513Y50.697I0.000J-0.500F500.0
N12250G2X80.013Y50.197I-0.500J0.000
N12260G2X79.513Y50.697I0.000J0.500
N12270G2X80.013Y51.197I0.500J0.000
N12280G01Z-1.196F6.0
N12290G2X80.513Y50.697I0.000J-0.500F500.0
N12300G2X80.013Y50.197I-0.500J0.000
N12310G2X79.513Y50.697I0.000J0.500
N12320G2X80.013Y51.197I0.500J0.000
N12330G01Z-1.226F6.0
N12340G2X80.513Y50.697I0.000J-0.500F500.0
N12350G2X80.013Y50.197I-0.500J0.000
N12360G2X79.513Y50.697I0.000J0.500
N12370G2X80.013Y51.197I0.500J0.000
N12380G01Z-1.256F6.0
N12390G2X80.513Y50.697I0.000J-0.500F500.0
N12400G2X80.013Y50.197I-0.500J0.000
N12410G2X79.513Y50.697I0.000J0.500
N12420G2X80.013Y51.197I0.500J0.000
N12430G01Z-1.286F6.0
N12440G2X80.513Y50.697I0.000J-0.500F500.0
N12450G2X80.013Y50.197I-0.500J0.000
N12460G2X79.513Y50.697I0.000J0.500
N12470G2X80.013Y51.197I0.500J0.000
N12480G01Z-1.316F6.0
N12490G2X80.513Y50.697I0.000J-0.500F500.0
N12500G2X80.013Y50.197I-0.500J0.000
N12510G2X79.513Y50.697I0.000J0.500
N12520G2X80.013Y51.197I0.500J0.000
N12530G01Z-1.346F6.0
N12540G2X80.513Y50.697I0.000J-0.500F500.0
N12550G2X80.013Y50.197I-0.500J0.000
N12560G2X79.513Y50.697I0.000J0.500
N12570G2X80.013Y51.197I0.500J0.000
N12580G01Z-1.375F6.0
N12590G2X80.513Y50.697I0.000J-0.500F500.0
N12600G2X80.013Y50.197I-0.500J0.000
N12610G2X79.513Y50.697I0.000J0.500
N12620G2X80.013Y51.197I0.500J0.000
N12630G01Z-1.405F6.0
N12640G2X80.513Y50.697I0.000J-0.500F500.0
N12650G2X80.013Y50.197I-0.500J0.000
N12660G2X79.513Y50.697I0.000J0.500
N12670G2X80.013Y51.197I0.500J0.000
N12680G01Z-1.435F6.0
N12690G2X80.513Y50.697I0.000J-0.500F500.0
N12700G2X80.013Y50.197I-0.500J0.000
N12710G2X79.513Y50.697I0.000J0.500
N12720G2X80.013Y51.197I0.500J0.000
N12730G01Z-1.465F6.0
N12740G2X80.513Y50.697I0.000J-0.500F500.0
N12750G2X80.013Y50.197I-0.500J0.000
N12760G2X79.513Y50.697I0.000J0.500
N12770G2X80.013Y51.197I0.500J0.000
N12780G01Z-1.495F6.0
N12790G2X80.513Y50.697I0.000J-0.500F500.0
N12800G2X80.013Y50.197I-0.500J0.000
N12810G2X79.513Y50.697I0.000J0.500
N12820G2X80.013Y51.197I0.500J0.000
N12830G01Z-1.525F6.0
N12840G2X80.513Y50.697I0.000J-0.500F500.0
N12850G2X80.013Y50.197I-0.500J0.000
N12860G2X79.513Y50.697I0.000J0.500
N12870G2X80.013Y51.197I0.500J0.000
N12880G01Z-1.555F6.0
N12890G2X80.513Y50.697I0.000J-0.500F500.0
N12900G2X80.013Y50.197I-0.500J0.000
N12910G2X79.513Y50.697I0.000J0.500
N12920G2X80.013Y51.197I0.500J0.000
N12930G01Z-1.585F6.0
N12940G2X80.513Y50.697I0.000J-0.500F500.0
N12950G2X80.013Y50.197I-0.500J0.000
N12960G2X79.513Y50.697I0.000J0.500
N12970G2X80.013Y51.197I0.500J0.000
N12980G01Z-1.615F6.0
N12990G2X80.513Y50.697I0.000J-0.500F500.0
N13000G2X80.013Y50.197I-0.500J0.000
N13010G2X79.513Y50.697I0.000J0.500
N13020G2X80.013Y51.197I0.500J0.000
N13030G01Z-1.645F6.0
N13040G2X80.513Y50.697I0.000J-0.500F500.0
N13050G2X80.013Y50.197I-0.500J0.000
N13060G2X79.513Y50.697I0.000J0.500
N13070G2X80.013Y51.197I0.500J0.000
N13080G01Z-1.675F6.0
N13090G2X80.513Y50.697I0.000J-0.500F500.0
N13100G2X80.013Y50.197I-0.500J0.000
N13110G2X79.513Y50.697I0.000J0.500
N13120G2X80.013Y51.197I0.500J0.000
N13130G01Z-1.704F6.0
N13140G2X80.513Y50.697I0.000J-0.500F500.0
N13150G2X80.013Y50.197I-0.500J0.000
N13160G2X79.513Y50.697I0.000J0.500
N13170G2X80.013Y51.197I0.500J0.000
N13180G01Z-1.734F6.0
N13190G2X80.513Y50.697I0.000J-0.500F500.0
N13200G2X80.013Y50.197I-0.500J0.000
N13210G2X79.513Y50.697I0.000J0.500
N13220G2X80.013Y51.197I0.500J0.000
N13230G01Z-1.764F6.0
N13240G2X80.513Y50.697I0.000J-0.500F500.0
N13250G2X80.013Y50.197I-0.500J0.000
N13260G2X79.513Y50.697I0.000J0.500
N13270G2X80.013Y51.197I0.500J0.000
N13280G01Z-1.794F6.0
N13290G2X80.513Y50.697I0.000J-0.500F500.0
N13300G2X80.013Y50.197I-0.500J0.000
N13310G2X79.513Y50.697I0.000J0.500
N13320G2X80.013Y51.197I0.500J0.000
N13330G01Z-1.824F6.0
N13340G2X80.513Y50.697I0.000J-0.500F500.0
N13350G2X80.013Y50.197I-0.500J0.000
N13360G2X79.513Y50.697I0.000J0.500
N13370G2X80.013Y51.197I0.500J0.000
N13380G01Z-1.854F6.0
N13390G2X80.513Y50.697I0.000J-0.500F500.0
N13400G2X80.013Y50.197I-0.500J0.000
N13410G2X79.513Y50.697I0.000J0.500
N13420G2X80.013Y51.197I0.500J0.000
N13430G01Z-1.884F6.0
N13440G2X80.513Y50.697I0.000J-0.500F500.0
N13450G2X80.013Y50.197I-0.500J0.000
N13460G2X79.513Y50.697I0.000J0.500
N13470G2X80.013Y51.197I0.500J0.000
N13480G01Z-1.914F6.0
N13490G2X80.513Y50.697I0.000J-0.500F500.0
N13500G2X80.013Y50.197I-0.500J0.000
N13510G2X79.513Y50.697I0.000J0.500
N13520G2X80.013Y51.197I0.500J0.000
N13530G01Z-1.944F6.0
N13540G2X80.513Y50.697I0.000J-0.500F500.0
N13550G2X80.013Y50.197I-0.500J0.000
N13560G2X79.513Y50.697I0.000J0.500
N13570G2X80.013Y51.197I0.500J0.000
N13580G01Z-1.974F6.0
N13590G2X80.513Y50.697I0.000J-0.500F500.0
N13600G2X80.013Y50.197I-0.500J0.000
N13610G2X79.513Y50.697I0.000J0.500
N13620G2X80.013Y51.197I0.500J0.000
N13630G01Z-2.003F6.0
N13640G2X80.513Y50.697I0.000J-0.500F500.0
N13650G2X80.013Y50.197I-0.500J0.000
N13660G2X79.513Y50.697I0.000J0.500
N13670G2X80.013Y51.197I0.500J0.000
N13680G01Z-2.033F6.0
N13690G2X80.513Y50.697I0.000J-0.500F500.0
N13700G2X80.013Y50.197I-0.500J0.000
N13710G2X79.513Y50.697I0.000J0.500
N13720G2X80.013Y51.197I0.500J0.000
N13730G01Z-2.063F6.0
N13740G2X80.513Y50.697I0.000J-0.500F500.0
N13750G2X80.013Y50.197I-0.500J0.000
N13760G2X79.513Y50.697I0.000J0.500
N13770G2X80.013Y51.197I0.500J0.000
N13780G01Z-2.093F6.0
N13790G2X80.513Y50.697I0.000J-0.500F500.0
N13800G2X80.013Y50.197I-0.500J0.000
N13810G2X79.513Y50.697I0.000J0.500
N13820G2X80.013Y51.197I0.500J0.000
N13830G01Z-2.123F6.0
N13840G2X80.513Y50.697I0.000J-0.500F500.0
N13850G2X80.013Y50.197I-0.500J0.000
N13860G2X79.513Y50.697I0.000J0.500
N13870G2X80.013Y51.197I0.500J0.000
N13880G01Z-2.153F6.0
N13890G2X80.513Y50.697I0.000J-0.500F500.0
N13900G2X80.013Y50.197I-0.500J0.000
N13910G2X79.513Y50.697I0.000J0.500
N13920G2X80.013Y51.197I0.500J0.000
N13930G01Z-2.183F6.0
N13940G2X80.513Y50.697I0.000J-0.500F500.0
N13950G2X80.013Y50.197I-0.500J0.000
N13960G2X79.513Y50.697I0.000J0.500
N13970G2X80.013Y51.197I0.500J0.000
N13980G01Z-2.213F6.0
N13990G2X80.513Y50.697I0.000J-0.500F500.0
N14000G2X80.013Y50.197I-0.500J0.000
N14010G2X79.513Y50.697I0.000J0.500
N14020G2X80.013Y51.197I0.500J0.000
N14030G01Z-2.243F6.0
N14040G2X80.513Y50.697I0.000J-0.500F500.0
N14050G2X80.013Y50.197I-0.500J0.000
N14060G2X79.513Y50.697I0.000J0.500
N14070G2X80.013Y51.197I0.500J0.000
N14080G01Z-2.273F6.0
N14090G2X80.513Y50.697I0.000J-0.500F500.0
N14100G2X80.013Y50.197I-0.500J0.000
N14110G2X79.513Y50.697I0.000J0.500
N14120G2X80.013Y51.197I0.500J0.000
N14130G01Z-2.302F6.0
N14140G2X80.513Y50.697I0.000J-0.500F500.0
N14150G2X80.013Y50.197I-0.500J0.000
N14160G2X79.513Y50.697I0.000J0.500
N14170G2X80.013Y51.197I0.500J0.000
N14180G01Z-2.332F6.0
N14190G2X80.513Y50.697I0.000J-0.500F500.0
N14200G2X80.013Y50.197I-0.500J0.000
N14210G2X79.513Y50.697I0.000J0.500
N14220G2X80.013Y51.197I0.500J0.000
N14230G01Z-2.362F6.0
N14240G2X80.513Y50.697I0.000J-0.500F500.0
N14250G2X80.013Y50.197I-0.500J0.000
N14260G2X79.513Y50.697I0.000J0.500
N14270G2X80.013Y51.197I0.500J0.000
N14280G01Z-2.392F6.0
N14290G2X80.513Y50.697I0.000J-0.500F500.0
N14300G2X80.013Y50.197I-0.500J0.000
N14310G2X79.513Y50.697I0.000J0.500
N14320G2X80.013Y51.197I0.500J0.000
N14330G01Z-2.422F6.0
N14340G2X80.513Y50.697I0.000J-0.500F500.0
N14350G2X80.013Y50.197I-0.500J0.000
N14360G2X79.513Y50.697I0.000J0.500
N14370G2X80.013Y51.197I0.500J0.000
N14380G01Z-2.452F6.0
N14390G2X80.513Y50.697I0.000J-0.500F500.0
N14400G2X80.013Y50.197I-0.500J0.000
N14410G2X79.513Y50.697I0.000J0.500
N14420G2X80.013Y51.197I0.500J0.000
N14430G01Z-2.482F6.0
N14440G2X80.513Y50.697I0.000J-0.500F500.0
N14450G2X80.013Y50.197I-0.500J0.000
N14460G2X79.513Y50.697I0.000J0.500
N14470G2X80.013Y51.197I0.500J0.000
N14480G01Z-2.512F6.0
N14490G2X80.513Y50.697I0.000J-0.500F500.0
N14500G2X80.013Y50.197I-0.500J0.000
N14510G2X79.513Y50.697I0.000J0.500
N14520G2X80.013Y51.197I0.500J0.000
N14530G01Z-2.542F6.0
N14540G2X80.513Y50.697I0.000J-0.500F500.0
N14550G2X80.013Y50.197I-0.500J0.000
N14560G2X79.513Y50.697I0.000J0.500
N14570G2X80.013Y51.197I0.500J0.000
N14580G01Z-2.572F6.0
N14590G2X80.513Y50.697I0.000J-0.500F500.0
N14600G2X80.013Y50.197I-0.500J0.000
N14610G2X79.513Y50.697I0.000J0.500
N14620G2X80.013Y51.197I0.500J0.000
N14630G01Z-2.601F6.0
N14640G2X80.513Y50.697I0.000J-0.500F500.0
N14650G2X80.013Y50.197I-0.500J0.000
N14660G2X79.513Y50.697I0.000J0.500
N14670G2X80.013Y51.197I0.500J0.000
N14680G01Z-2.631F6.0
N14690G2X80.513Y50.697I0.000J-0.500F500.0
N14700G2X80.013Y50.197I-0.500J0.000
N14710G2X79.513Y50.697I0.000J0.500
N14720G2X80.013Y51.197I0.500J0.000
N14730G01Z-2.661F6.0
N14740G2X80.513Y50.697I0.000J-0.500F500.0
N14750G2X80.013Y50.197I-0.500J0.000
N14760G2X79.513Y50.697I0.000J0.500
N14770G2X80.013Y51.197I0.500J0.000
N14780G01Z-2.691F6.0
N14790G2X80.513Y50.697I0.000J-0.500F500.0
N14800G2X80.013Y50.197I-0.500J0.000
N14810G2X79.513Y50.697I0.000J0.500
N14820G2X80.013Y51.197I0.500J0.000
N14830G01Z-2.721F6.0
N14840G2X80.513Y50.697I0.000J-0.500F500.0
N14850G2X80.013Y50.197I-0.500J0.000
N14860G2X79.513Y50.697I0.000J0.500
N14870G2X80.013Y51.197I0.500J0.000
N14880G01Z-2.751F6.0
N14890G2X80.513Y50.697I0.000J-0.500F500.0
N14900G2X80.013Y50.197I-0.500J0.000
N14910G2X79.513Y50.697I0.000J0.500
N14920G2X80.013Y51.197I0.500J0.000
N14930G01Z-2.781F6.0
N14940G2X80.513Y50.697I0.000J-0.500F500.0
N14950G2X80.013Y50.197I-0.500J0.000
N14960G2X79.513Y50.697I0.000J0.500
N14970G2X80.013Y51.197I0.500J0.000
N14980G01Z-2.811F6.0
N14990G2X80.513Y50.697I0.000J-0.500F500.0
N15000G2X80.013Y50.197I-0.500J0.000
N15010G2X79.513Y50.697I0.000J0.500
N15020G2X80.013Y51.197I0.500J0.000
N15030G01Z-2.841F6.0
N15040G2X80.513Y50.697I0.000J-0.500F500.0
N15050G2X80.013Y50.197I-0.500J0.000
N15060G2X79.513Y50.697I0.000J0.500
N15070G2X80.013Y51.197I0.500J0.000
N15080G01Z-2.871F6.0
N15090G2X80.513Y50.697I0.000J-0.500F500.0
N15100G2X80.013Y50.197I-0.500J0.000
N15110G2X79.513Y50.697I0.000J0.500
N15120G2X80.013Y51.197I0.500J0.000
N15130G01Z-2.900F6.0
N15140G2X80.513Y50.697I0.000J-0.500F500.0
N15150G2X80.013Y50.197I-0.500J0.000
N15160G2X79.513Y50.697I0.000J0.500
N15170G2X80.013Y51.197I0.500J0.000
N15180G01Z-2.930F6.0
N15190G2X80.513Y50.697I0.000J-0.500F500.0
N15200G2X80.013Y50.197I-0.500J0.000
N15210G2X79.513Y50.697I0.000J0.500
N15220G2X80.013Y51.197I0.500J0.000
N15230G01Z-2.960F6.0
N15240G2X80.513Y50.697I0.000J-0.500F500.0
N15250G2X80.013Y50.197I-0.500J0.000
N15260G2X79.513Y50.697I0.000J0.500
N15270G2X80.013Y51.197I0.500J0.000
N15280G01Z-2.990F6.0
N15290G2X80.513Y50.697I0.000J-0.500F500.0
N15300G2X80.013Y50.197I-0.500J0.000
N15310G2X79.513Y50.697I0.000J0.500
N15320G2X80.013Y51.197I0.500J0.000
N15330G01Z-3.020F6.0
N15340G2X80.513Y50.697I0.000J-0.500F500.0
N15350G2X80.013Y50.197I-0.500J0.000
N15360G2X79.513Y50.697I0.000J0.500
N15370G2X80.013Y51.197I0.500J0.000
N15380G01Z-3.050F6.0
N15390G2X80.513Y50.697I0.000J-0.500F500.0
N15400G2X80.013Y50.197I-0.500J0.000
N15410G2X79.513Y50.697I0.000J0.500
N15420G2X80.013Y51.197I0.500J0.000
N15430G00Z6.000
N15440G00X90.013
N15450G01Z-0.030F6.0
N15460G2X90.513Y50.697I0.000J-0.500F500.0
N15470G2X90.013Y50.197I-0.500J0.000
N15480G2X89.513Y50.697I0.000J0.500
N15490G2X90.013Y51.197I0.500J0.000
N15500G01Z-0.060F6.0
N15510G2X90.513Y50.697I0.000J-0.500F500.0
N15520G2X90.013Y50.197I-0.500J0.000
N15530G2X89.513Y50.697I0.000J0.500
N15540G2X90.013Y51.197I0.500J0.000
N15550G01Z-0.090F6.0
N15560G2X90.513Y50.697I0.000J-0.500F500.0
N15570G2X90.013Y50.197I-0.500J0.000
N15580G2X89.513Y50.697I0.000J0.500
N15590G2X90.013Y51.197I0.500J0.000
N15600G01Z-0.120F6.0
N15610G2X90.513Y50.697I0.000J-0.500F500.0
N15620G2X90.013Y50.197I-0.500J0.000
N15630G2X89.513Y50.697I0.000J0.500
N15640G2X90.013Y51.197I0.500J0.000
N15650G01Z-0.150F6.0
N15660G2X90.513Y50.697I0.000J-0.500F500.0
N15670G2X90.013Y50.197I-0.500J0.000
N15680G2X89.513Y50.697I0.000J0.500
N15690G2X90.013Y51.197I0.500J0.000
N15700G01Z-0.179F6.0
N15710G2X90.513Y50.697I0.000J-0.500F500.0
N15720G2X90.013Y50.197I-0.500J0.000
N15730G2X89.513Y50.697I0.000J0.500
N15740G2X90.013Y51.197I0.500J0.000
N15750G01Z-0.209F6.0
N15760G2X90.513Y50.697I0.000J-0.500F500.0
N15770G2X90.013Y50.197I-0.500J0.000
N15780G2X89.513Y50.697I0.000J0.500
N15790G2X90.013Y51.197I0.500J0.000
N15800G01Z-0.239F6.0
N15810G2X90.513Y50.697I0.000J-0.500F500.0
N15820G2X90.013Y50.197I-0.500J0.000
N15830G2X89.513Y50.697I0.000J0.500
N15840G2X90.013Y51.197I0.500J0.000
N15850G01Z-0.269F6.0
N15860G2X90.513Y50.697I0.000J-0.500F500.0
N15870G2X90.013Y50.197I-0.500J0.000
N15880G2X89.513Y50.697I0.000J0.500
N15890G2X90.013Y51.197I0.500J0.000
N15900G01Z-0.299F6.0
N15910G2X90.513Y50.697I0.000J-0.500F500.0
N15920G2X90.013Y50.197I-0.500J0.000
N15930G2X89.513Y50.697I0.000J0.500
N15940G2X90.013Y51.197I0.500J0.000
N15950G01Z-0.329F6.0
N15960G2X90.513Y50.697I0.000J-0.500F500.0
N15970G2X90.013Y50.197I-0.500J0.000
N15980G2X89.513Y50.697I0.000J0.500
N15990G2X90.013Y51.197I0.500J0.000
N16000G01Z-0.359F6.0
N16010G2X90.513Y50.697I0.000J-0.500F500.0
N16020G2X90.013Y50.197I-0.500J0.000
N16030G2X89.513Y50.697I0.000J0.500
N16040G2X90.013Y51.197I0.500J0.000
N16050G01Z-0.389F6.0
N16060G2X90.513Y50.697I0.000J-0.500F500.0
N16070G2X90.013Y50.197I-0.500J0.000
N16080G2X89.513Y50.697I0.000J0.500
N16090G2X90.013Y51.197I0.500J0.000
N16100G01Z-0.419F6.0
N16110G2X90.513Y50.697I0.000J-0.500F500.0
N16120G2X90.013Y50.197I-0.500J0.000
N16130G2X89.513Y50.697I0.000J0.500
N16140G2X90.013Y51.197I0.500J0.000
N16150G01Z-0.449F6.0
N16160G2X90.513Y50.697I0.000J-0.500F500.0
N16170G2X90.013Y50.197I-0.500J0.000
N16180G2X89.513Y50.697I0.000J0.500
N16190G2X90.013Y51.197I0.500J0.000
N16200G01Z-0.478F6.0
N16210G2X90.513Y50.697I0.000J-0.500F500.0
N16220G2X90.013Y50.197I-0.500J0.000
N16230G2X89.513Y50.697I0.000J0.500
N16240G2X90.013Y51.197I0.500J0.000
N16250G01Z-0.508F6.0
N16260G2X90.513Y50.697I0.000J-0.500F500.0
N16270G2X90.013Y50.197I-0.500J0.000
N16280G2X89.513Y50.697I0.000J0.500
N16290G2X90.013Y51.197I0.500J0.000
N16300G01Z-0.538F6.0
N16310G2X90.513Y50.697I0.000J-0.500F500.0
N16320G2X90.013Y50.197I-0.500J0.000
N16330G2X89.513Y50.697I0.000J0.500
N16340G2X90.013Y51.197I0.500J0.000
N16350G01Z-0.568F6.0
N16360G2X90.513Y50.697I0.000J-0.500F500.0
N16370G2X90.013Y50.197I-0.500J0.000
N16380G2X89.513Y50.697I0.000J0.500
N16390G2X90.013Y51.197I0.500J0.000
N16400G01Z-0.598F6.0
N16410G2X90.513Y50.697I0.000J-0.500F500.0
N16420G2X90.013Y50.197I-0.500J0.000
N16430G2X89.513Y50.697I0.000J0.500
N16440G2X90.013Y51.197I0.500J0.000
N16450G01Z-0.628F6.0
N16460G2X90.513Y50.697I0.000J-0.500F500.0
N16470G2X90.013Y50.197I-0.500J0.000
N16480G2X89.513Y50.697I0.000J0.500
N16490G2X90.013Y51.197I0.500J0.000
N16500G01Z-0.658F6.0
N16510G2X90.513Y50.697I0.000J-0.500F500.0
N16520G2X90.013Y50.197I-0.500J0.000
N16530G2X89.513Y50.697I0.000J0.500
N16540G2X90.013Y51.197I0.500J0.000
N16550G01Z-0.688F6.0
N16560G2X90.513Y50.697I0.000J-0.500F500.0
N16570G2X90.013Y50.197I-0.500J0.000
N16580G2X89.513Y50.697I0.000J0.500
N16590G2X90.013Y51.197I0.500J0.000
N16600G01Z-0.718F6.0
N16610G2X90.513Y50.697I0.000J-0.500F500.0
N16620G2X90.013Y50.197I-0.500J0.000
N16630G2X89.513Y50.697I0.000J0.500
N16640G2X90.013Y51.197I0.500J0.000
N16650G01Z-0.748F6.0
N16660G2X90.513Y50.697I0.000J-0.500F500.0
N16670G2X90.013Y50.197I-0.500J0.000
N16680G2X89.513Y50.697I0.000J0.500
N16690G2X90.013Y51.197I0.500J0.000
N16700G01Z-0.777F6.0
N16710G2X90.513Y50.697I0.000J-0.500F500.0
N16720G2X90.013Y50.197I-0.500J0.000
N16730G2X89.513Y50.697I0.000J0.500
N16740G2X90.013Y51.197I0.500J0.000
N16750G01Z-0.807F6.0
N16760G2X90.513Y50.697I0.000J-0.500F500.0
N16770G2X90.013Y50.197I-0.500J0.000
N16780G2X89.513Y50.697I0.000J0.500
N16790G2X90.013Y51.197I0.500J0.000
N16800G01Z-0.837F6.0
N16810G2X90.513Y50.697I0.000J-0.500F500.0
N16820G2X90.013Y50.197I-0.500J0.000
N16830G2X89.513Y50.697I0.000J0.500
N16840G2X90.013Y51.197I0.500J0.000
N16850G01Z-0.867F6.0
N16860G2X90.513Y50.697I0.000J-0.500F500.0
N16870G2X90.013Y50.197I-0.500J0.000
N16880G2X89.513Y50.697I0.000J0.500
N16890G2X90.013Y51.197I0.500J0.000
N16900G01Z-0.897F6.0
N16910G2X90.513Y50.697I0.000J-0.500F500.0
N16920G2X90.013Y50.197I-0.500J0.000
N16930G2X89.513Y50.697I0.000J0.500
N16940G2X90.013Y51.197I0.500J0.000
N16950G01Z-0.927F6.0
N16960G2X90.513Y50.697I0.000J-0.500F500.0
N16970G2X90.013Y50.197I-0.500J0.000
N16980G2X89.513Y50.697I0.000J0.500
N16990G2X90.013Y51.197I0.500J0.000
N17000G01Z-0.957F6.0
N17010G2X90.513Y50.697I0.000J-0.500F500.0
N17020G2X90.013Y50.197I-0.500J0.000
N17030G2X89.513Y50.697I0.000J0.500
N17040G2X90.013Y51.197I0.500J0.000
N17050G01Z-0.987F6.0
N17060G2X90.513Y50.697I0.000J-0.500F500.0
N17070G2X90.013Y50.197I-0.500J0.000
N17080G2X89.513Y50.697I0.000J0.500
N17090G2X90.013Y51.197I0.500J0.000
N17100G01Z-1.017F6.0
N17110G2X90.513Y50.697I0.000J-0.500F500.0
N17120G2X90.013Y50.197I-0.500J0.000
N17130G2X89.513Y50.697I0.000J0.500
N17140G2X90.013Y51.197I0.500J0.000
N17150G01Z-1.047F6.0
N17160G2X90.513Y50.697I0.000J-0.500F500.0
N17170G2X90.013Y50.197I-0.500J0.000
N17180G2X89.513Y50.697I0.000J0.500
N17190G2X90.013Y51.197I0.500J0.000
N17200G01Z-1.076F6.0
N17210G2X90.513Y50.697I0.000J-0.500F500.0
N17220G2X90.013Y50.197I-0.500J0.000
N17230G2X89.513Y50.697I0.000J0.500
N17240G2X90.013Y51.197I0.500J0.000
N17250G01Z-1.106F6.0
N17260G2X90.513Y50.697I0.000J-0.500F500.0
N17270G2X90.013Y50.197I-0.500J0.000
N17280G2X89.513Y50.697I0.000J0.500
N17290G2X90.013Y51.197I0.500J0.000
N17300G01Z-1.136F6.0
N17310G2X90.513Y50.697I0.000J-0.500F500.0
N17320G2X90.013Y50.197I-0.500J0.000
N17330G2X89.513Y50.697I0.000J0.500
N17340G2X90.013Y51.197I0.500J0.000
N17350G01Z-1.166F6.0
N17360G2X90.513Y50.697I0.000J-0.500F500.0
N17370G2X90.013Y50.197I-0.500J0.000
N17380G2X89.513Y50.697I0.000J0.500
N17390G2X90.013Y51.197I0.500J0.000
N17400G01Z-1.196F6.0
N17410G2X90.513Y50.697I0.000J-0.500F500.0
N17420G2X90.013Y50.197I-0.500J0.000
N17430G2X89.513Y50.697I0.000J0.500
N17440G2X90.013Y51.197I0.500J0.000
N17450G01Z-1.226F6.0
N17460G2X90.513Y50.697I0.000J-0.500F500.0
N17470G2X90.013Y50.197I-0.500J0.000
N17480G2X89.513Y50.697I0.000J0.500
N17490G2X90.013Y51.197I0.500J0.000
N17500G01Z-1.256F6.0
N17510G2X90.513Y50.697I0.000J-0.500F500.0
N17520G2X90.013Y50.197I-0.500J0.000
N17530G2X89.513Y50.697I0.000J0.500
N17540G2X90.013Y51.197I0.500J0.000
N17550G01Z-1.286F6.0
N17560G2X90.513Y50.697I0.000J-0.500F500.0
N17570G2X90.013Y50.197I-0.500J0.000
N17580G2X89.513Y50.697I0.000J0.500
N17590G2X90.013Y51.197I0.500J0.000
N17600G01Z-1.316F6.0
N17610G2X90.513Y50.697I0.000J-0.500F500.0
N17620G2X90.013Y50.197I-0.500J0.000
N17630G2X89.513Y50.697I0.000J0.500
N17640G2X90.013Y51.197I0.500J0.000
N17650G01Z-1.346F6.0
N17660G2X90.513Y50.697I0.000J-0.500F500.0
N17670G2X90.013Y50.197I-0.500J0.000
N17680G2X89.513Y50.697I0.000J0.500
N17690G2X90.013Y51.197I0.500J0.000
N17700G01Z-1.375F6.0
N17710G2X90.513Y50.697I0.000J-0.500F500.0
N17720G2X90.013Y50.197I-0.500J0.000
N17730G2X89.513Y50.697I0.000J0.500
N17740G2X90.013Y51.197I0.500J0.000
N17750G01Z-1.405F6.0
N17760G2X90.513Y50.697I0.000J-0.500F500.0
N17770G2X90.013Y50.197I-0.500J0.000
N17780G2X89.513Y50.697I0.000J0.500
N17790G2X90.013Y51.197I0.500J0.000
N17800G01Z-1.435F6.0
N17810G2X90.513Y50.697I0.000J-0.500F500.0
N17820G2X90.013Y50.197I-0.500J0.000
N17830G2X89.513Y50.697I0.000J0.500
N17840G2X90.013Y51.197I0.500J0.000
N17850G01Z-1.465F6.0
N17860G2X90.513Y50.697I0.000J-0.500F500.0
N17870G2X90.013Y50.197I-0.500J0.000
N17880G2X89.513Y50.697I0.000J0.500
N17890G2X90.013Y51.197I0.500J0.000
N17900G01Z-1.495F6.0
N17910G2X90.513Y50.697I0.000J-0.500F500.0
N17920G2X90.013Y50.197I-0.500J0.000
N17930G2X89.513Y50.697I0.000J0.500
N17940G2X90.013Y51.197I0.500J0.000
N17950G01Z-1.525F6.0
N17960G2X90.513Y50.697I0.000J-0.500F500.0
N17970G2X90.013Y50.197I-0.500J0.000
N17980G2X89.513Y50.697I0.000J0.500
N17990G2X90.013Y51.197I0.500J0.000
N18000G01Z-1.555F6.0
N18010G2X90.513Y50.697I0.000J-0.500F500.0
N18020G2X90.013Y50.197I-0.500J0.000
N18030G2X89.513Y50.697I0.000J0.500
N18040G2X90.013Y51.197I0.500J0.000
N18050G01Z-1.585F6.0
N18060G2X90.513Y50.697I0.000J-0.500F500.0
N18070G2X90.013Y50.197I-0.500J0.000
N18080G2X89.513Y50.697I0.000J0.500
N18090G2X90.013Y51.197I0.500J0.000
N18100G01Z-1.615F6.0
N18110G2X90.513Y50.697I0.000J-0.500F500.0
N18120G2X90.013Y50.197I-0.500J0.000
N18130G2X89.513Y50.697I0.000J0.500
N18140G2X90.013Y51.197I0.500J0.000
N18150G01Z-1.645F6.0
N18160G2X90.513Y50.697I0.000J-0.500F500.0
N18170G2X90.013Y50.197I-0.500J0.000
N18180G2X89.513Y50.697I0.000J0.500
N18190G2X90.013Y51.197I0.500J0.000
N18200G01Z-1.675F6.0
N18210G2X90.513Y50.697I0.000J-0.500F500.0
N18220G2X90.013Y50.197I-0.500J0.000
N18230G2X89.513Y50.697I0.000J0.500
N18240G2X90.013Y51.197I0.500J0.000
N18250G01Z-1.704F6.0
N18260G2X90.513Y50.697I0.000J-0.500F500.0
N18270G2X90.013Y50.197I-0.500J0.000
N18280G2X89.513Y50.697I0.000J0.500
N18290G2X90.013Y51.197I0.500J0.000
N18300G01Z-1.734F6.0
N18310G2X90.513Y50.697I0.000J-0.500F500.0
N18320G2X90.013Y50.197I-0.500J0.000
N18330G2X89.513Y50.697I0.000J0.500
N18340G2X90.013Y51.197I0.500J0.000
N18350G01Z-1.764F6.0
N18360G2X90.513Y50.697I0.000J-0.500F500.0
N18370G2X90.013Y50.197I-0.500J0.000
N18380G2X89.513Y50.697I0.000J0.500
N18390G2X90.013Y51.197I0.500J0.000
N18400G01Z-1.794F6.0
N18410G2X90.513Y50.697I0.000J-0.500F500.0
N18420G2X90.013Y50.197I-0.500J0.000
N18430G2X89.513Y50.697I0.000J0.500
N18440G2X90.013Y51.197I0.500J0.000
N18450G01Z-1.824F6.0
N18460G2X90.513Y50.697I0.000J-0.500F500.0
N18470G2X90.013Y50.197I-0.500J0.000
N18480G2X89.513Y50.697I0.000J0.500
N18490G2X90.013Y51.197I0.500J0.000
N18500G01Z-1.854F6.0
N18510G2X90.513Y50.697I0.000J-0.500F500.0
N18520G2X90.013Y50.197I-0.500J0.000
N18530G2X89.513Y50.697I0.000J0.500
N18540G2X90.013Y51.197I0.500J0.000
N18550G01Z-1.884F6.0
N18560G2X90.513Y50.697I0.000J-0.500F500.0
N18570G2X90.013Y50.197I-0.500J0.000
N18580G2X89.513Y50.697I0.000J0.500
N18590G2X90.013Y51.197I0.500J0.000
N18600G01Z-1.914F6.0
N18610G2X90.513Y50.697I0.000J-0.500F500.0
N18620G2X90.013Y50.197I-0.500J0.000
N18630G2X89.513Y50.697I0.000J0.500
N18640G2X90.013Y51.197I0.500J0.000
N18650G01Z-1.944F6.0
N18660G2X90.513Y50.697I0.000J-0.500F500.0
N18670G2X90.013Y50.197I-0.500J0.000
N18680G2X89.513Y50.697I0.000J0.500
N18690G2X90.013Y51.197I0.500J0.000
N18700G01Z-1.974F6.0
N18710G2X90.513Y50.697I0.000J-0.500F500.0
N18720G2X90.013Y50.197I-0.500J0.000
N18730G2X89.513Y50.697I0.000J0.500
N18740G2X90.013Y51.197I0.500J0.000
N18750G01Z-2.003F6.0
N18760G2X90.513Y50.697I0.000J-0.500F500.0
N18770G2X90.013Y50.197I-0.500J0.000
N18780G2X89.513Y50.697I0.000J0.500
N18790G2X90.013Y51.197I0.500J0.000
N18800G01Z-2.033F6.0
N18810G2X90.513Y50.697I0.000J-0.500F500.0
N18820G2X90.013Y50.197I-0.500J0.000
N18830G2X89.513Y50.697I0.000J0.500
N18840G2X90.013Y51.197I0.500J0.000
N18850G01Z-2.063F6.0
N18860G2X90.513Y50.697I0.000J-0.500F500.0
N18870G2X90.013Y50.197I-0.500J0.000
N18880G2X89.513Y50.697I0.000J0.500
N18890G2X90.013Y51.197I0.500J0.000
N18900G01Z-2.093F6.0
N18910G2X90.513Y50.697I0.000J-0.500F500.0
N18920G2X90.013Y50.197I-0.500J0.000
N18930G2X89.513Y50.697I0.000J0.500
N18940G2X90.013Y51.197I0.500J0.000
N18950G01Z-2.123F6.0
N18960G2X90.513Y50.697I0.000J-0.500F500.0
N18970G2X90.013Y50.197I-0.500J0.000
N18980G2X89.513Y50.697I0.000J0.500
N18990G2X90.013Y51.197I0.500J0.000
N19000G01Z-2.153F6.0
N19010G2X90.513Y50.697I0.000J-0.500F500.0
N19020G2X90.013Y50.197I-0.500J0.000
N19030G2X89.513Y50.697I0.000J0.500
N19040G2X90.013Y51.197I0.500J0.000
N19050G01Z-2.183F6.0
N19060G2X90.513Y50.697I0.000J-0.500F500.0
N19070G2X90.013Y50.197I-0.500J0.000
N19080G2X89.513Y50.697I0.000J0.500
N19090G2X90.013Y51.197I0.500J0.000
N19100G01Z-2.213F6.0
N19110G2X90.513Y50.697I0.000J-0.500F500.0
N19120G2X90.013Y50.197I-0.500J0.000
N19130G2X89.513Y50.697I0.000J0.500
N19140G2X90.013Y51.197I0.500J0.000
N19150G01Z-2.243F6.0
N19160G2X90.513Y50.697I0.000J-0.500F500.0
N19170G2X90.013Y50.197I-0.500J0.000
N19180G2X89.513Y50.697I0.000J0.500
N19190G2X90.013Y51.197I0.500J0.000
N19200G01Z-2.273F6.0
N19210G2X90.513Y50.697I0.000J-0.500F500.0
N19220G2X90.013Y50.197I-0.500J0.000
N19230G2X89.513Y50.697I0.000J0.500
N19240G2X90.013Y51.197I0.500J0.000
N19250G01Z-2.302F6.0
N19260G2X90.513Y50.697I0.000J-0.500F500.0
N19270G2X90.013Y50.197I-0.500J0.000
N19280G2X89.513Y50.697I0.000J0.500
N19290G2X90.013Y51.197I0.500J0.000
N19300G01Z-2.332F6.0
N19310G2X90.513Y50.697I0.000J-0.500F500.0
N19320G2X90.013Y50.197I-0.500J0.000
N19330G2X89.513Y50.697I0.000J0.500
N19340G2X90.013Y51.197I0.500J0.000
N19350G01Z-2.362F6.0
N19360G2X90.513Y50.697I0.000J-0.500F500.0
N19370G2X90.013Y50.197I-0.500J0.000
N19380G2X89.513Y50.697I0.000J0.500
N19390G2X90.013Y51.197I0.500J0.000
N19400G01Z-2.392F6.0
N19410G2X90.513Y50.697I0.000J-0.500F500.0
N19420G2X90.013Y50.197I-0.500J0.000
N19430G2X89.513Y50.697I0.000J0.500
N19440G2X90.013Y51.197I0.500J0.000
N19450G01Z-2.422F6.0
N19460G2X90.513Y50.697I0.000J-0.500F500.0
N19470G2X90.013Y50.197I-0.500J0.000
N19480G2X89.513Y50.697I0.000J0.500
N19490G2X90.013Y51.197I0.500J0.000
N19500G01Z-2.452F6.0
N19510G2X90.513Y50.697I0.000J-0.500F500.0
N19520G2X90.013Y50.197I-0.500J0.000
N19530G2X89.513Y50.697I0.000J0.500
N19540G2X90.013Y51.197I0.500J0.000
N19550G01Z-2.482F6.0
N19560G2X90.513Y50.697I0.000J-0.500F500.0
N19570G2X90.013Y50.197I-0.500J0.000
N19580G2X89.513Y50.697I0.000J0.500
N19590G2X90.013Y51.197I0.500J0.000
N19600G01Z-2.512F6.0
N19610G2X90.513Y50.697I0.000J-0.500F500.0
N19620G2X90.013Y50.197I-0.500J0.000
N19630G2X89.513Y50.697I0.000J0.500
N19640G2X90.013Y51.197I0.500J0.000
N19650G01Z-2.542F6.0
N19660G2X90.513Y50.697I0.000J-0.500F500.0
N19670G2X90.013Y50.197I-0.500J0.000
N19680G2X89.513Y50.697I0.000J0.500
N19690G2X90.013Y51.197I0.500J0.000
N19700G01Z-2.572F6.0
N19710G2X90.513Y50.697I0.000J-0.500F500.0
N19720G2X90.013Y50.197I-0.500J0.000
N19730G2X89.513Y50.697I0.000J0.500
N19740G2X90.013Y51.197I0.500J0.000
N19750G01Z-2.601F6.0
N19760G2X90.513Y50.697I0.000J-0.500F500.0
N19770G2X90.013Y50.197I-0.500J0.000
N19780G2X89.513Y50.697I0.000J0.500
N19790G2X90.013Y51.197I0.500J0.000
N19800G01Z-2.631F6.0
N19810G2X90.513Y50.697I0.000J-0.500F500.0
N19820G2X90.013Y50.197I-0.500J0.000
N19830G2X89.513Y50.697I0.000J0.500
N19840G2X90.013Y51.197I0.500J0.000
N19850G01Z-2.661F6.0
N19860G2X90.513Y50.697I0.000J-0.500F500.0
N19870G2X90.013Y50.197I-0.500J0.000
N19880G2X89.513Y50.697I0.000J0.500
N19890G2X90.013Y51.197I0.500J0.000
N19900G01Z-2.691F6.0
N19910G2X90.513Y50.697I0.000J-0.500F500.0
N19920G2X90.013Y50.197I-0.500J0.000
N19930G2X89.513Y50.697I0.000J0.500
N19940G2X90.013Y51.197I0.500J0.000
N19950G01Z-2.721F6.0
N19960G2X90.513Y50.697I0.000J-0.500F500.0
N19970G2X90.013Y50.197I-0.500J0.000
N19980G2X89.513Y50.697I0.000J0.500
N19990G2X90.013Y51.197I0.500J0.000
N20000G01Z-2.751F6.0
N20010G2X90.513Y50.697I0.000J-0.500F500.0
N20020G2X90.013Y50.197I-0.500J0.000
N20030G2X89.513Y50.697I0.000J0.500
N20040G2X90.013Y51.197I0.500J0.000
N20050G01Z-2.781F6.0
N20060G2X90.513Y50.697I0.000J-0.500F500.0
N20070G2X90.013Y50.197I-0.500J0.000
N20080G2X89.513Y50.697I0.000J0.500
N20090G2X90.013Y51.197I0.500J0.000
N20100G01Z-2.811F6.0
N20110G2X90.513Y50.697I0.000J-0.500F500.0
N20120G2X90.013Y50.197I-0.500J0.000
N20130G2X89.513Y50.697I0.000J0.500
N20140G2X90.013Y51.197I0.500J0.000
N20150G01Z-2.841F6.0
N20160G2X90.513Y50.697I0.000J-0.500F500.0
N20170G2X90.013Y50.197I-0.500J0.000
N20180G2X89.513Y50.697I0.000J0.500
N20190G2X90.013Y51.197I0.500J0.000
N20200G01Z-2.871F6.0
N20210G2X90.513Y50.697I0.000J-0.500F500.0
N20220G2X90.013Y50.197I-0.500J0.000
N20230G2X89.513Y50.697I0.000J0.500
N20240G2X90.013Y51.197I0.500J0.000
N20250G01Z-2.900F6.0
N20260G2X90.513Y50.697I0.000J-0.500F500.0
N20270G2X90.013Y50.197I-0.500J0.000
N20280G2X89.513Y50.697I0.000J0.500
N20290G2X90.013Y51.197I0.500J0.000
N20300G01Z-2.930F6.0
N20310G2X90.513Y50.697I0.000J-0.500F500.0
N20320G2X90.013Y50.197I-0.500J0.000
N20330G2X89.513Y50.697I0.000J0.500
N20340G2X90.013Y51.197I0.500J0.000
N20350G01Z-2.960F6.0
N20360G2X90.513Y50.697I0.000J-0.500F500.0
N20370G2X90.013Y50.197I-0.500J0.000
N20380G2X89.513Y50.697I0.000J0.500
N20390G2X90.013Y51.197I0.500J0.000
N20400G01Z-2.990F6.0
N20410G2X90.513Y50.697I0.000J-0.500F500.0
N20420G2X90.013Y50.197I-0.500J0.000
N20430G2X89.513Y50.697I0.000J0.500
N20440G2X90.013Y51.197I0.500J0.000
N20450G01Z-3.020F6.0
N20460G2X90.513Y50.697I0.000J-0.500F500.0
N20470G2X90.013Y50.197I-0.500J0.000
N20480G2X89.513Y50.697I0.000J0.500
N20490G2X90.013Y51.197I0.500J0.000
N20500G01Z-3.050F6.0
N20510G2X90.513Y50.697I0.000J-0.500F500.0
N20520G2X90.013Y50.197I-0.500J0.000
N20530G2X89.513Y50.697I0.000J0.500
N20540G2X90.013Y51.197I0.500J0.000
N20550G00Z6.000
N20560G00Y81.197
N20570G01Z-0.030F6.0
N20580G2X90.513Y80.697I0.000J-0.500F500.0
N20590G2X90.013Y80.197I-0.500J0.000
N20600G2X89.513Y80.697I0.000J0.500
N20610G2X90.013Y81.197I0.500J0.000
N20620G01Z-0.060F6.0
N20630G2X90.513Y80.697I0.000J-0.500F500.0
N20640G2X90.013Y80.197I-0.500J0.000
N20650G2X89.513Y80.697I0.000J0.500
N20660G2X90.013Y81.197I0.500J0.000
N20670G01Z-0.090F6.0
N20680G2X90.513Y80.697I0.000J-0.500F500.0
N20690G2X90.013Y80.197I-0.500J0.000
N20700G2X89.513Y80.697I0.000J0.500
N20710G2X90.013Y81.197I0.500J0.000
N20720G01Z-0.120F6.0
N20730G2X90.513Y80.697I0.000J-0.500F500.0
N20740G2X90.013Y80.197I-0.500J0.000
N20750G2X89.513Y80.697I0.000J0.500
N20760G2X90.013Y81.197I0.500J0.000
N20770G01Z-0.150F6.0
N20780G2X90.513Y80.697I0.000J-0.500F500.0
N20790G2X90.013Y80.197I-0.500J0.000
N20800G2X89.513Y80.697I0.000J0.500
N20810G2X90.013Y81.197I0.500J0.000
N20820G01Z-0.179F6.0
N20830G2X90.513Y80.697I0.000J-0.500F500.0
N20840G2X90.013Y80.197I-0.500J0.000
N20850G2X89.513Y80.697I0.000J0.500
N20860G2X90.013Y81.197I0.500J0.000
N20870G01Z-0.209F6.0
N20880G2X90.513Y80.697I0.000J-0.500F500.0
N20890G2X90.013Y80.197I-0.500J0.000
N20900G2X89.513Y80.697I0.000J0.500
N20910G2X90.013Y81.197I0.500J0.000
N20920G01Z-0.239F6.0
N20930G2X90.513Y80.697I0.000J-0.500F500.0
N20940G2X90.013Y80.197I-0.500J0.000
N20950G2X89.513Y80.697I0.000J0.500
N20960G2X90.013Y81.197I0.500J0.000
N20970G01Z-0.269F6.0
N20980G2X90.513Y80.697I0.000J-0.500F500.0
N20990G2X90.013Y80.197I-0.500J0.000
N21000G2X89.513Y80.697I0.000J0.500
N21010G2X90.013Y81.197I0.500J0.000
N21020G01Z-0.299F6.0
N21030G2X90.513Y80.697I0.000J-0.500F500.0
N21040G2X90.013Y80.197I-0.500J0.000
N21050G2X89.513Y80.697I0.000J0.500
N21060G2X90.013Y81.197I0.500J0.000
N21070G01Z-0.329F6.0
N21080G2X90.513Y80.697I0.000J-0.500F500.0
N21090G2X90.013Y80.197I-0.500J0.000
N21100G2X89.513Y80.697I0.000J0.500
N21110G2X90.013Y81.197I0.500J0.000
N21120G01Z-0.359F6.0
N21130G2X90.513Y80.697I0.000J-0.500F500.0
N21140G2X90.013Y80.197I-0.500J0.000
N21150G2X89.513Y80.697I0.000J0.500
N21160G2X90.013Y81.197I0.500J0.000
N21170G01Z-0.389F6.0
N21180G2X90.513Y80.697I0.000J-0.500F500.0
N21190G2X90.013Y80.197I-0.500J0.000
N21200G2X89.513Y80.697I0.000J0.500
N21210G2X90.013Y81.197I0.500J0.000
N21220G01Z-0.419F6.0
N21230G2X90.513Y80.697I0.000J-0.500F500.0
N21240G2X90.013Y80.197I-0.500J0.000
N21250G2X89.513Y80.697I0.000J0.500
N21260G2X90.013Y81.197I0.500J0.000
N21270G01Z-0.449F6.0
N21280G2X90.513Y80.697I0.000J-0.500F500.0
N21290G2X90.013Y80.197I-0.500J0.000
N21300G2X89.513Y80.697I0.000J0.500
N21310G2X90.013Y81.197I0.500J0.000
N21320G01Z-0.478F6.0
N21330G2X90.513Y80.697I0.000J-0.500F500.0
N21340G2X90.013Y80.197I-0.500J0.000
N21350G2X89.513Y80.697I0.000J0.500
N21360G2X90.013Y81.197I0.500J0.000
N21370G01Z-0.508F6.0
N21380G2X90.513Y80.697I0.000J-0.500F500.0
N21390G2X90.013Y80.197I-0.500J0.000
N21400G2X89.513Y80.697I0.000J0.500
N21410G2X90.013Y81.197I0.500J0.000
N21420G01Z-0.538F6.0
N21430G2X90.513Y80.697I0.000J-0.500F500.0
N21440G2X90.013Y80.197I-0.500J0.000
N21450G2X89.513Y80.697I0.000J0.500
N21460G2X90.013Y81.197I0.500J0.000
N21470G01Z-0.568F6.0
N21480G2X90.513Y80.697I0.000J-0.500F500.0
N21490G2X90.013Y80.197I-0.500J0.000
N21500G2X89.513Y80.697I0.000J0.500
N21510G2X90.013Y81.197I0.500J0.000
N21520G01Z-0.598F6.0
N21530G2X90.513Y80.697I0.000J-0.500F500.0
N21540G2X90.013Y80.197I-0.500J0.000
N21550G2X89.513Y80.697I0.000J0.500
N21560G2X90.013Y81.197I0.500J0.000
N21570G01Z-0.628F6.0
N21580G2X90.513Y80.697I0.000J-0.500F500.0
N21590G2X90.013Y80.197I-0.500J0.000
N21600G2X89.513Y80.697I0.000J0.500
N21610G2X90.013Y81.197I0.500J0.000
N21620G01Z-0.658F6.0
N21630G2X90.513Y80.697I0.000J-0.500F500.0
N21640G2X90.013Y80.197I-0.500J0.000
N21650G2X89.513Y80.697I0.000J0.500
N21660G2X90.013Y81.197I0.500J0.000
N21670G01Z-0.688F6.0
N21680G2X90.513Y80.697I0.000J-0.500F500.0
N21690G2X90.013Y80.197I-0.500J0.000
N21700G2X89.513Y80.697I0.000J0.500
N21710G2X90.013Y81.197I0.500J0.000
N21720G01Z-0.718F6.0
N21730G2X90.513Y80.697I0.000J-0.500F500.0
N21740G2X90.013Y80.197I-0.500J0.000
N21750G2X89.513Y80.697I0.000J0.500
N21760G2X90.013Y81.197I0.500J0.000
N21770G01Z-0.748F6.0
N21780G2X90.513Y80.697I0.000J-0.500F500.0
N21790G2X90.013Y80.197I-0.500J0.000
N21800G2X89.513Y80.697I0.000J0.500
N21810G2X90.013Y81.197I0.500J0.000
N21820G01Z-0.777F6.0
N21830G2X90.513Y80.697I0.000J-0.500F500.0
N21840G2X90.013Y80.197I-0.500J0.000
N21850G2X89.513Y80.697I0.000J0.500
N21860G2X90.013Y81.197I0.500J0.000
N21870G01Z-0.807F6.0
N21880G2X90.513Y80.697I0.000J-0.500F500.0
N21890G2X90.013Y80.197I-0.500J0.000
N21900G2X89.513Y80.697I0.000J0.500
N21910G2X90.013Y81.197I0.500J0.000
N21920G01Z-0.837F6.0
N21930G2X90.513Y80.697I0.000J-0.500F500.0
N21940G2X90.013Y80.197I-0.500J0.000
N21950G2X89.513Y80.697I0.000J0.500
N21960G2X90.013Y81.197I0.500J0.000
N21970G01Z-0.867F6.0
N21980G2X90.513Y80.697I0.000J-0.500F500.0
N21990G2X90.013Y80.197I-0.500J0.000
N22000G2X89.513Y80.697I0.000J0.500
N22010G2X90.013Y81.197I0.500J0.000
N22020G01Z-0.897F6.0
N22030G2X90.513Y80.697I0.000J-0.500F500.0
N22040G2X90.013Y80.197I-0.500J0.000
N22050G2X89.513Y80.697I0.000J0.500
N22060G2X90.013Y81.197I0.500J0.000
N22070G01Z-0.927F6.0
N22080G2X90.513Y80.697I0.000J-0.500F500.0
N22090G2X90.013Y80.197I-0.500J0.000
N22100G2X89.513Y80.697I0.000J0.500
N22110G2X90.013Y81.197I0.500J0.000
N22120G01Z-0.957F6.0
N22130G2X90.513Y80.697I0.000J-0.500F500.0
N22140G2X90.013Y80.197I-0.500J0.000
N22150G2X89.513Y80.697I0.000J0.500
N22160G2X90.013Y81.197I0.500J0.000
N22170G01Z-0.987F6.0
N22180G2X90.513Y80.697I0.000J-0.500F500.0
N22190G2X90.013Y80.197I-0.500J0.000
N22200G2X89.513Y80.697I0.000J0.500
N22210G2X90.013Y81.197I0.500J0.000
N22220G01Z-1.017F6.0
N22230G2X90.513Y80.697I0.000J-0.500F500.0
N22240G2X90.013Y80.197I-0.500J0.000
N22250G2X89.513Y80.697I0.000J0.500
N22260G2X90.013Y81.197I0.500J0.000
N22270G01Z-1.047F6.0
N22280G2X90.513Y80.697I0.000J-0.500F500.0
N22290G2X90.013Y80.197I-0.500J0.000
N22300G2X89.513Y80.697I0.000J0.500
N22310G2X90.013Y81.197I0.500J0.000
N22320G01Z-1.076F6.0
N22330G2X90.513Y80.697I0.000J-0.500F500.0
N22340G2X90.013Y80.197I-0.500J0.000
N22350G2X89.513Y80.697I0.000J0.500
N22360G2X90.013Y81.197I0.500J0.000
N22370G01Z-1.106F6.0
N22380G2X90.513Y80.697I0.000J-0.500F500.0
N22390G2X90.013Y80.197I-0.500J0.000
N22400G2X89.513Y80.697I0.000J0.500
N22410G2X90.013Y81.197I0.500J0.000
N22420G01Z-1.136F6.0
N22430G2X90.513Y80.697I0.000J-0.500F500.0
N22440G2X90.013Y80.197I-0.500J0.000
N22450G2X89.513Y80.697I0.000J0.500
N22460G2X90.013Y81.197I0.500J0.000
N22470G01Z-1.166F6.0
N22480G2X90.513Y80.697I0.000J-0.500F500.0
N22490G2X90.013Y80.197I-0.500J0.000
N22500G2X89.513Y80.697I0.000J0.500
N22510G2X90.013Y81.197I0.500J0.000
N22520G01Z-1.196F6.0
N22530G2X90.513Y80.697I0.000J-0.500F500.0
N22540G2X90.013Y80.197I-0.500J0.000
N22550G2X89.513Y80.697I0.000J0.500
N22560G2X90.013Y81.197I0.500J0.000
N22570G01Z-1.226F6.0
N22580G2X90.513Y80.697I0.000J-0.500F500.0
N22590G2X90.013Y80.197I-0.500J0.000
N22600G2X89.513Y80.697I0.000J0.500
N22610G2X90.013Y81.197I0.500J0.000
N22620G01Z-1.256F6.0
N22630G2X90.513Y80.697I0.000J-0.500F500.0
N22640G2X90.013Y80.197I-0.500J0.000
N22650G2X89.513Y80.697I0.000J0.500
N22660G2X90.013Y81.197I0.500J0.000
N22670G01Z-1.286F6.0
N22680G2X90.513Y80.697I0.000J-0.500F500.0
N22690G2X90.013Y80.197I-0.500J0.000
N22700G2X89.513Y80.697I0.000J0.500
N22710G2X90.013Y81.197I0.500J0.000
N22720G01Z-1.316F6.0
N22730G2X90.513Y80.697I0.000J-0.500F500.0
N22740G2X90.013Y80.197I-0.500J0.000
N22750G2X89.513Y80.697I0.000J0.500
N22760G2X90.013Y81.197I0.500J0.000
N22770G01Z-1.346F6.0
N22780G2X90.513Y80.697I0.000J-0.500F500.0
N22790G2X90.013Y80.197I-0.500J0.000
N22800G2X89.513Y80.697I0.000J0.500
N22810G2X90.013Y81.197I0.500J0.000
N22820G01Z-1.375F6.0
N22830G2X90.513Y80.697I0.000J-0.500F500.0
N22840G2X90.013Y80.197I-0.500J0.000
N22850G2X89.513Y80.697I0.000J0.500
N22860G2X90.013Y81.197I0.500J0.000
N22870G01Z-1.405F6.0
N22880G2X90.513Y80.697I0.000J-0.500F500.0
N22890G2X90.013Y80.197I-0.500J0.000
N22900G2X89.513Y80.697I0.000J0.500
N22910G2X90.013Y81.197I0.500J0.000
N22920G01Z-1.435F6.0
N22930G2X90.513Y80.697I0.000J-0.500F500.0
N22940G2X90.013Y80.197I-0.500J0.000
N22950G2X89.513Y80.697I0.000J0.500
N22960G2X90.013Y81.197I0.500J0.000
N22970G01Z-1.465F6.0
N22980G2X90.513Y80.697I0.000J-0.500F500.0
N22990G2X90.013Y80.197I-0.500J0.000
N23000G2X89.513Y80.697I0.000J0.500
N23010G2X90.013Y81.197I0.500J0.000
N23020G01Z-1.495F6.0
N23030G2X90.513Y80.697I0.000J-0.500F500.0
N23040G2X90.013Y80.197I-0.500J0.000
N23050G2X89.513Y80.697I0.000J0.500
N23060G2X90.013Y81.197I0.500J0.000
N23070G01Z-1.525F6.0
N23080G2X90.513Y80.697I0.000J-0.500F500.0
N23090G2X90.013Y80.197I-0.500J0.000
N23100G2X89.513Y80.697I0.000J0.500
N23110G2X90.013Y81.197I0.500J0.000
N23120G01Z-1.555F6.0
N23130G2X90.513Y80.697I0.000J-0.500F500.0
N23140G2X90.013Y80.197I-0.500J0.000
N23150G2X89.513Y80.697I0.000J0.500
N23160G2X90.013Y81.197I0.500J0.000
N23170G01Z-1.585F6.0
N23180G2X90.513Y80.697I0.000J-0.500F500.0
N23190G2X90.013Y80.197I-0.500J0.000
N23200G2X89.513Y80.697I0.000J0.500
N23210G2X90.013Y81.197I0.500J0.000
N23220G01Z-1.615F6.0
N23230G2X90.513Y80.697I0.000J-0.500F500.0
N23240G2X90.013Y80.197I-0.500J0.000
N23250G2X89.513Y80.697I0.000J0.500
N23260G2X90.013Y81.197I0.500J0.000
N23270G01Z-1.645F6.0
N23280G2X90.513Y80.697I0.000J-0.500F500.0
N23290G2X90.013Y80.197I-0.500J0.000
N23300G2X89.513Y80.697I0.000J0.500
N23310G2X90.013Y81.197I0.500J0.000
N23320G01Z-1.675F6.0
N23330G2X90.513Y80.697I0.000J-0.500F500.0
N23340G2X90.013Y80.197I-0.500J0.000
N23350G2X89.513Y80.697I0.000J0.500
N23360G2X90.013Y81.197I0.500J0.000
N23370G01Z-1.704F6.0
N23380G2X90.513Y80.697I0.000J-0.500F500.0
N23390G2X90.013Y80.197I-0.500J0.000
N23400G2X89.513Y80.697I0.000J0.500
N23410G2X90.013Y81.197I0.500J0.000
N23420G01Z-1.734F6.0
N23430G2X90.513Y80.697I0.000J-0.500F500.0
N23440G2X90.013Y80.197I-0.500J0.000
N23450G2X89.513Y80.697I0.000J0.500
N23460G2X90.013Y81.197I0.500J0.000
N23470G01Z-1.764F6.0
N23480G2X90.513Y80.697I0.000J-0.500F500.0
N23490G2X90.013Y80.197I-0.500J0.000
N23500G2X89.513Y80.697I0.000J0.500
N23510G2X90.013Y81.197I0.500J0.000
N23520G01Z-1.794F6.0
N23530G2X90.513Y80.697I0.000J-0.500F500.0
N23540G2X90.013Y80.197I-0.500J0.000
N23550G2X89.513Y80.697I0.000J0.500
N23560G2X90.013Y81.197I0.500J0.000
N23570G01Z-1.824F6.0
N23580G2X90.513Y80.697I0.000J-0.500F500.0
N23590G2X90.013Y80.197I-0.500J0.000
N23600G2X89.513Y80.697I0.000J0.500
N23610G2X90.013Y81.197I0.500J0.000
N23620G01Z-1.854F6.0
N23630G2X90.513Y80.697I0.000J-0.500F500.0
N23640G2X90.013Y80.197I-0.500J0.000
N23650G2X89.513Y80.697I0.000J0.500
N23660G2X90.013Y81.197I0.500J0.000
N23670G01Z-1.884F6.0
N23680G2X90.513Y80.697I0.000J-0.500F500.0
N23690G2X90.013Y80.197I-0.500J0.000
N23700G2X89.513Y80.697I0.000J0.500
N23710G2X90.013Y81.197I0.500J0.000
N23720G01Z-1.914F6.0
N23730G2X90.513Y80.697I0.000J-0.500F500.0
N23740G2X90.013Y80.197I-0.500J0.000
N23750G2X89.513Y80.697I0.000J0.500
N23760G2X90.013Y81.197I0.500J0.000
N23770G01Z-1.944F6.0
N23780G2X90.513Y80.697I0.000J-0.500F500.0
N23790G2X90.013Y80.197I-0.500J0.000
N23800G2X89.513Y80.697I0.000J0.500
N23810G2X90.013Y81.197I0.500J0.000
N23820G01Z-1.974F6.0
N23830G2X90.513Y80.697I0.000J-0.500F500.0
N23840G2X90.013Y80.197I-0.500J0.000
N23850G2X89.513Y80.697I0.000J0.500
N23860G2X90.013Y81.197I0.500J0.000
N23870G01Z-2.003F6.0
N23880G2X90.513Y80.697I0.000J-0.500F500.0
N23890G2X90.013Y80.197I-0.500J0.000
N23900G2X89.513Y80.697I0.000J0.500
N23910G2X90.013Y81.197I0.500J0.000
N23920G01Z-2.033F6.0
N23930G2X90.513Y80.697I0.000J-0.500F500.0
N23940G2X90.013Y80.197I-0.500J0.000
N23950G2X89.513Y80.697I0.000J0.500
N23960G2X90.013Y81.197I0.500J0.000
N23970G01Z-2.063F6.0
N23980G2X90.513Y80.697I0.000J-0.500F500.0
N23990G2X90.013Y80.197I-0.500J0.000
N24000G2X89.513Y80.697I0.000J0.500
N24010G2X90.013Y81.197I0.500J0.000
N24020G01Z-2.093F6.0
N24030G2X90.513Y80.697I0.000J-0.500F500.0
N24040G2X90.013Y80.197I-0.500J0.000
N24050G2X89.513Y80.697I0.000J0.500
N24060G2X90.013Y81.197I0.500J0.000
N24070G01Z-2.123F6.0
N24080G2X90.513Y80.697I0.000J-0.500F500.0
N24090G2X90.013Y80.197I-0.500J0.000
N24100G2X89.513Y80.697I0.000J0.500
N24110G2X90.013Y81.197I0.500J0.000
N24120G01Z-2.153F6.0
N24130G2X90.513Y80.697I0.000J-0.500F500.0
N24140G2X90.013Y80.197I-0.500J0.000
N24150G2X89.513Y80.697I0.000J0.500
N24160G2X90.013Y81.197I0.500J0.000
N24170G01Z-2.183F6.0
N24180G2X90.513Y80.697I0.000J-0.500F500.0
N24190G2X90.013Y80.197I-0.500J0.000
N24200G2X89.513Y80.697I0.000J0.500
N24210G2X90.013Y81.197I0.500J0.000
N24220G01Z-2.213F6.0
N24230G2X90.513Y80.697I0.000J-0.500F500.0
N24240G2X90.013Y80.197I-0.500J0.000
N24250G2X89.513Y80.697I0.000J0.500
N24260G2X90.013Y81.197I0.500J0.000
N24270G01Z-2.243F6.0
N24280G2X90.513Y80.697I0.000J-0.500F500.0
N24290G2X90.013Y80.197I-0.500J0.000
N24300G2X89.513Y80.697I0.000J0.500
N24310G2X90.013Y81.197I0.500J0.000
N24320G01Z-2.273F6.0
N24330G2X90.513Y80.697I0.000J-0.500F500.0
N24340G2X90.013Y80.197I-0.500J0.000
N24350G2X89.513Y80.697I0.000J0.500
N24360G2X90.013Y81.197I0.500J0.000
N24370G01Z-2.302F6.0
N24380G2X90.513Y80.697I0.000J-0.500F500.0
N24390G2X90.013Y80.197I-0.500J0.000
N24400G2X89.513Y80.697I0.000J0.500
N24410G2X90.013Y81.197I0.500J0.000
N24420G01Z-2.332F6.0
N24430G2X90.513Y80.697I0.000J-0.500F500.0
N24440G2X90.013Y80.197I-0.500J0.000
N24450G2X89.513Y80.697I0.000J0.500
N24460G2X90.013Y81.197I0.500J0.000
N24470G01Z-2.362F6.0
N24480G2X90.513Y80.697I0.000J-0.500F500.0
N24490G2X90.013Y80.197I-0.500J0.000
N24500G2X89.513Y80.697I0.000J0.500
N24510G2X90.013Y81.197I0.500J0.000
N24520G01Z-2.392F6.0
N24530G2X90.513Y80.697I0.000J-0.500F500.0
N24540G2X90.013Y80.197I-0.500J0.000
N24550G2X89.513Y80.697I0.000J0.500
N24560G2X90.013Y81.197I0.500J0.000
N24570G01Z-2.422F6.0
N24580G2X90.513Y80.697I0.000J-0.500F500.0
N24590G2X90.013Y80.197I-0.500J0.000
N24600G2X89.513Y80.697I0.000J0.500
N24610G2X90.013Y81.197I0.500J0.000
N24620G01Z-2.452F6.0
N24630G2X90.513Y80.697I0.000J-0.500F500.0
N24640G2X90.013Y80.197I-0.500J0.000
N24650G2X89.513Y80.697I0.000J0.500
N24660G2X90.013Y81.197I0.500J0.000
N24670G01Z-2.482F6.0
N24680G2X90.513Y80.697I0.000J-0.500F500.0
N24690G2X90.013Y80.197I-0.500J0.000
N24700G2X89.513Y80.697I0.000J0.500
N24710G2X90.013Y81.197I0.500J0.000
N24720G01Z-2.512F6.0
N24730G2X90.513Y80.697I0.000J-0.500F500.0
N24740G2X90.013Y80.197I-0.500J0.000
N24750G2X89.513Y80.697I0.000J0.500
N24760G2X90.013Y81.197I0.500J0.000
N24770G01Z-2.542F6.0
N24780G2X90.513Y80.697I0.000J-0.500F500.0
N24790G2X90.013Y80.197I-0.500J0.000
N24800G2X89.513Y80.697I0.000J0.500
N24810G2X90.013Y81.197I0.500J0.000
N24820G01Z-2.572F6.0
N24830G2X90.513Y80.697I0.000J-0.500F500.0
N24840G2X90.013Y80.197I-0.500J0.000
N24850G2X89.513Y80.697I0.000J0.500
N24860G2X90.013Y81.197I0.500J0.000
N24870G01Z-2.601F6.0
N24880G2X90.513Y80.697I0.000J-0.500F500.0
N24890G2X90.013Y80.197I-0.500J0.000
N24900G2X89.513Y80.697I0.000J0.500
N24910G2X90.013Y81.197I0.500J0.000
N24920G01Z-2.631F6.0
N24930G2X90.513Y80.697I0.000J-0.500F500.0
N24940G2X90.013Y80.197I-0.500J0.000
N24950G2X89.513Y80.697I0.000J0.500
N24960G2X90.013Y81.197I0.500J0.000
N24970G01Z-2.661F6.0
N24980G2X90.513Y80.697I0.000J-0.500F500.0
N24990G2X90.013Y80.197I-0.500J0.000
N25000G2X89.513Y80.697I0.000J0.500
N25010G2X90.013Y81.197I0.500J0.000
N25020G01Z-2.691F6.0
N25030G2X90.513Y80.697I0.000J-0.500F500.0
N25040G2X90.013Y80.197I-0.500J0.000
N25050G2X89.513Y80.697I0.000J0.500
N25060G2X90.013Y81.197I0.500J0.000
N25070G01Z-2.721F6.0
N25080G2X90.513Y80.697I0.000J-0.500F500.0
N25090G2X90.013Y80.197I-0.500J0.000
N25100G2X89.513Y80.697I0.000J0.500
N25110G2X90.013Y81.197I0.500J0.000
N25120G01Z-2.751F6.0
N25130G2X90.513Y80.697I0.000J-0.500F500.0
N25140G2X90.013Y80.197I-0.500J0.000
N25150G2X89.513Y80.697I0.000J0.500
N25160G2X90.013Y81.197I0.500J0.000
N25170G01Z-2.781F6.0
N25180G2X90.513Y80.697I0.000J-0.500F500.0
N25190G2X90.013Y80.197I-0.500J0.000
N25200G2X89.513Y80.697I0.000J0.500
N25210G2X90.013Y81.197I0.500J0.000
N25220G01Z-2.811F6.0
N25230G2X90.513Y80.697I0.000J-0.500F500.0
N25240G2X90.013Y80.197I-0.500J0.000
N25250G2X89.513Y80.697I0.000J0.500
N25260G2X90.013Y81.197I0.500J0.000
N25270G01Z-2.841F6.0
N25280G2X90.513Y80.697I0.000J-0.500F500.0
N25290G2X90.013Y80.197I-0.500J0.000
N25300G2X89.513Y80.697I0.000J0.500
N25310G2X90.013Y81.197I0.500J0.000
N25320G01Z-2.871F6.0
N25330G2X90.513Y80.697I0.000J-0.500F500.0
N25340G2X90.013Y80.197I-0.500J0.000
N25350G2X89.513Y80.697I0.000J0.500
N25360G2X90.013Y81.197I0.500J0.000
N25370G01Z-2.900F6.0
N25380G2X90.513Y80.697I0.000J-0.500F500.0
N25390G2X90.013Y80.197I-0.500J0.000
N25400G2X89.513Y80.697I0.000J0.500
N25410G2X90.013Y81.197I0.500J0.000
N25420G01Z-2.930F6.0
N25430G2X90.513Y80.697I0.000J-0.500F500.0
N25440G2X90.013Y80.197I-0.500J0.000
N25450G2X89.513Y80.697I0.000J0.500
N25460G2X90.013Y81.197I0.500J0.000
N25470G01Z-2.960F6.0
N25480G2X90.513Y80.697I0.000J-0.500F500.0
N25490G2X90.013Y80.197I-0.500J0.000
N25500G2X89.513Y80.697I0.000J0.500
N25510G2X90.013Y81.197I0.500J0.000
N25520G01Z-2.990F6.0
N25530G2X90.513Y80.697I0.000J-0.500F500.0
N25540G2X90.013Y80.197I-0.500J0.000
N25550G2X89.513Y80.697I0.000J0.500
N25560G2X90.013Y81.197I0.500J0.000
N25570G01Z-3.020F6.0
N25580G2X90.513Y80.697I0.000J-0.500F500.0
N25590G2X90.013Y80.197I-0.500J0.000
N25600G2X89.513Y80.697I0.000J0.500
N25610G2X90.013Y81.197I0.500J0.000
N25620G01Z-3.050F6.0
N25630G2X90.513Y80.697I0.000J-0.500F500.0
N25640G2X90.013Y80.197I-0.500J0.000
N25650G2X89.513Y80.697I0.000J0.500
N25660G2X90.013Y81.197I0.500J0.000
N25670G00Z6.000
N25680G00X80.013
N25690G01Z-0.030F6.0
N25700G2X80.513Y80.697I0.000J-0.500F500.0
N25710G2X80.013Y80.197I-0.500J0.000
N25720G2X79.513Y80.697I0.000J0.500
N25730G2X80.013Y81.197I0.500J0.000
N25740G01Z-0.060F6.0
N25750G2X80.513Y80.697I0.000J-0.500F500.0
N25760G2X80.013Y80.197I-0.500J0.000
N25770G2X79.513Y80.697I0.000J0.500
N25780G2X80.013Y81.197I0.500J0.000
N25790G01Z-0.090F6.0
N25800G2X80.513Y80.697I0.000J-0.500F500.0
N25810G2X80.013Y80.197I-0.500J0.000
N25820G2X79.513Y80.697I0.000J0.500
N25830G2X80.013Y81.197I0.500J0.000
N25840G01Z-0.120F6.0
N25850G2X80.513Y80.697I0.000J-0.500F500.0
N25860G2X80.013Y80.197I-0.500J0.000
N25870G2X79.513Y80.697I0.000J0.500
N25880G2X80.013Y81.197I0.500J0.000
N25890G01Z-0.150F6.0
N25900G2X80.513Y80.697I0.000J-0.500F500.0
N25910G2X80.013Y80.197I-0.500J0.000
N25920G2X79.513Y80.697I0.000J0.500
N25930G2X80.013Y81.197I0.500J0.000
N25940G01Z-0.179F6.0
N25950G2X80.513Y80.697I0.000J-0.500F500.0
N25960G2X80.013Y80.197I-0.500J0.000
N25970G2X79.513Y80.697I0.000J0.500
N25980G2X80.013Y81.197I0.500J0.000
N25990G01Z-0.209F6.0
N26000G2X80.513Y80.697I0.000J-0.500F500.0
N26010G2X80.013Y80.197I-0.500J0.000
N26020G2X79.513Y80.697I0.000J0.500
N26030G2X80.013Y81.197I0.500J0.000
N26040G01Z-0.239F6.0
N26050G2X80.513Y80.697I0.000J-0.500F500.0
N26060G2X80.013Y80.197I-0.500J0.000
N26070G2X79.513Y80.697I0.000J0.500
N26080G2X80.013Y81.197I0.500J0.000
N26090G01Z-0.269F6.0
N26100G2X80.513Y80.697I0.000J-0.500F500.0
N26110G2X80.013Y80.197I-0.500J0.000
N26120G2X79.513Y80.697I0.000J0.500
N26130G2X80.013Y81.197I0.500J0.000
N26140G01Z-0.299F6.0
N26150G2X80.513Y80.697I0.000J-0.500F500.0
N26160G2X80.013Y80.197I-0.500J0.000
N26170G2X79.513Y80.697I0.000J0.500
N26180G2X80.013Y81.197I0.500J0.000
N26190G01Z-0.329F6.0
N26200G2X80.513Y80.697I0.000J-0.500F500.0
N26210G2X80.013Y80.197I-0.500J0.000
N26220G2X79.513Y80.697I0.000J0.500
N26230G2X80.013Y81.197I0.500J0.000
N26240G01Z-0.359F6.0
N26250G2X80.513Y80.697I0.000J-0.500F500.0
N26260G2X80.013Y80.197I-0.500J0.000
N26270G2X79.513Y80.697I0.000J0.500
N26280G2X80.013Y81.197I0.500J0.000
N26290G01Z-0.389F6.0
N26300G2X80.513Y80.697I0.000J-0.500F500.0
N26310G2X80.013Y80.197I-0.500J0.000
N26320G2X79.513Y80.697I0.000J0.500
N26330G2X80.013Y81.197I0.500J0.000
N26340G01Z-0.419F6.0
N26350G2X80.513Y80.697I0.000J-0.500F500.0
N26360G2X80.013Y80.197I-0.500J0.000
N26370G2X79.513Y80.697I0.000J0.500
N26380G2X80.013Y81.197I0.500J0.000
N26390G01Z-0.449F6.0
N26400G2X80.513Y80.697I0.000J-0.500F500.0
N26410G2X80.013Y80.197I-0.500J0.000
N26420G2X79.513Y80.697I0.000J0.500
N26430G2X80.013Y81.197I0.500J0.000
N26440G01Z-0.478F6.0
N26450G2X80.513Y80.697I0.000J-0.500F500.0
N26460G2X80.013Y80.197I-0.500J0.000
N26470G2X79.513Y80.697I0.000J0.500
N26480G2X80.013Y81.197I0.500J0.000
N26490G01Z-0.508F6.0
N26500G2X80.513Y80.697I0.000J-0.500F500.0
N26510G2X80.013Y80.197I-0.500J0.000
N26520G2X79.513Y80.697I0.000J0.500
N26530G2X80.013Y81.197I0.500J0.000
N26540G01Z-0.538F6.0
N26550G2X80.513Y80.697I0.000J-0.500F500.0
N26560G2X80.013Y80.197I-0.500J0.000
N26570G2X79.513Y80.697I0.000J0.500
N26580G2X80.013Y81.197I0.500J0.000
N26590G01Z-0.568F6.0
N26600G2X80.513Y80.697I0.000J-0.500F500.0
N26610G2X80.013Y80.197I-0.500J0.000
N26620G2X79.513Y80.697I0.000J0.500
N26630G2X80.013Y81.197I0.500J0.000
N26640G01Z-0.598F6.0
N26650G2X80.513Y80.697I0.000J-0.500F500.0
N26660G2X80.013Y80.197I-0.500J0.000
N26670G2X79.513Y80.697I0.000J0.500
N26680G2X80.013Y81.197I0.500J0.000
N26690G01Z-0.628F6.0
N26700G2X80.513Y80.697I0.000J-0.500F500.0
N26710G2X80.013Y80.197I-0.500J0.000
N26720G2X79.513Y80.697I0.000J0.500
N26730G2X80.013Y81.197I0.500J0.000
N26740G01Z-0.658F6.0
N26750G2X80.513Y80.697I0.000J-0.500F500.0
N26760G2X80.013Y80.197I-0.500J0.000
N26770G2X79.513Y80.697I0.000J0.500
N26780G2X80.013Y81.197I0.500J0.000
N26790G01Z-0.688F6.0
N26800G2X80.513Y80.697I0.000J-0.500F500.0
N26810G2X80.013Y80.197I-0.500J0.000
N26820G2X79.513Y80.697I0.000J0.500
N26830G2X80.013Y81.197I0.500J0.000
N26840G01Z-0.718F6.0
N26850G2X80.513Y80.697I0.000J-0.500F500.0
N26860G2X80.013Y80.197I-0.500J0.000
N26870G2X79.513Y80.697I0.000J0.500
N26880G2X80.013Y81.197I0.500J0.000
N26890G01Z-0.748F6.0
N26900G2X80.513Y80.697I0.000J-0.500F500.0
N26910G2X80.013Y80.197I-0.500J0.000
N26920G2X79.513Y80.697I0.000J0.500
N26930G2X80.013Y81.197I0.500J0.000
N26940G01Z-0.777F6.0
N26950G2X80.513Y80.697I0.000J-0.500F500.0
N26960G2X80.013Y80.197I-0.500J0.000
N26970G2X79.513Y80.697I0.000J0.500
N26980G2X80.013Y81.197I0.500J0.000
N26990G01Z-0.807F6.0
N27000G2X80.513Y80.697I0.000J-0.500F500.0
N27010G2X80.013Y80.197I-0.500J0.000
N27020G2X79.513Y80.697I0.000J0.500
N27030G2X80.013Y81.197I0.500J0.000
N27040G01Z-0.837F6.0
N27050G2X80.513Y80.697I0.000J-0.500F500.0
N27060G2X80.013Y80.197I-0.500J0.000
N27070G2X79.513Y80.697I0.000J0.500
N27080G2X80.013Y81.197I0.500J0.000
N27090G01Z-0.867F6.0
N27100G2X80.513Y80.697I0.000J-0.500F500.0
N27110G2X80.013Y80.197I-0.500J0.000
N27120G2X79.513Y80.697I0.000J0.500
N27130G2X80.013Y81.197I0.500J0.000
N27140G01Z-0.897F6.0
N27150G2X80.513Y80.697I0.000J-0.500F500.0
N27160G2X80.013Y80.197I-0.500J0.000
N27170G2X79.513Y80.697I0.000J0.500
N27180G2X80.013Y81.197I0.500J0.000
N27190G01Z-0.927F6.0
N27200G2X80.513Y80.697I0.000J-0.500F500.0
N27210G2X80.013Y80.197I-0.500J0.000
N27220G2X79.513Y80.697I0.000J0.500
N27230G2X80.013Y81.197I0.500J0.000
N27240G01Z-0.957F6.0
N27250G2X80.513Y80.697I0.000J-0.500F500.0
N27260G2X80.013Y80.197I-0.500J0.000
N27270G2X79.513Y80.697I0.000J0.500
N27280G2X80.013Y81.197I0.500J0.000
N27290G01Z-0.987F6.0
N27300G2X80.513Y80.697I0.000J-0.500F500.0
N27310G2X80.013Y80.197I-0.500J0.000
N27320G2X79.513Y80.697I0.000J0.500
N27330G2X80.013Y81.197I0.500J0.000
N27340G01Z-1.017F6.0
N27350G2X80.513Y80.697I0.000J-0.500F500.0
N27360G2X80.013Y80.197I-0.500J0.000
N27370G2X79.513Y80.697I0.000J0.500
N27380G2X80.013Y81.197I0.500J0.000
N27390G01Z-1.047F6.0
N27400G2X80.513Y80.697I0.000J-0.500F500.0
N27410G2X80.013Y80.197I-0.500J0.000
N27420G2X79.513Y80.697I0.000J0.500
N27430G2X80.013Y81.197I0.500J0.000
N27440G01Z-1.076F6.0
N27450G2X80.513Y80.697I0.000J-0.500F500.0
N27460G2X80.013Y80.197I-0.500J0.000
N27470G2X79.513Y80.697I0.000J0.500
N27480G2X80.013Y81.197I0.500J0.000
N27490G01Z-1.106F6.0
N27500G2X80.513Y80.697I0.000J-0.500F500.0
N27510G2X80.013Y80.197I-0.500J0.000
N27520G2X79.513Y80.697I0.000J0.500
N27530G2X80.013Y81.197I0.500J0.000
N27540G01Z-1.136F6.0
N27550G2X80.513Y80.697I0.000J-0.500F500.0
N27560G2X80.013Y80.197I-0.500J0.000
N27570G2X79.513Y80.697I0.000J0.500
N27580G2X80.013Y81.197I0.500J0.000
N27590G01Z-1.166F6.0
N27600G2X80.513Y80.697I0.000J-0.500F500.0
N27610G2X80.013Y80.197I-0.500J0.000
N27620G2X79.513Y80.697I0.000J0.500
N27630G2X80.013Y81.197I0.500J0.000
N27640G01Z-1.196F6.0
N27650G2X80.513Y80.697I0.000J-0.500F500.0
N27660G2X80.013Y80.197I-0.500J0.000
N27670G2X79.513Y80.697I0.000J0.500
N27680G2X80.013Y81.197I0.500J0.000
N27690G01Z-1.226F6.0
N27700G2X80.513Y80.697I0.000J-0.500F500.0
N27710G2X80.013Y80.197I-0.500J0.000
N27720G2X79.513Y80.697I0.000J0.500
N27730G2X80.013Y81.197I0.500J0.000
N27740G01Z-1.256F6.0
N27750G2X80.513Y80.697I0.000J-0.500F500.0
N27760G2X80.013Y80.197I-0.500J0.000
N27770G2X79.513Y80.697I0.000J0.500
N27780G2X80.013Y81.197I0.500J0.000
N27790G01Z-1.286F6.0
N27800G2X80.513Y80.697I0.000J-0.500F500.0
N27810G2X80.013Y80.197I-0.500J0.000
N27820G2X79.513Y80.697I0.000J0.500
N27830G2X80.013Y81.197I0.500J0.000
N27840G01Z-1.316F6.0
N27850G2X80.513Y80.697I0.000J-0.500F500.0
N27860G2X80.013Y80.197I-0.500J0.000
N27870G2X79.513Y80.697I0.000J0.500
N27880G2X80.013Y81.197I0.500J0.000
N27890G01Z-1.346F6.0
N27900G2X80.513Y80.697I0.000J-0.500F500.0
N27910G2X80.013Y80.197I-0.500J0.000
N27920G2X79.513Y80.697I0.000J0.500
N27930G2X80.013Y81.197I0.500J0.000
N27940G01Z-1.375F6.0
N27950G2X80.513Y80.697I0.000J-0.500F500.0
N27960G2X80.013Y80.197I-0.500J0.000
N27970G2X79.513Y80.697I0.000J0.500
N27980G2X80.013Y81.197I0.500J0.000
N27990G01Z-1.405F6.0
N28000G2X80.513Y80.697I0.000J-0.500F500.0
N28010G2X80.013Y80.197I-0.500J0.000
N28020G2X79.513Y80.697I0.000J0.500
N28030G2X80.013Y81.197I0.500J0.000
N28040G01Z-1.435F6.0
N28050G2X80.513Y80.697I0.000J-0.500F500.0
N28060G2X80.013Y80.197I-0.500J0.000
N28070G2X79.513Y80.697I0.000J0.500
N28080G2X80.013Y81.197I0.500J0.000
N28090G01Z-1.465F6.0
N28100G2X80.513Y80.697I0.000J-0.500F500.0
N28110G2X80.013Y80.197I-0.500J0.000
N28120G2X79.513Y80.697I0.000J0.500
N28130G2X80.013Y81.197I0.500J0.000
N28140G01Z-1.495F6.0
N28150G2X80.513Y80.697I0.000J-0.500F500.0
N28160G2X80.013Y80.197I-0.500J0.000
N28170G2X79.513Y80.697I0.000J0.500
N28180G2X80.013Y81.197I0.500J0.000
N28190G01Z-1.525F6.0
N28200G2X80.513Y80.697I0.000J-0.500F500.0
N28210G2X80.013Y80.197I-0.500J0.000
N28220G2X79.513Y80.697I0.000J0.500
N28230G2X80.013Y81.197I0.500J0.000
N28240G01Z-1.555F6.0
N28250G2X80.513Y80.697I0.000J-0.500F500.0
N28260G2X80.013Y80.197I-0.500J0.000
N28270G2X79.513Y80.697I0.000J0.500
N28280G2X80.013Y81.197I0.500J0.000
N28290G01Z-1.585F6.0
N28300G2X80.513Y80.697I0.000J-0.500F500.0
N28310G2X80.013Y80.197I-0.500J0.000
N28320G2X79.513Y80.697I0.000J0.500
N28330G2X80.013Y81.197I0.500J0.000
N28340G01Z-1.615F6.0
N28350G2X80.513Y80.697I0.000J-0.500F500.0
N28360G2X80.013Y80.197I-0.500J0.000
N28370G2X79.513Y80.697I0.000J0.500
N28380G2X80.013Y81.197I0.500J0.000
N28390G01Z-1.645F6.0
N28400G2X80.513Y80.697I0.000J-0.500F500.0
N28410G2X80.013Y80.197I-0.500J0.000
N28420G2X79.513Y80.697I0.000J0.500
N28430G2X80.013Y81.197I0.500J0.000
N28440G01Z-1.675F6.0
N28450G2X80.513Y80.697I0.000J-0.500F500.0
N28460G2X80.013Y80.197I-0.500J0.000
N28470G2X79.513Y80.697I0.000J0.500
N28480G2X80.013Y81.197I0.500J0.000
N28490G01Z-1.704F6.0
N28500G2X80.513Y80.697I0.000J-0.500F500.0
N28510G2X80.013Y80.197I-0.500J0.000
N28520G2X79.513Y80.697I0.000J0.500
N28530G2X80.013Y81.197I0.500J0.000
N28540G01Z-1.734F6.0
N28550G2X80.513Y80.697I0.000J-0.500F500.0
N28560G2X80.013Y80.197I-0.500J0.000
N28570G2X79.513Y80.697I0.000J0.500
N28580G2X80.013Y81.197I0.500J0.000
N28590G01Z-1.764F6.0
N28600G2X80.513Y80.697I0.000J-0.500F500.0
N28610G2X80.013Y80.197I-0.500J0.000
N28620G2X79.513Y80.697I0.000J0.500
N28630G2X80.013Y81.197I0.500J0.000
N28640G01Z-1.794F6.0
N28650G2X80.513Y80.697I0.000J-0.500F500.0
N28660G2X80.013Y80.197I-0.500J0.000
N28670G2X79.513Y80.697I0.000J0.500
N28680G2X80.013Y81.197I0.500J0.000
N28690G01Z-1.824F6.0
N28700G2X80.513Y80.697I0.000J-0.500F500.0
N28710G2X80.013Y80.197I-0.500J0.000
N28720G2X79.513Y80.697I0.000J0.500
N28730G2X80.013Y81.197I0.500J0.000
N28740G01Z-1.854F6.0
N28750G2X80.513Y80.697I0.000J-0.500F500.0
N28760G2X80.013Y80.197I-0.500J0.000
N28770G2X79.513Y80.697I0.000J0.500
N28780G2X80.013Y81.197I0.500J0.000
N28790G01Z-1.884F6.0
N28800G2X80.513Y80.697I0.000J-0.500F500.0
N28810G2X80.013Y80.197I-0.500J0.000
N28820G2X79.513Y80.697I0.000J0.500
N28830G2X80.013Y81.197I0.500J0.000
N28840G01Z-1.914F6.0
N28850G2X80.513Y80.697I0.000J-0.500F500.0
N28860G2X80.013Y80.197I-0.500J0.000
N28870G2X79.513Y80.697I0.000J0.500
N28880G2X80.013Y81.197I0.500J0.000
N28890G01Z-1.944F6.0
N28900G2X80.513Y80.697I0.000J-0.500F500.0
N28910G2X80.013Y80.197I-0.500J0.000
N28920G2X79.513Y80.697I0.000J0.500
N28930G2X80.013Y81.197I0.500J0.000
N28940G01Z-1.974F6.0
N28950G2X80.513Y80.697I0.000J-0.500F500.0
N28960G2X80.013Y80.197I-0.500J0.000
N28970G2X79.513Y80.697I0.000J0.500
N28980G2X80.013Y81.197I0.500J0.000
N28990G01Z-2.003F6.0
N29000G2X80.513Y80.697I0.000J-0.500F500.0
N29010G2X80.013Y80.197I-0.500J0.000
N29020G2X79.513Y80.697I0.000J0.500
N29030G2X80.013Y81.197I0.500J0.000
N29040G01Z-2.033F6.0
N29050G2X80.513Y80.697I0.000J-0.500F500.0
N29060G2X80.013Y80.197I-0.500J0.000
N29070G2X79.513Y80.697I0.000J0.500
N29080G2X80.013Y81.197I0.500J0.000
N29090G01Z-2.063F6.0
N29100G2X80.513Y80.697I0.000J-0.500F500.0
N29110G2X80.013Y80.197I-0.500J0.000
N29120G2X79.513Y80.697I0.000J0.500
N29130G2X80.013Y81.197I0.500J0.000
N29140G01Z-2.093F6.0
N29150G2X80.513Y80.697I0.000J-0.500F500.0
N29160G2X80.013Y80.197I-0.500J0.000
N29170G2X79.513Y80.697I0.000J0.500
N29180G2X80.013Y81.197I0.500J0.000
N29190G01Z-2.123F6.0
N29200G2X80.513Y80.697I0.000J-0.500F500.0
N29210G2X80.013Y80.197I-0.500J0.000
N29220G2X79.513Y80.697I0.000J0.500
N29230G2X80.013Y81.197I0.500J0.000
N29240G01Z-2.153F6.0
N29250G2X80.513Y80.697I0.000J-0.500F500.0
N29260G2X80.013Y80.197I-0.500J0.000
N29270G2X79.513Y80.697I0.000J0.500
N29280G2X80.013Y81.197I0.500J0.000
N29290G01Z-2.183F6.0
N29300G2X80.513Y80.697I0.000J-0.500F500.0
N29310G2X80.013Y80.197I-0.500J0.000
N29320G2X79.513Y80.697I0.000J0.500
N29330G2X80.013Y81.197I0.500J0.000
N29340G01Z-2.213F6.0
N29350G2X80.513Y80.697I0.000J-0.500F500.0
N29360G2X80.013Y80.197I-0.500J0.000
N29370G2X79.513Y80.697I0.000J0.500
N29380G2X80.013Y81.197I0.500J0.000
N29390G01Z-2.243F6.0
N29400G2X80.513Y80.697I0.000J-0.500F500.0
N29410G2X80.013Y80.197I-0.500J0.000
N29420G2X79.513Y80.697I0.000J0.500
N29430G2X80.013Y81.197I0.500J0.000
N29440G01Z-2.273F6.0
N29450G2X80.513Y80.697I0.000J-0.500F500.0
N29460G2X80.013Y80.197I-0.500J0.000
N29470G2X79.513Y80.697I0.000J0.500
N29480G2X80.013Y81.197I0.500J0.000
N29490G01Z-2.302F6.0
N29500G2X80.513Y80.697I0.000J-0.500F500.0
N29510G2X80.013Y80.197I-0.500J0.000
N29520G2X79.513Y80.697I0.000J0.500
N29530G2X80.013Y81.197I0.500J0.000
N29540G01Z-2.332F6.0
N29550G2X80.513Y80.697I0.000J-0.500F500.0
N29560G2X80.013Y80.197I-0.500J0.000
N29570G2X79.513Y80.697I0.000J0.500
N29580G2X80.013Y81.197I0.500J0.000
N29590G01Z-2.362F6.0
N29600G2X80.513Y80.697I0.000J-0.500F500.0
N29610G2X80.013Y80.197I-0.500J0.000
N29620G2X79.513Y80.697I0.000J0.500
N29630G2X80.013Y81.197I0.500J0.000
N29640G01Z-2.392F6.0
N29650G2X80.513Y80.697I0.000J-0.500F500.0
N29660G2X80.013Y80.197I-0.500J0.000
N29670G2X79.513Y80.697I0.000J0.500
N29680G2X80.013Y81.197I0.500J0.000
N29690G01Z-2.422F6.0
N29700G2X80.513Y80.697I0.000J-0.500F500.0
N29710G2X80.013Y80.197I-0.500J0.000
N29720G2X79.513Y80.697I0.000J0.500
N29730G2X80.013Y81.197I0.500J0.000
N29740G01Z-2.452F6.0
N29750G2X80.513Y80.697I0.000J-0.500F500.0
N29760G2X80.013Y80.197I-0.500J0.000
N29770G2X79.513Y80.697I0.000J0.500
N29780G2X80.013Y81.197I0.500J0.000
N29790G01Z-2.482F6.0
N29800G2X80.513Y80.697I0.000J-0.500F500.0
N29810G2X80.013Y80.197I-0.500J0.000
N29820G2X79.513Y80.697I0.000J0.500
N29830G2X80.013Y81.197I0.500J0.000
N29840G01Z-2.512F6.0
N29850G2X80.513Y80.697I0.000J-0.500F500.0
N29860G2X80.013Y80.197I-0.500J0.000
N29870G2X79.513Y80.697I0.000J0.500
N29880G2X80.013Y81.197I0.500J0.000
N29890G01Z-2.542F6.0
N29900G2X80.513Y80.697I0.000J-0.500F500.0
N29910G2X80.013Y80.197I-0.500J0.000
N29920G2X79.513Y80.697I0.000J0.500
N29930G2X80.013Y81.197I0.500J0.000
N29940G01Z-2.572F6.0
N29950G2X80.513Y80.697I0.000J-0.500F500.0
N29960G2X80.013Y80.197I-0.500J0.000
N29970G2X79.513Y80.697I0.000J0.500
N29980G2X80.013Y81.197I0.500J0.000
N29990G01Z-2.601F6.0
